Lumix LUTs/D_Overexpose3S_LOG.cube
TITLE "Generated by Resolve"
LUT_3D_SIZE 9
0 0 0.000854505
0 0 0.000854505
0.000808728 0 0.000854505
0.074052 0 0
0.220279 0.00891127 0
0.402975 0.0251164 0
0.606348 0.0588998 0.0065919
0.766461 0.0845655 0.0200046
0.805844 0.0912032 0.0224155
0 0 0.000854505
0 0 0.000854505
0.000808728 0 0.000854505
0.074052 0 0
0.220279 0.00891127 0
0.402975 0.0251164 0
0.606348 0.0588998 0.0065919
0.766461 0.0845655 0.0200046
0.805844 0.0912032 0.0224155
0 0.000640879 0.0009308
0 0.000640879 0.0009308
0.00077821 0.000640879 0.0009308
0.0733959 0.000640879 0
0.219608 0.00999466 0
0.402152 0.0259709 0
0.605646 0.0597086 0.00657664
0.76614 0.0854963 0.0199893
0.805936 0.092195 0.0224155
6.10361e-05 0.0743572 0.00814832
6.10361e-05 0.0743572 0.00814832
0.000717174 0.0741436 0.0081178
0.0542458 0.0661021 0.00209049
0.203708 0.0610971 0
0.373693 0.0610056 9.15541e-05
0.582025 0.0788739 0.0056611
0.754604 0.107729 0.0193179
0.808499 0.116579 0.0222629
0.00843824 0.172168 0.0174105
0.00843824 0.172168 0.0174105
0.00921645 0.172045 0.0173495
0.0293126 0.166888 0.015198
0.170245 0.159045 0.000289921
0.343099 0.158602 0
0.542 0.178759 0.0189517
0.738384 0.199161 0.0309148
0.822934 0.198138 0.0330358
0.0212406 0.280934 0.0315099
0.0212406 0.280934 0.0315099
0.0219883 0.280827 0.0314794
0.0401312 0.276646 0.0299992
0.115694 0.27396 0.017731
0.316793 0.265843 0.00875868
0.527504 0.274922 0.0154269
0.718334 0.29987 0.0354162
0.836179 0.319158 0.0518502
0.0390173 0.398199 0.0522927
0.0390173 0.398199 0.0522927
0.039765 0.398138 0.0522774
0.0581064 0.395758 0.0515145
0.0975204 0.39089 0.0465248
0.265522 0.40293 0.036347
0.525963 0.395056 0.0290837
0.709285 0.408286 0.0374609
0.857099 0.432044 0.0515602
0.0552071 0.535073 0.0879072
0.0552071 0.535073 0.0879072
0.0560769 0.534997 0.0878614
0.0770581 0.533242 0.0871443
0.0972152 0.527321 0.0853437
0.217288 0.536522 0.0698558
0.490532 0.553124 0.0661784
0.690425 0.543511 0.0530404
0.849332 0.553552 0.0639963
0.0911574 0.674662 0.123476
0.0911574 0.674662 0.123476
0.0920424 0.674632 0.123445
0.114565 0.673701 0.122774
0.136492 0.670039 0.121599
0.204273 0.669566 0.114885
0.437827 0.688975 0.0903944
0.643305 0.69752 0.0807507
0.814435 0.6869 0.0879377
0 0 0.000854505
0 0 0.000854505
0.000808728 0 0.000854505
0.074052 0 0
0.220279 0.00891127 0
0.402975 0.0251164 0
0.606348 0.0588998 0.0065919
0.766461 0.0845655 0.0200046
0.805844 0.0912032 0.0224155
0 0 0.000854505
0 0 0.000854505
0.000808728 0 0.000854505
0.074052 0 0
0.220279 0.00891127 0
0.402975 0.0251164 0
0.606348 0.0588998 0.0065919
0.766461 0.0845655 0.0200046
0.805844 0.0912032 0.0224155
0 0.000640879 0.0009308
0 0.000640879 0.0009308
0.00077821 0.000640879 0.0009308
0.0733959 0.000640879 0
0.219608 0.00999466 0
0.402152 0.0259709 0
0.605646 0.0597086 0.00657664
0.76614 0.0854963 0.0199893
0.805936 0.092195 0.0224155
6.10361e-05 0.0743572 0.00814832
6.10361e-05 0.0743572 0.00814832
0.000717174 0.0741436 0.0081178
0.0542458 0.0661021 0.00209049
0.203708 0.0610971 0
0.373693 0.0610056 9.15541e-05
0.582025 0.0788739 0.0056611
0.754604 0.107729 0.0193179
0.808499 0.116579 0.0222629
0.00843824 0.172168 0.0174105
0.00843824 0.172168 0.0174105
0.00921645 0.172045 0.0173495
0.0293126 0.166888 0.015198
0.170245 0.159045 0.000289921
0.343099 0.158602 0
0.542 0.178759 0.0189517
0.738384 0.199161 0.0309148
0.822934 0.198138 0.0330358
0.0212406 0.280934 0.0315099
0.0212406 0.280934 0.0315099
0.0219883 0.280827 0.0314794
0.0401312 0.276646 0.0299992
0.115694 0.27396 0.017731
0.316793 0.265843 0.00875868
0.527504 0.274922 0.0154269
0.718334 0.29987 0.0354162
0.836179 0.319158 0.0518502
0.0390173 0.398199 0.0522927
0.0390173 0.398199 0.0522927
0.039765 0.398138 0.0522774
0.0581064 0.395758 0.0515145
0.0975204 0.39089 0.0465248
0.265522 0.40293 0.036347
0.525963 0.395056 0.0290837
0.709285 0.408286 0.0374609
0.857099 0.432044 0.0515602
0.0552071 0.535073 0.0879072
0.0552071 0.535073 0.0879072
0.0560769 0.534997 0.0878614
0.0770581 0.533242 0.0871443
0.0972152 0.527321 0.0853437
0.217288 0.536522 0.0698558
0.490532 0.553124 0.0661784
0.690425 0.543511 0.0530404
0.849332 0.553552 0.0639963
0.0911574 0.674662 0.123476
0.0911574 0.674662 0.123476
0.0920424 0.674632 0.123445
0.114565 0.673701 0.122774
0.136492 0.670039 0.121599
0.204273 0.669566 0.114885
0.437827 0.688975 0.0903944
0.643305 0.69752 0.0807507
0.814435 0.6869 0.0879377
0 0 0.00218204
0 0 0.00218204
0.000793469 0 0.00213626
0.0739452 0 0.000640879
0.220249 0.00885023 0.000656138
0.402975 0.0251164 0.000640879
0.606348 0.0588998 0.00753796
0.766506 0.0845808 0.0208743
0.80592 0.0912184 0.0233005
0 0 0.00218204
0 0 0.00218204
0.000793469 0 0.00213626
0.0739452 0 0.000640879
0.220249 0.00885023 0.000656138
0.402975 0.0251164 0.000640879
0.606348 0.0588998 0.00753796
0.766506 0.0845808 0.0208743
0.80592 0.0912184 0.0233005
0 0.000640879 0.00218204
0 0.000640879 0.00218204
0.00077821 0.00062562 0.00215152
0.0733043 0.00062562 0.000640879
0.219577 0.00994888 0.000656138
0.402197 0.0259556 0.000640879
0.605661 0.0597238 0.0075227
0.766186 0.0854963 0.0208743
0.806012 0.092195 0.0232853
6.10361e-05 0.0743114 0.00900282
6.10361e-05 0.0743114 0.00900282
0.000701915 0.0740215 0.00895705
0.054139 0.0660105 0.00311284
0.203494 0.0611429 0.000640879
0.373816 0.060914 0.000732433
0.582055 0.0788586 0.00657664
0.75465 0.107759 0.0202182
0.808576 0.116564 0.0231479
0.00836194 0.172183 0.0185092
0.00836194 0.172183 0.0185092
0.00914015 0.172076 0.0184482
0.0292363 0.166812 0.0163424
0.170169 0.15906 0.00108339
0.343053 0.158618 0.000640879
0.542092 0.178775 0.0198825
0.73846 0.199176 0.0317693
0.82298 0.198077 0.0338445
0.0211795 0.280964 0.0325322
0.0211795 0.280964 0.0325322
0.0219272 0.280858 0.0325017
0.0399939 0.276677 0.0311284
0.115572 0.273991 0.0186465
0.316808 0.265888 0.00967422
0.527581 0.274861 0.0162966
0.718364 0.299977 0.036347
0.836225 0.31928 0.0527962
0.0389563 0.39823 0.0532387
0.0389563 0.39823 0.0532387
0.039704 0.398032 0.053193
0.0580301 0.395727 0.0524605
0.0974746 0.390921 0.0476539
0.265324 0.402991 0.0372473
0.52607 0.395178 0.029984
0.709361 0.408545 0.0383612
0.857145 0.432166 0.0525063
0.0550851 0.535119 0.0888685
0.0550851 0.535119 0.0888685
0.0559854 0.535042 0.0888228
0.0769818 0.533211 0.0880446
0.0971237 0.527291 0.0862745
0.216983 0.536507 0.0709544
0.490593 0.553079 0.0670481
0.690501 0.543847 0.0539864
0.849332 0.553658 0.0649577
0.0910811 0.674678 0.124422
0.0910811 0.674678 0.124422
0.0919661 0.674647 0.124392
0.114351 0.673533 0.12369
0.136294 0.670008 0.12256
0.204028 0.66952 0.115938
0.437613 0.689036 0.09131
0.643336 0.697581 0.0816052
0.814389 0.686931 0.0888685
0 0 0.0843671
0 0 0.0843671
0.000640879 0 0.084184
0.0695964 0 0.0795758
0.22327 0.00604257 0.0655375
0.405325 0.0267033 0.0502785
0.607401 0.0585489 0.047425
0.767315 0.0848707 0.0449989
0.807477 0.0915847 0.0446784
0 0 0.0843671
0 0 0.0843671
0.000640879 0 0.084184
0.0695964 0 0.0795758
0.22327 0.00604257 0.0655375
0.405325 0.0267033 0.0502785
0.607401 0.0585489 0.047425
0.767315 0.0848707 0.0449989
0.807477 0.0915847 0.0446784
0 0.000701915 0.0838026
0 0.000701915 0.0838026
0.000640879 0.000671397 0.0836347
0.0688182 0.00062562 0.0790723
0.222507 0.00703441 0.0649729
0.404623 0.027512 0.0496834
0.606668 0.0593423 0.0469215
0.76701 0.085771 0.0446937
0.807599 0.0925612 0.0446784
0 0.0711986 0.073991
0 0.0711986 0.073991
0.000640879 0.0709392 0.0738689
0.0451209 0.0665141 0.0705577
0.194965 0.0619516 0.0545052
0.37789 0.0583963 0.0290074
0.582101 0.0785077 0.0290684
0.755764 0.107301 0.0420691
0.810575 0.116197 0.04448
0.00619516 0.172854 0.0500496
0.00619516 0.172854 0.0500496
0.00694286 0.172595 0.0498665
0.0263828 0.167361 0.0451057
0.166812 0.158724 0.0218967
0.341283 0.158206 0.0224918
0.544182 0.177783 0.041062
0.739757 0.198108 0.0512093
0.824231 0.196109 0.0524758
0.0193179 0.281407 0.0569162
0.0193179 0.281407 0.0569162
0.0200656 0.281285 0.0568856
0.0379492 0.276982 0.0563058
0.11284 0.274083 0.0465858
0.315999 0.266499 0.0314031
0.528923 0.275578 0.0371862
0.718486 0.302434 0.0587778
0.837156 0.322286 0.0756542
0.0376135 0.398825 0.0761273
0.0376135 0.398825 0.0761273
0.0383612 0.398718 0.0760967
0.05626 0.395468 0.0754253
0.0946975 0.390768 0.07393
0.259556 0.404059 0.0588998
0.527962 0.397452 0.0517586
0.711208 0.411368 0.0598001
0.858305 0.434974 0.0750744
0.0522774 0.536217 0.112139
0.0522774 0.536217 0.112139
0.053193 0.53611 0.112062
0.074876 0.532982 0.11046
0.0949569 0.52665 0.108553
0.209247 0.535409 0.0977951
0.489418 0.554955 0.0885328
0.692302 0.547723 0.0758221
0.848829 0.555581 0.0879835
0.0891127 0.675196 0.147417
0.0891127 0.675196 0.147417
0.0899519 0.674998 0.147356
0.111482 0.673457 0.14667
0.132372 0.669108 0.145464
0.197452 0.66836 0.141115
0.430396 0.690044 0.113741
0.643366 0.698787 0.102525
0.813001 0.687861 0.111498
0 0.0116884 0.206378
0 0.0116884 0.206378
0.000640879 0.011368 0.206073
0.0566262 0.00483711 0.200275
0.203525 0.00868238 0.189853
0.405341 0.0291295 0.167666
0.614023 0.0609445 0.158618
0.773922 0.0896162 0.154345
0.814206 0.0959182 0.145602
0 0.0116884 0.206378
0 0.0116884 0.206378
0.000640879 0.011368 0.206073
0.0566262 0.00483711 0.200275
0.203525 0.00868238 0.189853
0.405341 0.0291295 0.167666
0.614023 0.0609445 0.158618
0.773922 0.0896162 0.154345
0.814206 0.0959182 0.145602
0 0.0128939 0.205966
0 0.0128939 0.205966
0.000640879 0.0125887 0.205661
0.0559396 0.00588998 0.199847
0.202792 0.0096437 0.189471
0.40473 0.0300145 0.167224
0.613336 0.0617075 0.15819
0.773587 0.0904707 0.153979
0.814282 0.0968643 0.145266
0 0.0791791 0.198505
0 0.0791791 0.198505
0.000640879 0.0789502 0.198322
0.0393225 0.0715496 0.194369
0.175647 0.0576944 0.179934
0.380163 0.0584115 0.152422
0.588785 0.0793164 0.141604
0.761334 0.110246 0.139055
0.816037 0.119783 0.131487
0 0.176516 0.18706
0 0.176516 0.18706
0.000640879 0.176425 0.186999
0.016968 0.172137 0.182986
0.113512 0.17113 0.183795
0.330632 0.166705 0.150652
0.561715 0.169604 0.117556
0.743343 0.190784 0.115038
0.825498 0.191089 0.107836
0.00730907 0.291783 0.172732
0.00730907 0.291783 0.172732
0.00807202 0.291676 0.172549
0.026688 0.287678 0.166537
0.0997787 0.27921 0.146883
0.312627 0.270756 0.099443
0.531304 0.277806 0.0900282
0.717128 0.306065 0.100496
0.837125 0.324559 0.10547
0.032578 0.405341 0.139666
0.032578 0.405341 0.139666
0.033341 0.405188 0.139452
0.0517739 0.40061 0.13225
0.0880446 0.391623 0.118654
0.246571 0.40528 0.0881056
0.526436 0.397696 0.0732586
0.710643 0.412192 0.0808118
0.858076 0.436255 0.0981155
0.049073 0.53666 0.136538
0.049073 0.53666 0.136538
0.0499886 0.536553 0.136492
0.0719158 0.533288 0.13492
0.0924544 0.526162 0.132326
0.2 0.533379 0.127337
0.483818 0.554894 0.109987
0.692073 0.549874 0.0975204
0.846967 0.556405 0.111208
0.0874342 0.675669 0.171069
0.0874342 0.675669 0.171069
0.0882734 0.675532 0.171008
0.109148 0.672816 0.169924
0.129397 0.66833 0.168597
0.189731 0.666865 0.166079
0.419959 0.690059 0.137758
0.642313 0.699245 0.123308
0.811093 0.688426 0.134203
0 0.0413672 0.341726
0 0.0413672 0.341726
0.000640879 0.0410925 0.341436
0.0519265 0.0263676 0.332494
0.156924 0.0281834 0.326329
0.35021 0.0327916 0.307012
0.603128 0.0627909 0.277333
0.773648 0.100786 0.280018
0.815656 0.109255 0.275654
0 0.0413672 0.341726
0 0.0413672 0.341726
0.000640879 0.0410925 0.341436
0.0519265 0.0263676 0.332494
0.156924 0.0281834 0.326329
0.35021 0.0327916 0.307012
0.603128 0.0627909 0.277333
0.773648 0.100786 0.280018
0.815656 0.109255 0.275654
0 0.042359 0.341268
0 0.042359 0.341268
0.000640879 0.0420691 0.341009
0.0514382 0.0272526 0.332067
0.156222 0.0290684 0.325948
0.349157 0.0336309 0.306722
0.602533 0.0635996 0.276967
0.773358 0.101701 0.279728
0.815778 0.110262 0.275456
0 0.0966049 0.33257
0 0.0966049 0.33257
0.000640879 0.0964828 0.332448
0.0357671 0.0905776 0.328222
0.13344 0.0668345 0.315938
0.316976 0.057084 0.295735
0.581994 0.082826 0.263554
0.762264 0.122072 0.265965
0.818998 0.133822 0.264973
0 0.183261 0.323278
0 0.183261 0.323278
0.000640879 0.183169 0.323186
0.016556 0.179049 0.318883
0.0988632 0.178271 0.319966
0.269154 0.169482 0.30164
0.565225 0.178668 0.258518
0.743465 0.203326 0.258854
0.828519 0.204807 0.251759
0 0.288533 0.314656
0 0.288533 0.314656
0.000640879 0.288472 0.314565
0.0161593 0.285267 0.310826
0.070985 0.282231 0.308263
0.196506 0.286046 0.30956
0.52903 0.317098 0.279942
0.715618 0.339117 0.270069
0.828458 0.357031 0.278676
0.0103609 0.424506 0.31284
0.0103609 0.424506 0.31284
0.0112001 0.42443 0.312703
0.0319829 0.421775 0.308598
0.0635386 0.414893 0.299458
0.186572 0.415061 0.278248
0.528176 0.424247 0.205753
0.721828 0.441428 0.204227
0.853178 0.460792 0.226673
0.0452583 0.561685 0.290578
0.0452583 0.561685 0.290578
0.0460517 0.561532 0.290318
0.0652018 0.557626 0.283421
0.0837262 0.549035 0.270802
0.174746 0.54168 0.247913
0.454612 0.571328 0.205417
0.694713 0.56376 0.173022
0.843839 0.563912 0.180926
0.0860609 0.684611 0.253513
0.0860609 0.684611 0.253513
0.0868849 0.684474 0.25333
0.107042 0.681102 0.248264
0.126207 0.674418 0.239246
0.177829 0.66775 0.225208
0.380392 0.687388 0.20557
0.640238 0.700587 0.156893
0.808148 0.687984 0.160464
0.00187686 0.0584573 0.487327
0.00187686 0.0584573 0.487327
0.00260929 0.0583352 0.487114
0.0537423 0.0446784 0.480247
0.155367 0.0410468 0.469841
0.268055 0.0426032 0.459236
0.536797 0.0682841 0.42742
0.759319 0.112566 0.421714
0.808743 0.123354 0.420142
0.00187686 0.0584573 0.487327
0.00187686 0.0584573 0.487327
0.00260929 0.0583352 0.487114
0.0537423 0.0446784 0.480247
0.155367 0.0410468 0.469841
0.268055 0.0426032 0.459236
0.536797 0.0682841 0.42742
0.759319 0.112566 0.421714
0.808743 0.123354 0.420142
0.00184634 0.0594949 0.486778
0.00184634 0.0594949 0.486778
0.00257877 0.0593729 0.48658
0.0530556 0.0458534 0.479728
0.154788 0.0419013 0.469474
0.267475 0.043534 0.458915
0.535882 0.0690776 0.427176
0.75903 0.113481 0.421454
0.808865 0.124422 0.419989
0 0.113283 0.474968
0 0.113283 0.474968
0.000701915 0.113085 0.474845
0.0354925 0.103624 0.470665
0.134966 0.0734722 0.458824
0.248508 0.0661631 0.446311
0.506798 0.0872969 0.41651
0.747951 0.13463 0.409964
0.81265 0.150988 0.413001
0 0.204364 0.47039
0 0.204364 0.47039
0.000640879 0.204273 0.470298
0.0165255 0.200092 0.466255
0.0966049 0.193988 0.465705
0.21651 0.158999 0.450965
0.487221 0.182208 0.417823
0.732784 0.217105 0.409064
0.826123 0.228428 0.416266
0 0.299763 0.459022
0 0.299763 0.459022
0.000640879 0.299596 0.458961
0.0162814 0.296529 0.455833
0.0701305 0.293141 0.453117
0.175113 0.290837 0.457649
0.464851 0.318593 0.447547
0.71664 0.352514 0.440238
0.841443 0.364538 0.440497
0.00077821 0.419821 0.452796
0.00077821 0.419821 0.452796
0.00151064 0.41976 0.452735
0.0189822 0.417456 0.450156
0.042649 0.410971 0.443656
0.156924 0.422538 0.452216
0.348394 0.445548 0.462943
0.679683 0.495613 0.466743
0.84007 0.496941 0.45066
0.0405432 0.581811 0.463569
0.0405432 0.581811 0.463569
0.0413062 0.581613 0.463508
0.0612192 0.580133 0.461357
0.0800488 0.573953 0.454322
0.167529 0.573938 0.447364
0.317556 0.57911 0.426337
0.677546 0.602869 0.38262
0.824079 0.611215 0.415366
0.0951553 0.712291 0.443336
0.0951553 0.712291 0.443336
0.0959335 0.712184 0.443122
0.114961 0.70869 0.437095
0.132677 0.701976 0.426627
0.17525 0.692622 0.407019
0.310018 0.687266 0.379187
0.629908 0.726894 0.35996
0.803662 0.712398 0.33312
0.00291447 0.0781109 0.614252
0.00291447 0.0781109 0.614252
0.00364691 0.0780194 0.614282
0.0524758 0.0695811 0.613382
0.15378 0.0602731 0.613016
0.267781 0.058381 0.600168
0.455558 0.0682078 0.590234
0.745968 0.127413 0.5626
0.806561 0.139376 0.56289
0.00291447 0.0781109 0.614252
0.00291447 0.0781109 0.614252
0.00364691 0.0780194 0.614282
0.0524758 0.0695811 0.613382
0.15378 0.0602731 0.613016
0.267781 0.058381 0.600168
0.455558 0.0682078 0.590234
0.745968 0.127413 0.5626
0.806561 0.139376 0.56289
0.00289921 0.079118 0.614328
0.00289921 0.079118 0.614328
0.00363165 0.0790265 0.614359
0.0517739 0.0708324 0.613504
0.153155 0.0611276 0.61297
0.26714 0.0593576 0.600168
0.454353 0.0690318 0.590127
0.745571 0.128374 0.562509
0.806668 0.140429 0.562829
0.00236515 0.125505 0.616205
0.00236515 0.125505 0.616205
0.00308232 0.125399 0.61622
0.0335699 0.117845 0.615473
0.134051 0.0890059 0.608774
0.247089 0.0827955 0.596414
0.410788 0.0876173 0.584848
0.731029 0.150423 0.555764
0.809888 0.167681 0.558007
0.0047303 0.225666 0.620935
0.0047303 0.225666 0.620935
0.00543221 0.225528 0.620859
0.0223545 0.219471 0.617121
0.0958114 0.205234 0.614221
0.214878 0.183246 0.606775
0.370977 0.176196 0.592325
0.710033 0.228458 0.561837
0.818784 0.236744 0.56054
0.0055848 0.330907 0.616388
0.0055848 0.330907 0.616388
0.00630198 0.330816 0.616297
0.0234073 0.32755 0.613397
0.0756695 0.323827 0.611902
0.181079 0.319448 0.615671
0.328832 0.305989 0.612726
0.693401 0.362936 0.592615
0.831174 0.369619 0.587869
0.00648508 0.44651 0.610712
0.00648508 0.44651 0.610712
0.00720226 0.446555 0.61062
0.0243687 0.444373 0.608454
0.0472877 0.437125 0.601312
0.158236 0.444068 0.609369
0.284504 0.453346 0.623667
0.672816 0.50576 0.618418
0.839445 0.50808 0.612161
0.0148165 0.576226 0.609567
0.0148165 0.576226 0.609567
0.01561 0.576333 0.609537
0.0344854 0.574624 0.607858
0.0539712 0.568612 0.601633
0.135515 0.569024 0.600565
0.272236 0.582773 0.611246
0.637568 0.631556 0.614694
0.82121 0.64712 0.616144
0.0785382 0.716014 0.607401
0.0785382 0.716014 0.607401
0.0793774 0.715984 0.60734
0.0998093 0.71487 0.605447
0.1196 0.711177 0.600381
0.16141 0.706477 0.592782
0.291341 0.710246 0.588113
0.600031 0.745037 0.571771
0.801465 0.749584 0.532631
0.00337224 0.08365 0.642206
0.00337224 0.08365 0.642206
0.00410468 0.0835737 0.642237
0.0485542 0.0775158 0.643122
0.151034 0.0663462 0.645045
0.264454 0.0649882 0.637552
0.436103 0.0746319 0.634913
0.731716 0.134035 0.618433
0.80119 0.149294 0.625452
0.00337224 0.08365 0.642206
0.00337224 0.08365 0.642206
0.00410468 0.0835737 0.642237
0.0485542 0.0775158 0.643122
0.151034 0.0663462 0.645045
0.264454 0.0649882 0.637552
0.436103 0.0746319 0.634913
0.731716 0.134035 0.618433
0.80119 0.149294 0.625452
0.00335698 0.0846723 0.642298
0.00335698 0.0846723 0.642298
0.00408942 0.084596 0.642344
0.047837 0.0787671 0.64332
0.150439 0.067216 0.64509
0.263859 0.0660563 0.637827
0.434882 0.0755474 0.635187
0.731228 0.135103 0.618891
0.801251 0.150561 0.625986
0.00326543 0.127703 0.648371
0.00326543 0.127703 0.648371
0.00396735 0.12752 0.648432
0.0302281 0.120089 0.649699
0.132204 0.0933242 0.648722
0.245045 0.0928817 0.647028
0.396551 0.0981155 0.641932
0.711788 0.161898 0.633036
0.802594 0.182605 0.641093
0.0068513 0.230182 0.669612
0.0068513 0.230182 0.669612
0.00753796 0.229999 0.669642
0.0241703 0.224445 0.670161
0.0958267 0.21355 0.672953
0.213977 0.198703 0.67599
0.362493 0.19649 0.680934
0.684016 0.239948 0.66862
0.806729 0.247395 0.668727
0.00825513 0.34612 0.697139
0.00825513 0.34612 0.697139
0.00895705 0.346075 0.697215
0.0260471 0.344137 0.699413
0.0771801 0.341375 0.705257
0.188159 0.340154 0.716655
0.329961 0.331304 0.725353
0.652674 0.360678 0.719646
0.8177 0.373693 0.711772
0.0106203 0.4654 0.726696
0.0106203 0.4654 0.726696
0.011429 0.465385 0.726787
0.0314641 0.464302 0.728466
0.0530709 0.458885 0.728313
0.164096 0.465339 0.741131
0.289677 0.473976 0.75787
0.593759 0.493156 0.768032
0.825772 0.512871 0.75021
0.0201877 0.583535 0.748486
0.0201877 0.583535 0.748486
0.0210269 0.58352 0.748516
0.0412299 0.582422 0.749172
0.0605173 0.577523 0.746868
0.137682 0.577905 0.748867
0.269368 0.589242 0.758862
0.555154 0.631342 0.774899
0.813611 0.656733 0.77171
0.0554208 0.710872 0.753964
0.0554208 0.710872 0.753964
0.0562905 0.710857 0.753918
0.0771954 0.709773 0.752331
0.0970932 0.705989 0.74786
0.135683 0.701686 0.742107
0.268284 0.708003 0.74284
0.472801 0.736538 0.753674
0.790021 0.778332 0.753918
