Lumix LUTs/D_Overexpose3S_LOG.cube
TITLE "Generated by Resolve"
LUT_3D_SIZE 5
0 0 0.000854505
0.000808728 0 0.000854505
0.220279 0.00891127 0
0.606348 0.0588998 0.0065919
0.805844 0.0912032 0.0224155
0 0.000640879 0.0009308
0.00077821 0.000640879 0.0009308
0.219608 0.00999466 0
0.605646 0.0597086 0.00657664
0.805936 0.092195 0.0224155
0.00843824 0.172168 0.0174105
0.00921645 0.172045 0.0173495
0.170245 0.159045 0.000289921
0.542 0.178759 0.0189517
0.822934 0.198138 0.0330358
0.0390173 0.398199 0.0522927
0.039765 0.398138 0.0522774
0.0975204 0.39089 0.0465248
0.525963 0.395056 0.0290837
0.857099 0.432044 0.0515602
0.0911574 0.674662 0.123476
0.0920424 0.674632 0.123445
0.136492 0.670039 0.121599
0.437827 0.688975 0.0903944
0.814435 0.6869 0.0879377
0 0 0.00218204
0.000793469 0 0.00213626
0.220249 0.00885023 0.000656138
0.606348 0.0588998 0.00753796
0.80592 0.0912184 0.0233005
0 0.000640879 0.00218204
0.00077821 0.00062562 0.00215152
0.219577 0.00994888 0.000656138
0.605661 0.0597238 0.0075227
0.806012 0.092195 0.0232853
0.00836194 0.172183 0.0185092
0.00914015 0.172076 0.0184482
0.170169 0.15906 0.00108339
0.542092 0.178775 0.0198825
0.82298 0.198077 0.0338445
0.0389563 0.39823 0.0532387
0.039704 0.398032 0.053193
0.0974746 0.390921 0.0476539
0.52607 0.395178 0.029984
0.857145 0.432166 0.0525063
0.0910811 0.674678 0.124422
0.0919661 0.674647 0.124392
0.136294 0.670008 0.12256
0.437613 0.689036 0.09131
0.814389 0.686931 0.0888685
0 0.0116884 0.206378
0.000640879 0.011368 0.206073
0.203525 0.00868238 0.189853
0.614023 0.0609445 0.158618
0.814206 0.0959182 0.145602
0 0.0128939 0.205966
0.000640879 0.0125887 0.205661
0.202792 0.0096437 0.189471
0.613336 0.0617075 0.15819
0.814282 0.0968643 0.145266
0 0.176516 0.18706
0.000640879 0.176425 0.186999
0.113512 0.17113 0.183795
0.561715 0.169604 0.117556
0.825498 0.191089 0.107836
0.032578 0.405341 0.139666
0.033341 0.405188 0.139452
0.0880446 0.391623 0.118654
0.526436 0.397696 0.0732586
0.858076 0.436255 0.0981155
0.0874342 0.675669 0.171069
0.0882734 0.675532 0.171008
0.129397 0.66833 0.168597
0.419959 0.690059 0.137758
0.811093 0.688426 0.134203
0.00187686 0.0584573 0.487327
0.00260929 0.0583352 0.487114
0.155367 0.0410468 0.469841
0.536797 0.0682841 0.42742
0.808743 0.123354 0.420142
0.00184634 0.0594949 0.486778
0.00257877 0.0593729 0.48658
0.154788 0.0419013 0.469474
0.535882 0.0690776 0.427176
0.808865 0.124422 0.419989
0 0.204364 0.47039
0.000640879 0.204273 0.470298
0.0966049 0.193988 0.465705
0.487221 0.182208 0.417823
0.826123 0.228428 0.416266
0.00077821 0.419821 0.452796
0.00151064 0.41976 0.452735
0.042649 0.410971 0.443656
0.348394 0.445548 0.462943
0.84007 0.496941 0.45066
0.0951553 0.712291 0.443336
0.0959335 0.712184 0.443122
0.132677 0.701976 0.426627
0.310018 0.687266 0.379187
0.803662 0.712398 0.33312
0.00337224 0.08365 0.642206
0.00410468 0.0835737 0.642237
0.151034 0.0663462 0.645045
0.436103 0.0746319 0.634913
0.80119 0.149294 0.625452
0.00335698 0.0846723 0.642298
0.00408942 0.084596 0.642344
0.150439 0.067216 0.64509
0.434882 0.0755474 0.635187
0.801251 0.150561 0.625986
0.0068513 0.230182 0.669612
0.00753796 0.229999 0.669642
0.0958267 0.21355 0.672953
0.362493 0.19649 0.680934
0.806729 0.247395 0.668727
0.0106203 0.4654 0.726696
0.011429 0.465385 0.726787
0.0530709 0.458885 0.728313
0.289677 0.473976 0.75787
0.825772 0.512871 0.75021
0.0554208 0.710872 0.753964
0.0562905 0.710857 0.753918
0.0970932 0.705989 0.74786
0.268284 0.708003 0.74284
0.790021 0.778332 0.753918
