Lumix LUTs/D_Overexpose3S_LOG.cube
TITLE "Generated by Resolve"
LUT_3D_SIZE 33
0 0 0.000854505
0 0 0.000854505
0 0 0.000854505
0 0 0.000854505
0 0 0.000854505
0 0 0.000854505
0 0 0.000854505
0 0 0.000854505
0.000808728 0 0.000854505
0.00709545 0 0.000793469
0.0232395 0 0.000350958
0.0472572 0 0
0.074052 0 0
0.106615 0 0
0.142275 0.000534066 0
0.178882 0.00581369 0
0.220279 0.00891127 0
0.262852 0.0111696 0
0.3066 0.0140078 0
0.35317 0.0183566 0
0.402975 0.0251164 0
0.457847 0.0349737 0
0.510994 0.0439918 0.000350958
0.559716 0.0518807 0.00364691
0.606348 0.0588998 0.0065919
0.652735 0.0657664 0.0102846
0.696834 0.073228 0.0146334
0.737041 0.0799878 0.0180209
0.766461 0.0845655 0.0200046
0.783047 0.0871138 0.0209812
0.792264 0.0885786 0.0215152
0.799039 0.0898299 0.021973
0.805844 0.0912032 0.0224155
0 0 0.000854505
0 0 0.000854505
0 0 0.000854505
0 0 0.000854505
0 0 0.000854505
0 0 0.000854505
0 0 0.000854505
0 0 0.000854505
0.000808728 0 0.000854505
0.00709545 0 0.000793469
0.0232395 0 0.000350958
0.0472572 0 0
0.074052 0 0
0.106615 0 0
0.142275 0.000534066 0
0.178882 0.00581369 0
0.220279 0.00891127 0
0.262852 0.0111696 0
0.3066 0.0140078 0
0.35317 0.0183566 0
0.402975 0.0251164 0
0.457847 0.0349737 0
0.510994 0.0439918 0.000350958
0.559716 0.0518807 0.00364691
0.606348 0.0588998 0.0065919
0.652735 0.0657664 0.0102846
0.696834 0.073228 0.0146334
0.737041 0.0799878 0.0180209
0.766461 0.0845655 0.0200046
0.783047 0.0871138 0.0209812
0.792264 0.0885786 0.0215152
0.799039 0.0898299 0.021973
0.805844 0.0912032 0.0224155
0 0 0.000854505
0 0 0.000854505
0 0 0.000854505
0 0 0.000854505
0 0 0.000854505
0 0 0.000854505
0 0 0.000854505
0 0 0.000854505
0.000808728 0 0.000854505
0.00709545 0 0.000793469
0.0232395 0 0.000350958
0.0472572 0 0
0.074052 0 0
0.106615 0 0
0.142275 0.000534066 0
0.178882 0.00581369 0
0.220279 0.00891127 0
0.262852 0.0111696 0
0.3066 0.0140078 0
0.35317 0.0183566 0
0.402975 0.0251164 0
0.457847 0.0349737 0
0.510994 0.0439918 0.000350958
0.559716 0.0518807 0.00364691
0.606348 0.0588998 0.0065919
0.652735 0.0657664 0.0102846
0.696834 0.073228 0.0146334
0.737041 0.0799878 0.0180209
0.766461 0.0845655 0.0200046
0.783047 0.0871138 0.0209812
0.792264 0.0885786 0.0215152
0.799039 0.0898299 0.021973
0.805844 0.0912032 0.0224155
0 0 0.000854505
0 0 0.000854505
0 0 0.000854505
0 0 0.000854505
0 0 0.000854505
0 0 0.000854505
0 0 0.000854505
0 0 0.000854505
0.000808728 0 0.000854505
0.00709545 0 0.000793469
0.0232395 0 0.000350958
0.0472572 0 0
0.074052 0 0
0.106615 0 0
0.142275 0.000534066 0
0.178882 0.00581369 0
0.220279 0.00891127 0
0.262852 0.0111696 0
0.3066 0.0140078 0
0.35317 0.0183566 0
0.402975 0.0251164 0
0.457847 0.0349737 0
0.510994 0.0439918 0.000350958
0.559716 0.0518807 0.00364691
0.606348 0.0588998 0.0065919
0.652735 0.0657664 0.0102846
0.696834 0.073228 0.0146334
0.737041 0.0799878 0.0180209
0.766461 0.0845655 0.0200046
0.783047 0.0871138 0.0209812
0.792264 0.0885786 0.0215152
0.799039 0.0898299 0.021973
0.805844 0.0912032 0.0224155
0 0 0.000854505
0 0 0.000854505
0 0 0.000854505
0 0 0.000854505
0 0 0.000854505
0 0 0.000854505
0 0 0.000854505
0 0 0.000854505
0.000808728 0 0.000854505
0.00709545 0 0.000793469
0.0232395 0 0.000350958
0.0472572 0 0
0.074052 0 0
0.106615 0 0
0.142275 0.000534066 0
0.178882 0.00581369 0
0.220279 0.00891127 0
0.262852 0.0111696 0
0.3066 0.0140078 0
0.35317 0.0183566 0
0.402975 0.0251164 0
0.457847 0.0349737 0
0.510994 0.0439918 0.000350958
0.559716 0.0518807 0.00364691
0.606348 0.0588998 0.0065919
0.652735 0.0657664 0.0102846
0.696834 0.073228 0.0146334
0.737041 0.0799878 0.0180209
0.766461 0.0845655 0.0200046
0.783047 0.0871138 0.0209812
0.792264 0.0885786 0.0215152
0.799039 0.0898299 0.021973
0.805844 0.0912032 0.0224155
0 0 0.000854505
0 0 0.000854505
0 0 0.000854505
0 0 0.000854505
0 0 0.000854505
0 0 0.000854505
0 0 0.000854505
0 0 0.000854505
0.000808728 0 0.000854505
0.00709545 0 0.000793469
0.0232395 0 0.000350958
0.0472572 0 0
0.074052 0 0
0.106615 0 0
0.142275 0.000534066 0
0.178882 0.00581369 0
0.220279 0.00891127 0
0.262852 0.0111696 0
0.3066 0.0140078 0
0.35317 0.0183566 0
0.402975 0.0251164 0
0.457847 0.0349737 0
0.510994 0.0439918 0.000350958
0.559716 0.0518807 0.00364691
0.606348 0.0588998 0.0065919
0.652735 0.0657664 0.0102846
0.696834 0.073228 0.0146334
0.737041 0.0799878 0.0180209
0.766461 0.0845655 0.0200046
0.783047 0.0871138 0.0209812
0.792264 0.0885786 0.0215152
0.799039 0.0898299 0.021973
0.805844 0.0912032 0.0224155
0 0 0.000854505
0 0 0.000854505
0 0 0.000854505
0 0 0.000854505
0 0 0.000854505
0 0 0.000854505
0 0 0.000854505
0 0 0.000854505
0.000808728 0 0.000854505
0.00709545 0 0.000793469
0.0232395 0 0.000350958
0.0472572 0 0
0.074052 0 0
0.106615 0 0
0.142275 0.000534066 0
0.178882 0.00581369 0
0.220279 0.00891127 0
0.262852 0.0111696 0
0.3066 0.0140078 0
0.35317 0.0183566 0
0.402975 0.0251164 0
0.457847 0.0349737 0
0.510994 0.0439918 0.000350958
0.559716 0.0518807 0.00364691
0.606348 0.0588998 0.0065919
0.652735 0.0657664 0.0102846
0.696834 0.073228 0.0146334
0.737041 0.0799878 0.0180209
0.766461 0.0845655 0.0200046
0.783047 0.0871138 0.0209812
0.792264 0.0885786 0.0215152
0.799039 0.0898299 0.021973
0.805844 0.0912032 0.0224155
0 0 0.000854505
0 0 0.000854505
0 0 0.000854505
0 0 0.000854505
0 0 0.000854505
0 0 0.000854505
0 0 0.000854505
0 0 0.000854505
0.000808728 0 0.000854505
0.00709545 0 0.000793469
0.0232395 0 0.000350958
0.0472572 0 0
0.074052 0 0
0.106615 0 0
0.142275 0.000534066 0
0.178882 0.00581369 0
0.220279 0.00891127 0
0.262852 0.0111696 0
0.3066 0.0140078 0
0.35317 0.0183566 0
0.402975 0.0251164 0
0.457847 0.0349737 0
0.510994 0.0439918 0.000350958
0.559716 0.0518807 0.00364691
0.606348 0.0588998 0.0065919
0.652735 0.0657664 0.0102846
0.696834 0.073228 0.0146334
0.737041 0.0799878 0.0180209
0.766461 0.0845655 0.0200046
0.783047 0.0871138 0.0209812
0.792264 0.0885786 0.0215152
0.799039 0.0898299 0.021973
0.805844 0.0912032 0.0224155
0 0.000640879 0.0009308
0 0.000640879 0.0009308
0 0.000640879 0.0009308
0 0.000640879 0.0009308
0 0.000640879 0.0009308
0 0.000640879 0.0009308
0 0.000640879 0.0009308
0 0.000640879 0.0009308
0.00077821 0.000640879 0.0009308
0.00688182 0.000640879 0.000854505
0.0226596 0.000640879 0.000427253
0.0465095 0.000640879 0
0.0733959 0.000640879 0
0.105852 0.000640879 0
0.141588 0.00163272 0
0.178347 0.00683604 0
0.219608 0.00999466 0
0.262089 0.0122988 0
0.305852 0.0149996 0
0.352392 0.0193027 0
0.402152 0.0259709 0
0.457099 0.0357824 0
0.510246 0.0447852 0.000350958
0.558999 0.0527047 0.00363165
0.605646 0.0597086 0.00657664
0.652033 0.0665599 0.0102235
0.696208 0.0740673 0.0145876
0.736522 0.0808728 0.0180056
0.76614 0.0854963 0.0199893
0.783017 0.0880903 0.0209659
0.792355 0.0895857 0.0215
0.79913 0.0908522 0.0219577
0.805936 0.092195 0.0224155
0 0.00605783 0.00151064
0 0.00605783 0.00151064
0 0.00605783 0.00151064
0 0.00605783 0.00151064
0 0.00605783 0.00151064
0 0.00605783 0.00151064
0 0.00605783 0.00151064
0 0.00605783 0.00151064
0.000640879 0.00601205 0.00148013
0.00567636 0.00575265 0.00132753
0.0190585 0.00552377 0.000885023
0.0417945 0.00537118 3.0518e-05
0.069398 0.00511177 0
0.101228 0.005066 0
0.137545 0.00833143 0
0.175082 0.0130465 0
0.215625 0.016495 0
0.257481 0.0191653 0
0.301228 0.0211032 0
0.347616 0.0250706 0
0.397208 0.0310674 0
0.452461 0.0406195 0
0.505592 0.0495766 0.00030518
0.554589 0.0576028 0.00352483
0.601389 0.0646525 0.00648508
0.647776 0.0714427 0.00985733
0.692363 0.079118 0.0142824
0.733333 0.0862287 0.0178378
0.764248 0.0910964 0.0198978
0.782803 0.0939345 0.0208896
0.79292 0.0956741 0.0214084
0.79971 0.0969558 0.0218814
0.806485 0.0981918 0.0223392
0 0.0225071 0.00288396
0 0.0225071 0.00288396
0 0.0225071 0.00288396
0 0.0225071 0.00288396
0 0.0225071 0.00288396
0 0.0225071 0.00288396
0 0.0225071 0.00288396
0 0.0225071 0.00288396
0.000640879 0.0221714 0.00280766
0.00520333 0.0201267 0.00244144
0.0151827 0.0183108 0.00195315
0.0362097 0.016907 0.000549325
0.0656138 0.0148928 0
0.0969558 0.0143587 0
0.134081 0.0165713 0
0.171771 0.0201419 0
0.21207 0.0235752 0
0.252598 0.0267948 4.57771e-05
0.295781 0.0281376 1.5259e-05
0.342367 0.0307469 0
0.391684 0.035935 0
0.446311 0.0450446 0
0.499535 0.0540017 0.000228885
0.549355 0.06215 0.00334173
0.596689 0.069398 0.00634775
0.643091 0.0763409 0.00950637
0.68809 0.0840925 0.0139162
0.729839 0.0914931 0.0176089
0.762264 0.096788 0.019791
0.78265 0.0999619 0.0208896
0.793591 0.101793 0.0213779
0.800366 0.103029 0.0218357
0.807095 0.10428 0.0223087
0 0.0494698 0.0056611
0 0.0494698 0.0056611
0 0.0494698 0.0056611
0 0.0494698 0.0056611
0 0.0494698 0.0056611
0 0.0494698 0.0056611
0 0.0494698 0.0056611
0 0.0494698 0.0056611
0.000640879 0.0491798 0.00561532
0.00480659 0.0473793 0.0052491
0.0119326 0.0452583 0.00469978
0.030808 0.041825 0.00320439
0.0607004 0.0397498 0.000122072
0.0929274 0.0375219 0
0.129732 0.0373846 0
0.168612 0.0378271 0
0.208164 0.0383917 0
0.246326 0.0395819 0.000457771
0.287755 0.0391546 0.000137331
0.334524 0.038056 1.5259e-05
0.383505 0.0417182 0
0.437064 0.0496071 0
0.490608 0.05832 0.00015259
0.541604 0.066392 0.00294499
0.589502 0.0737316 0.00601205
0.636149 0.0808728 0.00903334
0.681727 0.0886854 0.0133516
0.724132 0.0963607 0.0171969
0.758984 0.102312 0.0195926
0.7823 0.105989 0.0208896
0.794293 0.107958 0.0214237
0.801022 0.109255 0.0218051
0.807721 0.11046 0.0222477
6.10361e-05 0.0743572 0.00814832
6.10361e-05 0.0743572 0.00814832
6.10361e-05 0.0743572 0.00814832
6.10361e-05 0.0743572 0.00814832
6.10361e-05 0.0743572 0.00814832
6.10361e-05 0.0743572 0.00814832
6.10361e-05 0.0743572 0.00814832
6.10361e-05 0.0743572 0.00814832
0.000717174 0.0741436 0.0081178
0.00471504 0.0728923 0.00791943
0.0102693 0.071397 0.00758373
0.0268101 0.0689555 0.00636301
0.0542458 0.0661021 0.00209049
0.0879072 0.0627909 1.5259e-05
0.124697 0.0610513 0
0.163867 0.0611582 0
0.203708 0.0610971 0
0.243442 0.0610971 0
0.279988 0.0623636 0.000823987
0.323171 0.0622721 0.000198367
0.373693 0.0610056 9.15541e-05
0.426764 0.0635386 1.5259e-05
0.481056 0.0686351 6.10361e-05
0.533455 0.0730907 0.00242618
0.582025 0.0788739 0.0056611
0.629114 0.085832 0.00868238
0.675166 0.0935836 0.0128481
0.718288 0.101396 0.0168154
0.754604 0.107729 0.0193179
0.781064 0.11194 0.020798
0.795148 0.114183 0.0215305
0.801816 0.115358 0.0218814
0.808499 0.116579 0.0222629
0.00184634 0.0982376 0.00967422
0.00184634 0.0982376 0.00967422
0.00184634 0.0982376 0.00967422
0.00184634 0.0982376 0.00967422
0.00184634 0.0982376 0.00967422
0.00184634 0.0982376 0.00967422
0.00184634 0.0982376 0.00967422
0.00184634 0.0982376 0.00967422
0.00265507 0.0980545 0.0096437
0.00749218 0.0969406 0.00939956
0.0126192 0.095613 0.00914015
0.0229801 0.0934768 0.00851453
0.0471046 0.0914931 0.00616464
0.0792554 0.0885939 0.00062562
0.118013 0.0853437 1.5259e-05
0.15729 0.0839704 0
0.197925 0.0838178 0
0.238224 0.0836957 0
0.276509 0.0848707 0
0.314778 0.0867018 0.000823987
0.360037 0.0882429 0.00248722
0.414496 0.087541 0.000732433
0.471199 0.0911269 7.62951e-05
0.525154 0.0959335 0.00244144
0.574853 0.100389 0.00590524
0.62269 0.104952 0.00900282
0.669108 0.109697 0.0129244
0.712474 0.114275 0.0167239
0.750759 0.118181 0.0192874
0.780499 0.120378 0.0209201
0.796201 0.120989 0.0217136
0.802853 0.121614 0.0220493
0.809522 0.122744 0.022385
0.00459297 0.122164 0.0113375
0.00459297 0.122164 0.0113375
0.00459297 0.122164 0.0113375
0.00459297 0.122164 0.0113375
0.00459297 0.122164 0.0113375
0.00459297 0.122164 0.0113375
0.00459297 0.122164 0.0113375
0.00459297 0.122164 0.0113375
0.00535592 0.122011 0.0113069
0.00999466 0.121111 0.0111543
0.0145724 0.120027 0.0110018
0.0204166 0.118151 0.0106813
0.0412299 0.116152 0.00915541
0.0698405 0.1149 0.00549325
0.108461 0.111162 0.00015259
0.149905 0.108141 0
0.19176 0.106798 0
0.232227 0.106584 0
0.271458 0.10753 0
0.311543 0.109071 3.0518e-05
0.352758 0.111666 0.00198367
0.398657 0.114443 0.00505074
0.456992 0.117082 0.00454719
0.515648 0.119417 0.00393683
0.567803 0.123079 0.00660716
0.616754 0.128069 0.00991836
0.664256 0.133074 0.0137789
0.708553 0.137957 0.0174868
0.748135 0.141711 0.0200351
0.781628 0.143664 0.0216831
0.800595 0.143221 0.0224765
0.80734 0.140993 0.0227817
0.813474 0.139101 0.0230259
0.00694286 0.147021 0.0136873
0.00694286 0.147021 0.0136873
0.00694286 0.147021 0.0136873
0.00694286 0.147021 0.0136873
0.00694286 0.147021 0.0136873
0.00694286 0.147021 0.0136873
0.00694286 0.147021 0.0136873
0.00694286 0.147021 0.0136873
0.00770581 0.146883 0.013611
0.0123751 0.145998 0.0132143
0.0169375 0.144915 0.0128023
0.0220493 0.143023 0.0122683
0.0354925 0.141238 0.0112612
0.0622568 0.140108 0.00866712
0.0952621 0.138048 0.0043946
0.138125 0.134463 0.000244144
0.182834 0.131563 0
0.224735 0.129824 0
0.265064 0.130648 0
0.305928 0.132342 0
0.348714 0.134493 0.000122072
0.393774 0.13814 0.00289921
0.441871 0.143297 0.00794995
0.499886 0.147677 0.0113527
0.557229 0.150698 0.012192
0.609079 0.153674 0.0122072
0.658 0.157809 0.0146944
0.704097 0.163424 0.0183413
0.746044 0.168124 0.0211185
0.781979 0.17052 0.0227665
0.803845 0.170428 0.0235752
0.81268 0.168276 0.0239567
0.819074 0.165743 0.0241093
0.00843824 0.172168 0.0174105
0.00843824 0.172168 0.0174105
0.00843824 0.172168 0.0174105
0.00843824 0.172168 0.0174105
0.00843824 0.172168 0.0174105
0.00843824 0.172168 0.0174105
0.00843824 0.172168 0.0174105
0.00843824 0.172168 0.0174105
0.00921645 0.172045 0.0173495
0.013901 0.171298 0.0169528
0.018555 0.170352 0.0165408
0.0232853 0.168582 0.0158846
0.0293126 0.166888 0.015198
0.0551766 0.165576 0.0121462
0.0826429 0.16524 0.00891127
0.123888 0.161639 0.00352483
0.170245 0.159045 0.000289921
0.214694 0.155444 0
0.257679 0.154986 0
0.299718 0.156298 0
0.343099 0.158602 0
0.388952 0.162005 0.00030518
0.438544 0.166827 0.00408942
0.489342 0.172992 0.0119936
0.542 0.178759 0.0189517
0.595499 0.184115 0.0224155
0.64654 0.188968 0.0248875
0.694301 0.19408 0.0278325
0.738384 0.199161 0.0309148
0.777752 0.202869 0.0329137
0.804211 0.203632 0.0338598
0.815961 0.20148 0.0340734
0.822934 0.198138 0.0330358
0.0106355 0.198505 0.0215763
0.0106355 0.198505 0.0215763
0.0106355 0.198505 0.0215763
0.0106355 0.198505 0.0215763
0.0106355 0.198505 0.0215763
0.0106355 0.198505 0.0215763
0.0106355 0.198505 0.0215763
0.0106355 0.198505 0.0215763
0.0113985 0.198398 0.0215152
0.0160372 0.197711 0.0211643
0.0206912 0.19678 0.0207065
0.0252537 0.194949 0.0200656
0.0302892 0.193225 0.0193942
0.0486152 0.191485 0.0173953
0.0747234 0.191135 0.0124971
0.108385 0.190906 0.00888075
0.155444 0.187366 0.0034638
0.202564 0.18352 0.000915541
0.248112 0.180865 9.15541e-05
0.292912 0.181186 0
0.337392 0.182956 0
0.383368 0.186053 0.00122072
0.433051 0.190646 0.00415045
0.484504 0.195422 0.00827039
0.536324 0.201541 0.0164187
0.586267 0.208942 0.0240787
0.634791 0.21593 0.0294194
0.681804 0.222522 0.0338598
0.726879 0.228382 0.0371862
0.769589 0.233326 0.0394751
0.800687 0.236164 0.0414588
0.81503 0.235523 0.0425269
0.822034 0.232853 0.0424353
0.0134279 0.224857 0.0246738
0.0134279 0.224857 0.0246738
0.0134279 0.224857 0.0246738
0.0134279 0.224857 0.0246738
0.0134279 0.224857 0.0246738
0.0134279 0.224857 0.0246738
0.0134279 0.224857 0.0246738
0.0134279 0.224857 0.0246738
0.0141909 0.22475 0.0246586
0.0187991 0.224063 0.0244907
0.0233921 0.223224 0.024033
0.027924 0.221668 0.0234531
0.032639 0.219989 0.0227359
0.043534 0.217929 0.0214694
0.0684672 0.217548 0.0176547
0.0976883 0.21828 0.012726
0.139696 0.216571 0.00817884
0.189242 0.213565 0.00395209
0.237705 0.209277 0.00213626
0.284321 0.207691 0.00144961
0.33109 0.20853 0.00178531
0.379431 0.2112 0.00364691
0.42887 0.215457 0.00628672
0.479255 0.219516 0.00889601
0.531594 0.22359 0.0125429
0.582696 0.230472 0.0199741
0.630304 0.238758 0.0283207
0.675349 0.246586 0.0349737
0.719203 0.253727 0.0396735
0.761868 0.259998 0.0427558
0.797269 0.264729 0.0455482
0.815946 0.265858 0.0474708
0.822766 0.263828 0.047837
0.0168002 0.252598 0.0279393
0.0168002 0.252598 0.0279393
0.0168002 0.252598 0.0279393
0.0168002 0.252598 0.0279393
0.0168002 0.252598 0.0279393
0.0168002 0.252598 0.0279393
0.0168002 0.252598 0.0279393
0.0168002 0.252598 0.0279393
0.0175479 0.252476 0.0279088
0.0221103 0.251759 0.0276799
0.026627 0.250965 0.0273594
0.0311437 0.249577 0.0268101
0.0357214 0.248005 0.0261692
0.0411994 0.245823 0.0253452
0.0624857 0.244755 0.0225223
0.0906691 0.245075 0.0162203
0.125017 0.245914 0.0133974
0.175174 0.243824 0.00920119
0.224918 0.240345 0.00669871
0.27454 0.236393 0.00482185
0.324208 0.235828 0.0049897
0.375555 0.238087 0.00679026
0.426566 0.241321 0.00881972
0.476478 0.244785 0.0106661
0.528313 0.2486 0.0132296
0.579675 0.253819 0.0175174
0.628473 0.260761 0.0242924
0.674342 0.268925 0.0324254
0.71809 0.277119 0.0389563
0.760311 0.284382 0.0429847
0.798276 0.290578 0.0465705
0.821103 0.293355 0.0493477
0.828916 0.292256 0.0504158
0.0212406 0.280934 0.0315099
0.0212406 0.280934 0.0315099
0.0212406 0.280934 0.0315099
0.0212406 0.280934 0.0315099
0.0212406 0.280934 0.0315099
0.0212406 0.280934 0.0315099
0.0212406 0.280934 0.0315099
0.0212406 0.280934 0.0315099
0.0219883 0.280827 0.0314794
0.0265049 0.280201 0.0312963
0.0309911 0.279454 0.0310979
0.0354925 0.278187 0.0306401
0.0401312 0.276646 0.0299992
0.0446021 0.274754 0.0293889
0.0586099 0.273243 0.0275883
0.0856184 0.272938 0.0216678
0.115694 0.27396 0.017731
0.156817 0.274128 0.0147707
0.210758 0.272511 0.0119478
0.264851 0.268559 0.0093843
0.316793 0.265843 0.00875868
0.371023 0.266743 0.00978103
0.425238 0.268498 0.0112612
0.476616 0.271214 0.0129702
0.527504 0.274922 0.0154269
0.577661 0.279637 0.0187839
0.626734 0.285222 0.0228885
0.674067 0.291905 0.028397
0.718334 0.29987 0.0354162
0.760479 0.308141 0.0415808
0.800443 0.315557 0.0465553
0.826566 0.319432 0.0501259
0.836179 0.319158 0.0518502
0.0256352 0.3093 0.0362249
0.0256352 0.3093 0.0362249
0.0256352 0.3093 0.0362249
0.0256352 0.3093 0.0362249
0.0256352 0.3093 0.0362249
0.0256352 0.3093 0.0362249
0.0256352 0.3093 0.0362249
0.0256352 0.3093 0.0362249
0.0263828 0.309209 0.0362097
0.03093 0.308644 0.0360418
0.0354772 0.307912 0.0358129
0.0400702 0.306874 0.0353704
0.0446479 0.305547 0.0347143
0.0491493 0.303761 0.0339055
0.055848 0.301854 0.0326848
0.0813611 0.301457 0.0281376
0.10959 0.302052 0.0216983
0.14548 0.303716 0.0191501
0.19527 0.304143 0.0172885
0.250126 0.302541 0.0159152
0.30837 0.298543 0.0137331
0.365866 0.296574 0.0133059
0.423316 0.297292 0.0144503
0.47689 0.299062 0.0157015
0.528115 0.302312 0.0180972
0.57731 0.306416 0.0212253
0.625055 0.311437 0.0242924
0.672236 0.317281 0.0278935
0.717418 0.324117 0.0327459
0.760143 0.33167 0.0381476
0.800946 0.339376 0.0437018
0.830381 0.344442 0.048188
0.84387 0.34548 0.0510109
0.0298161 0.337758 0.0413825
0.0298161 0.337758 0.0413825
0.0298161 0.337758 0.0413825
0.0298161 0.337758 0.0413825
0.0298161 0.337758 0.0413825
0.0298161 0.337758 0.0413825
0.0298161 0.337758 0.0413825
0.0298161 0.337758 0.0413825
0.0305943 0.337682 0.0413672
0.0352331 0.337194 0.0412299
0.0398108 0.336599 0.041001
0.0443732 0.335668 0.0406653
0.0488899 0.334462 0.0402075
0.0533608 0.332738 0.0395514
0.0580911 0.330694 0.0385138
0.0764477 0.329747 0.0355383
0.105165 0.33051 0.0284733
0.138033 0.332784 0.0236667
0.180987 0.334615 0.0218814
0.235096 0.335073 0.022446
0.295384 0.333272 0.0210269
0.358816 0.329656 0.0184176
0.42034 0.328099 0.0180362
0.476219 0.328374 0.0188449
0.527718 0.3308 0.0210575
0.576608 0.334249 0.0238193
0.623743 0.338903 0.0265507
0.669917 0.344518 0.0296941
0.714916 0.350881 0.0331884
0.758099 0.357427 0.0362707
0.799496 0.364004 0.039765
0.832807 0.36968 0.0437629
0.851575 0.372 0.0469215
0.0346838 0.367269 0.0466316
0.0346838 0.367269 0.0466316
0.0346838 0.367269 0.0466316
0.0346838 0.367269 0.0466316
0.0346838 0.367269 0.0466316
0.0346838 0.367269 0.0466316
0.0346838 0.367269 0.0466316
0.0346838 0.367269 0.0466316
0.0354314 0.367193 0.0466163
0.0400397 0.366751 0.0464637
0.0446174 0.366278 0.0462959
0.0491493 0.365469 0.0460517
0.0536965 0.364477 0.0457313
0.0581369 0.362844 0.0452277
0.062623 0.360967 0.0445411
0.0705425 0.359152 0.0432746
0.101411 0.360143 0.0368505
0.132479 0.362295 0.0296178
0.170825 0.364736 0.0263066
0.221256 0.367483 0.0277867
0.280461 0.36875 0.0294804
0.347433 0.366186 0.0264591
0.415335 0.363027 0.0238956
0.475074 0.360403 0.0230564
0.526513 0.360906 0.0243076
0.574975 0.363821 0.0268406
0.622156 0.367895 0.0293736
0.66772 0.372747 0.0320134
0.712047 0.379019 0.0351873
0.755032 0.385489 0.0376287
0.796292 0.391623 0.0399786
0.831891 0.397879 0.0438849
0.855497 0.401556 0.0478828
0.0390173 0.398199 0.0522927
0.0390173 0.398199 0.0522927
0.0390173 0.398199 0.0522927
0.0390173 0.398199 0.0522927
0.0390173 0.398199 0.0522927
0.0390173 0.398199 0.0522927
0.0390173 0.398199 0.0522927
0.0390173 0.398199 0.0522927
0.039765 0.398138 0.0522774
0.044358 0.397742 0.0521248
0.0489815 0.397345 0.052018
0.0535744 0.396689 0.0518196
0.0581064 0.395758 0.0515145
0.062562 0.394217 0.0510719
0.0673991 0.392554 0.0505837
0.0724193 0.390616 0.0500191
0.0975204 0.39089 0.0465248
0.127474 0.39266 0.0391546
0.162036 0.395453 0.033051
0.206821 0.397971 0.032166
0.265522 0.40293 0.036347
0.334417 0.405081 0.0362707
0.406195 0.40267 0.0333867
0.472282 0.397894 0.0302281
0.525963 0.395056 0.0290837
0.57377 0.39588 0.0305638
0.620447 0.398962 0.0327764
0.665614 0.402808 0.0347753
0.709285 0.408286 0.0374609
0.751659 0.414603 0.0398718
0.792401 0.42092 0.042237
0.829282 0.427543 0.0464485
0.857099 0.432044 0.0515602
0.0430915 0.430838 0.0591135
0.0430915 0.430838 0.0591135
0.0430915 0.430838 0.0591135
0.0430915 0.430838 0.0591135
0.0430915 0.430838 0.0591135
0.0430915 0.430838 0.0591135
0.0430915 0.430838 0.0591135
0.0430915 0.430838 0.0591135
0.0438697 0.430777 0.0590829
0.0485084 0.430411 0.0588998
0.0531624 0.43003 0.0587472
0.0580606 0.429404 0.0585336
0.0630655 0.428519 0.0582132
0.06804 0.427131 0.0577707
0.0731518 0.42562 0.0572824
0.0783856 0.423743 0.0567941
0.0941787 0.423148 0.0557717
0.123476 0.424659 0.0512398
0.155779 0.427985 0.0429694
0.194644 0.430549 0.0390478
0.249149 0.434714 0.0416724
0.323384 0.441321 0.0453346
0.395972 0.443275 0.0446479
0.465003 0.439857 0.0411994
0.523842 0.434791 0.0375067
0.572656 0.431937 0.0363012
0.618204 0.432364 0.0370489
0.662715 0.434791 0.0383001
0.705699 0.439033 0.0402533
0.747555 0.444541 0.042298
0.788098 0.450782 0.0446784
0.826291 0.45742 0.0491035
0.857954 0.462379 0.0551003
0.0462043 0.464759 0.0677043
0.0462043 0.464759 0.0677043
0.0462043 0.464759 0.0677043
0.0462043 0.464759 0.0677043
0.0462043 0.464759 0.0677043
0.0462043 0.464759 0.0677043
0.0462043 0.464759 0.0677043
0.0462043 0.464759 0.0677043
0.0470436 0.464698 0.0676585
0.0521248 0.464317 0.0674449
0.0572824 0.464057 0.0673228
0.0624857 0.463569 0.0671397
0.0677653 0.462867 0.0668345
0.0730449 0.461494 0.0662699
0.0782025 0.459983 0.0656138
0.0833295 0.458091 0.0650797
0.0914168 0.456535 0.0645151
0.118776 0.458 0.0627146
0.151019 0.461051 0.0574655
0.186145 0.465339 0.0499275
0.236088 0.46717 0.0485237
0.311009 0.473686 0.0522316
0.385473 0.479881 0.0542153
0.453513 0.480949 0.0525826
0.515312 0.477134 0.0486
0.569009 0.472419 0.0449226
0.61532 0.469398 0.043122
0.658885 0.469047 0.0428626
0.701457 0.471595 0.0438392
0.743084 0.476158 0.0453498
0.783536 0.481559 0.047303
0.822675 0.487495 0.0514687
0.857053 0.492439 0.0579538
0.0500954 0.499687 0.0776226
0.0500954 0.499687 0.0776226
0.0500954 0.499687 0.0776226
0.0500954 0.499687 0.0776226
0.0500954 0.499687 0.0776226
0.0500954 0.499687 0.0776226
0.0500954 0.499687 0.0776226
0.0500954 0.499687 0.0776226
0.0509804 0.499626 0.0775921
