Lumix LUTs/LudemanMidSat709.cube
TITLE "Generated by Resolve"
LUT_3D_SIZE 9
0.00544747 0.0355383 0.0422217
0.00808728 0.0357671 0.0433967
0.017792 0.0375982 0.0453498
0.0779736 0.0427863 0.0505531
0.199298 0.0559243 0.0572824
0.416007 0.0772869 0.0645457
0.727504 0.105989 0.0923781
1 0.158328 0.12845
1 0.206989 0.164248
0.00613413 0.0394751 0.0451209
0.00817884 0.0394751 0.0460059
0.0157626 0.0401465 0.047013
0.078584 0.0468452 0.0515145
0.202258 0.0602274 0.059678
0.418097 0.079881 0.0642405
0.72932 0.109651 0.0922408
1 0.161547 0.128099
1 0.208972 0.164614
0.00419623 0.054902 0.0487373
0.00584421 0.0552834 0.0474403
0.0151522 0.0558022 0.049012
0.0824903 0.0584421 0.0513313
0.208911 0.0674601 0.0599222
0.422461 0.0842298 0.0635996
0.731594 0.115236 0.0918898
1 0.165576 0.127611
1 0.211749 0.164233
0 0.107973 0.0442512
0.000259403 0.108263 0.0439002
0.00538643 0.108186 0.0423896
0.0663767 0.105608 0.0449073
0.231739 0.0941482 0.0466468
0.435096 0.0952621 0.0593271
0.73196 0.122988 0.0859083
1 0.171969 0.126421
1 0.217212 0.163149
0 0.183886 0.0207675
0 0.184451 0.0204776
0 0.184649 0.0187228
0 0.197787 0.0156405
0.204959 0.181018 0.0203403
0.463859 0.152392 0.0194705
0.734005 0.163333 0.062501
1 0.183093 0.120775
1 0.225223 0.161639
0 0.296254 0.00207523
0 0.296254 0.00210575
0 0.298436 0.00106813
0 0.306127 0
0.00607309 0.325475 0
0.399847 0.301579 0
0.73756 0.265766 0.00556954
1 0.276524 0.0746014
1 0.245716 0.14934
0 0.470207 0
0 0.470054 0
0 0.470237 0
0 0.470863 0
0.0117647 0.486412 0
0.155428 0.486473 0
0.648661 0.504311 0
1 0.449348 0
1 0.435492 0.087541
0.0223697 0.641474 0.0259098
0.0221408 0.640955 0.0257115
0.021973 0.641382 0.0261997
0.021088 0.64126 0.0266728
0.0196231 0.641215 0.0277409
0.132219 0.658351 0.0270085
0.366812 0.660777 0.0351415
0.893874 0.762692 0
1 0.649836 0.0149844
0.0776837 0.82945 0.0245518
0.0776379 0.829877 0.0244602
0.0771496 0.829297 0.0248112
0.0767224 0.829694 0.0248417
0.0754406 0.829847 0.0251316
0.0728466 0.830381 0.0256046
0.229572 0.858 0.0357671
0.637903 0.862806 0.0773022
1 0.953872 0.0528725
0.00520333 0.0354162 0.0442206
0.00807202 0.0358587 0.0457465
0.017792 0.0374456 0.0483101
0.0798047 0.0420996 0.0527657
0.200168 0.0559701 0.0610819
0.415274 0.0754253 0.0688945
0.726879 0.105119 0.0968795
1 0.156252 0.132128
1 0.20589 0.165698
0.00605783 0.0389715 0.0479286
0.00807202 0.0390784 0.0491646
0.0153201 0.0399786 0.0504005
0.0796063 0.0463417 0.0540017
0.202518 0.0607309 0.063798
0.416709 0.0782025 0.0684367
0.728191 0.108324 0.0968795
1 0.159258 0.131975
1 0.207996 0.165881
0.00411994 0.054612 0.051545
0.00578317 0.0545357 0.0506447
0.0144045 0.055314 0.0518654
0.0813764 0.0586862 0.0551461
0.208331 0.0682689 0.0641031
0.42034 0.0834058 0.0679332
0.72871 0.113802 0.0969558
1 0.163455 0.131624
1 0.210575 0.165637
0 0.10782 0.0488746
0.000228885 0.107988 0.0486152
0.00544747 0.107439 0.0464637
0.063035 0.105531 0.0494087
0.228107 0.0952773 0.052369
0.430884 0.0956283 0.063859
0.728985 0.123125 0.0914931
1 0.170123 0.130938
1 0.216205 0.164843
0 0.184329 0.024445
0 0.18378 0.0245823
0 0.184237 0.0224918
0 0.196704 0.0183261
0.203067 0.181399 0.024033
0.459083 0.154803 0.0229801
0.729473 0.164355 0.0669413
1 0.182712 0.126314
1 0.22446 0.163836
0 0.294743 0.00451667
0 0.294697 0.00459297
0 0.296757 0.00386053
0 0.303624 0.00077821
0.00299077 0.325887 0
0.397879 0.302724 0
0.731731 0.267704 0.00843824
1 0.278157 0.0779126
1 0.246571 0.151781
0 0.466453 0
0 0.46659 0
0 0.466407 0
0 0.467384 0
0.00299077 0.486229 0
0.151019 0.487068 0
0.647059 0.504234 0
1 0.451423 0
1 0.438453 0.0879835
0.0150607 0.639902 0.0303197
0.0149996 0.64007 0.0304875
0.0146944 0.64004 0.0306401
0.0139162 0.639979 0.0311894
0.0126497 0.640391 0.0321813
0.127031 0.657572 0.0310826
0.365652 0.661204 0.0382544
0.893294 0.762936 0
1 0.651896 0.0163119
0.0714427 0.829007 0.0265202
0.0713512 0.829328 0.0263828
0.0708934 0.829297 0.0265049
0.070634 0.829038 0.0267643
0.0696727 0.82945 0.0269474
0.0675669 0.829572 0.0276493
0.226963 0.858289 0.0379187
0.637705 0.862638 0.0793622
1 0.954192 0.055375
0.00515755 0.0355993 0.0508736
0.00781262 0.0362707 0.0517433
0.0163882 0.0375525 0.0546273
0.0846113 0.0402075 0.0586404
0.20267 0.0541085 0.0681621
0.414832 0.0718395 0.0788434
0.727596 0.104036 0.105165
1 0.15465 0.138567
1 0.203891 0.168231
0.00576791 0.0390784 0.0547036
0.00766003 0.0392462 0.0555123
0.0144045 0.0404974 0.0564889
0.0824598 0.0449531 0.0603037
0.203342 0.0589151 0.0694285
0.41561 0.074464 0.078172
0.726757 0.106004 0.104784
1 0.157412 0.13872
1 0.206012 0.168139
0.00407416 0.0521096 0.0590677
0.0056611 0.0522316 0.0594034
0.0133364 0.0521096 0.0597543
0.0789807 0.0587015 0.0655528
0.206439 0.0692302 0.0716564
0.418235 0.0814069 0.0779431
0.723949 0.109499 0.103807
1 0.161212 0.13843
1 0.208972 0.168261
0 0.105119 0.0642405
0.000274662 0.105257 0.0641031
0.00547799 0.104677 0.0612955
0.0597086 0.103944 0.0626535
0.22269 0.0986191 0.0679637
0.428077 0.0988785 0.0748302
0.722728 0.119707 0.100084
1 0.168002 0.138476
1 0.214588 0.168093
0 0.185229 0.036347
0 0.185489 0.0363775
0 0.184405 0.0354314
0 0.193774 0.0288548
0.2009 0.18114 0.0357671
0.452857 0.1579 0.0330358
0.721477 0.164996 0.0761273
1 0.182208 0.134798
1 0.223575 0.168841
0 0.292058 0.00965896
0 0.292012 0.00973526
0 0.293675 0.00932326
0 0.298054 0.00767529
0 0.325689 0
0.396292 0.303075 0
0.723461 0.269932 0.0139773
1 0.280964 0.0836347
1 0.246586 0.1579
0 0.460105 0.00570687
0 0.459983 0.00585946
0 0.46038 0.00593576
0 0.461677 0.00541695
0 0.484688 0
0.144457 0.488228 0
0.645685 0.50486 0
1 0.453605 0.000823987
1 0.442252 0.0892653
0.00512703 0.638437 0.0370794
0.00495918 0.638163 0.0370336
0.00492866 0.638544 0.0375067
0.00450141 0.638422 0.0379492
0.00352483 0.638376 0.0389563
0.1178 0.656565 0.0352178
0.360021 0.662638 0.0426184
0.891951 0.762051 0
1 0.654002 0.018967
0.062501 0.827802 0.0294041
0.062562 0.828244 0.0292363
0.0621805 0.827863 0.0294194
0.061738 0.827588 0.029633
0.0606546 0.827909 0.0297704
0.0587778 0.828321 0.0301366
0.222354 0.859098 0.0410925
0.636484 0.862242 0.0827192
1 0.954238 0.0588235
0.004654 0.0370794 0.0656291
0.00689708 0.037232 0.0663615
0.0120089 0.0386053 0.0662852
0.091371 0.0429999 0.079118
0.21529 0.0563973 0.0906233
0.428717 0.0726024 0.104524
0.738628 0.110719 0.128557
1 0.157275 0.154894
1 0.200351 0.175952
0.00378424 0.0402228 0.0678416
0.00581369 0.0405432 0.0687114
0.0118868 0.0433967 0.0701457
0.0892653 0.0467536 0.0817731
0.216754 0.0587167 0.0917525
0.428824 0.0738384 0.104433
0.738369 0.111727 0.128023
1 0.159091 0.154543
1 0.202167 0.175723
0.0039826 0.0529641 0.0759747
0.00529488 0.0536507 0.0766003
0.0112917 0.0563973 0.0811017
0.0822156 0.0581826 0.0908675
0.219272 0.0667887 0.0958114
0.428077 0.0767071 0.103639
0.73724 0.113649 0.126574
1 0.161578 0.154147
1 0.205127 0.175616
0.000915541 0.0965286 0.0955978
0.00148013 0.0966201 0.0957351
0.00587472 0.0962692 0.0951095
0.0571603 0.100023 0.100893
0.218051 0.103502 0.106798
0.431861 0.0966964 0.102617
0.730831 0.118044 0.123537
1 0.16553 0.153353
1 0.21117 0.176349
0 0.188998 0.0790112
0 0.189166 0.0790875
0 0.188128 0.0781567
0 0.189837 0.0727092
0.192691 0.184024 0.0726787
0.444282 0.165179 0.0763561
0.725231 0.162188 0.106966
1 0.177539 0.150317
1 0.220935 0.178424
0 0.293172 0.0347601
0 0.29337 0.0350042
0 0.293034 0.0348058
0 0.291905 0.0331884
0 0.321202 0.0116579
0.394293 0.306554 0.00181582
0.71545 0.274342 0.0387274
1 0.282765 0.102022
1 0.247135 0.169696
0 0.444389 0.0274968
0 0.444389 0.0275425
0 0.444526 0.0277104
0 0.445869 0.0271458
0 0.477195 0.00621042
0.127474 0.491417 0.00273136
0.644221 0.5066 0
0.99794 0.456199 0.0103609
1 0.447654 0.0968643
0 0.634623 0.049897
0 0.634379 0.0499275
0 0.634516 0.0501564
0 0.634745 0.0505074
0 0.634806 0.051194
0.100511 0.654353 0.0420844
0.35378 0.663722 0.0496071
0.889906 0.762112 0
1 0.656535 0.0252232
0.047364 0.824353 0.0368353
0.0470741 0.824323 0.0369879
0.0470741 0.824643 0.0370489
0.0467689 0.824582 0.0372473
0.0462196 0.824491 0.037705
0.0451667 0.824826 0.0385595
0.214145 0.85951 0.04654
0.633967 0.861357 0.0886091
1 0.954376 0.0662699
0.00178531 0.0412451 0.0917372
0.0040589 0.0428931 0.0944076
0.0100404 0.0444953 0.0975662
0.0734112 0.0505379 0.115145
0.240879 0.0700847 0.139315
0.4589 0.0909438 0.160204
0.756939 0.123919 0.177127
1 0.168093 0.193393
1 0.200366 0.199741
0.00144961 0.0451514 0.0964981
0.00317388 0.0463264 0.0983444
0.00952163 0.0487221 0.101717
0.0684672 0.0537423 0.117464
0.239948 0.0716411 0.140261
0.459159 0.0924239 0.160555
0.756329 0.125338 0.176867
1 0.169757 0.193317
1 0.201434 0.199542
0.00115969 0.0556497 0.104891
0.002533 0.0564279 0.105577
0.00823987 0.0598306 0.111315
0.0609903 0.0639506 0.124269
0.240055 0.0767529 0.144106
0.458762 0.0949722 0.161166
0.755383 0.127626 0.176577
1 0.171893 0.193225
1 0.202976 0.198993
0.00308232 0.0948196 0.133608
0.00349432 0.094728 0.1337
0.0061799 0.0952926 0.134661
0.0332952 0.10193 0.151278
0.239811 0.103578 0.160372
0.458671 0.105287 0.163485
0.752834 0.132509 0.175296
1 0.174914 0.191913
1 0.206012 0.198047
0 0.18146 0.163989
0 0.181949 0.164294
0 0.180667 0.164584
0.000335698 0.179049 0.165805
0.152865 0.186969 0.175769
0.44033 0.173846 0.171389
0.735363 0.160281 0.170871
1 0.181399 0.190356
1 0.210575 0.197024
0 0.305226 0.122255
0 0.305699 0.122377
0 0.305531 0.122057
0 0.307012 0.119203
0 0.300862 0.114382
0.387945 0.317556 0.0762493
0.706798 0.28983 0.122164
1 0.275563 0.162097
1 0.241718 0.199878
0 0.430198 0.076173
0 0.430457 0.0762188
0 0.430442 0.0766766
0 0.431037 0.0769513
0 0.449058 0.0625467
0.0530556 0.48896 0.0348211
0.638956 0.50927 0
0.993912 0.460227 0.0457008
1 0.451362 0.123217
0 0.626963 0.073228
0 0.626932 0.0733349
0 0.626871 0.0734722
0 0.627024 0.0737621
0 0.627024 0.0744335
0.0693675 0.64831 0.0585336
0.340246 0.665583 0.0611124
0.887648 0.762631 0
1 0.6589 0.038468
0.0246433 0.818524 0.0581826
0.0245212 0.818799 0.0580606
0.0242924 0.818769 0.0583047
0.0238804 0.818799 0.0585489
0.0229343 0.818433 0.059556
0.0211948 0.818738 0.0606546
0.188876 0.849729 0.0562295
0.630396 0.8589 0.101091
1 0.953765 0.0804608
0.00155642 0.0669718 0.156405
0.00274662 0.0677043 0.158816
0.00755322 0.0695659 0.16437
0.0486305 0.0779583 0.181949
0.24773 0.0881056 0.222522
0.493599 0.12578 0.252293
0.784787 0.15581 0.265766
1 0.187991 0.270069
1 0.216541 0.262867
0.0011902 0.068864 0.159579
0.0024567 0.0695811 0.161791
0.00671397 0.071397 0.16611
0.0429694 0.079881 0.184878
0.2439 0.0892805 0.22504
0.493156 0.127535 0.253223
0.783719 0.157839 0.266239
1 0.1897 0.270191
1 0.217563 0.263325
0.000869764 0.0730755 0.164538
0.00178531 0.0734264 0.165667
0.00517281 0.0751659 0.16878
0.0314336 0.0831617 0.190066
0.233845 0.0910201 0.228824
0.492271 0.130312 0.25478
0.781338 0.160266 0.266606
1 0.192172 0.270771
1 0.219074 0.263523
0 0.0946517 0.187335
0.000411994 0.0947127 0.187533
0.00239567 0.0946059 0.188983
0.0149996 0.100526 0.207401
0.199878 0.100923 0.242557
0.487282 0.136294 0.256901
0.778042 0.164126 0.267597
1 0.196506 0.272282
1 0.221866 0.263661
0 0.174289 0.242969
0 0.174395 0.243107
0 0.173968 0.24448
0.00270085 0.172961 0.246967
0.0738231 0.184848 0.285481
0.467796 0.182239 0.278569
0.765789 0.181552 0.269352
1 0.202075 0.271885
1 0.226184 0.262882
0 0.303166 0.277638
0 0.303166 0.277638
0 0.304265 0.278065
0 0.305013 0.278737
0 0.309483 0.280354
0.295369 0.325475 0.299519
0.691463 0.304936 0.289738
1 0.263203 0.269215
1 0.239597 0.261265
0 0.470161 0.234043
0 0.470603 0.234104
0 0.470634 0.234623
0 0.471366 0.23508
0 0.469383 0.229267
0 0.475624 0.218189
0.616632 0.51931 0.14406
0.972198 0.47895 0.190616
1 0.450217 0.222232
0 0.619089 0.196551
0 0.619348 0.196551
0 0.619074 0.196887
0 0.619272 0.198001
0 0.619715 0.199695
0 0.627039 0.186236
0.237278 0.673411 0.143267
0.876173 0.76109 0.0809491
1 0.660044 0.111025
0 0.796719 0.152239
0 0.796719 0.152239
0 0.796597 0.152789
0 0.796475 0.153811
0 0.796536 0.155825
0 0.797009 0.159197
0.070634 0.819257 0.124224
0.605905 0.862898 0.160479
1 0.952377 0.142184
0.00215152 0.118502 0.28571
0.0030518 0.119295 0.288426
0.0049897 0.120089 0.291768
0.0140536 0.125811 0.307149
0.153414 0.135943 0.352926
0.478416 0.173297 0.38172
0.813321 0.208591 0.386389
1 0.236545 0.392615
1 0.255619 0.379126
0.0019379 0.120394 0.289448
0.00291447 0.121065 0.291646
0.0047303 0.122621 0.295247
0.0127871 0.128099 0.309957
0.147524 0.138735 0.354803
0.476783 0.174777 0.384039
0.812207 0.210391 0.386801
1 0.237949 0.393301
1 0.256458 0.379385
0.00129702 0.1243 0.293034
0.00202945 0.125475 0.294987
0.00358587 0.126604 0.298619
0.0107271 0.130617 0.313451
0.136873 0.14255 0.356786
0.47274 0.17673 0.386831
0.810346 0.21268 0.387243
1 0.240024 0.394202
1 0.257847 0.380346
0 0.132357 0.301228
7.62951e-05 0.133227 0.302358
0.00204471 0.134447 0.305745
0.00697337 0.135576 0.317037
0.108644 0.149828 0.359915
0.462379 0.179507 0.390723
0.805997 0.216358 0.387915
1 0.243519 0.394339
1 0.260792 0.382208
0 0.162325 0.337667
0 0.163088 0.338415
0 0.16347 0.33991
4.57771e-05 0.165896 0.345617
0.0193942 0.176715 0.380148
0.433097 0.184192 0.404288
0.793744 0.22179 0.389593
1 0.248249 0.394278
1 0.265568 0.384421
0 0.29543 0.399222
0 0.295689 0.399329
0 0.296132 0.400031
0 0.297765 0.402213
0 0.296925 0.41004
0.194751 0.315724 0.467872
0.71928 0.307546 0.428626
1 0.276585 0.401297
1 0.273777 0.386297
0 0.473442 0.445991
0 0.473442 0.445991
0 0.473716 0.446143
0 0.473686 0.446464
0 0.479484 0.449058
0 0.484291 0.455665
0.52134 0.517281 0.449271
0.930709 0.500999 0.462913
1 0.407401 0.40737
0 0.685618 0.44332
0 0.685481 0.443503
0 0.685802 0.443824
0 0.68603 0.444419
0 0.686732 0.445182
0 0.680171 0.429175
0.0809491 0.667521 0.396735
0.839231 0.759091 0.308736
1 0.687633 0.339208
0 0.806027 0.372747
0 0.806027 0.372747
0 0.806332 0.372992
0 0.806012 0.373526
0 0.806607 0.37406
0 0.807248 0.375875
0 0.823957 0.361776
0.500832 0.882017 0.290288
1 0.946136 0.299214
0 0.195315 0.488228
0 0.197406 0.491859
0 0.200076 0.497292
0.00164797 0.202792 0.505226
0.0357977 0.215137 0.533928
0.384298 0.2168 0.579751
0.785702 0.269322 0.534371
1 0.296239 0.538811
1 0.314443 0.543954
0 0.196826 0.490791
0 0.198703 0.494682
0 0.201465 0.500313
0.00117494 0.204303 0.508064
0.0269932 0.216449 0.53492
0.378637 0.218769 0.581506
0.783505 0.270191 0.535225
1 0.297154 0.539284
1 0.315297 0.544503
0 0.1991 0.49543
0 0.200671 0.498634
0 0.203296 0.503685
0.000717174 0.206195 0.512413
0.0173495 0.218036 0.536721
0.368322 0.221942 0.584024
0.779675 0.271656 0.536446
1 0.298573 0.540322
1 0.31664 0.544961
0 0.203372 0.502312
0 0.204486 0.50515
0 0.206561 0.510567
0 0.209674 0.517678
0.0111696 0.221775 0.54165
0.346716 0.227787 0.586938
0.770504 0.274067 0.539559
1 0.300755 0.541512
1 0.319203 0.5458
0 0.210285 0.509758
0 0.210819 0.511193
0 0.212619 0.515343
0 0.216587 0.523308
0.00357061 0.222721 0.542931
0.302281 0.23798 0.584543
0.747311 0.277272 0.545846
1 0.305348 0.541894
1 0.323522 0.548302
0 0.304509 0.575418
0 0.304891 0.575738
0 0.304997 0.577981
0 0.305272 0.582864
0 0.302754 0.590402
0.0989548 0.315526 0.637217
0.67715 0.30811 0.572183
1 0.321508 0.547784
1 0.329992 0.550698
0 0.456992 0.587976
0 0.457282 0.588083
0 0.457282 0.588083
0 0.458106 0.588556
0 0.460624 0.596033
0 0.462608 0.600717
0.40882 0.500603 0.700236
0.933516 0.494255 0.624002
1 0.425269 0.580835
0 0.673579 0.663096
0 0.673457 0.66334
0 0.673823 0.663432
0 0.673823 0.663432
0 0.674372 0.664012
0 0.681407 0.673869
0 0.696773 0.686824
0.761639 0.738552 0.654353
1 0.720333 0.671672
0 0.922683 0.720272
0 0.922835 0.720928
0 0.922835 0.720928
0 0.923049 0.720699
0 0.92314 0.72137
0 0.923842 0.72311
0 0.911742 0.698146
0.306859 0.864271 0.58172
0.993667 0.938766 0.544793
0 0.282704 0.73753
0 0.283833 0.739605
0 0.285573 0.743114
0 0.289021 0.75021
0 0.292699 0.760021
0.279744 0.305867 0.763531
0.700175 0.326787 0.753521
1 0.360021 0.747967
1 0.384207 0.773404
0 0.283635 0.738476
0 0.284627 0.740414
0 0.286473 0.744411
0 0.289799 0.751492
0 0.293233 0.76112
0.273869 0.30663 0.765118
0.698711 0.32694 0.753964
1 0.360769 0.748425
1 0.38471 0.773709
0 0.284672 0.738888
0 0.285985 0.741833
0 0.287694 0.745602
0 0.290913 0.753155
0 0.294011 0.762219
0.262806 0.308583 0.767636
0.695933 0.326665 0.754986
1 0.36202 0.749233
1 0.385626 0.77435
0 0.287282 0.740536
0 0.288365 0.743435
0 0.290089 0.747524
0 0.293004 0.756024
0 0.295644 0.764782
0.243137 0.314 0.773587
0.690547 0.325002 0.758907
1 0.36405 0.750179
1 0.387335 0.77554
0 0.290333 0.7402
0 0.29131 0.743221
0 0.293126 0.748425
0 0.295979 0.758633
0 0.298711 0.768917
0.181674 0.319905 0.784054
0.676951 0.318471 0.768872
0.999313 0.367361 0.751629
1 0.390814 0.776822
0 0.327886 0.758068
0 0.328038 0.758587
0 0.328679 0.762432
0 0.330907 0.770459
0 0.334295 0.782025
0.00642405 0.347524 0.824689
0.586038 0.323156 0.784192
0.975143 0.373983 0.751965
1 0.397086 0.777707
0 0.476661 0.772808
0 0.476661 0.772808
0 0.477043 0.772976
0 0.478218 0.775006
0 0.482353 0.786343
0 0.481636 0.795132
0.305516 0.513588 0.904524
0.885695 0.481315 0.808713
1 0.453437 0.798047
0 0.64419 0.814878
0 0.64419 0.814878
0 0.644541 0.814969
0 0.644541 0.814969
0 0.644816 0.815198
0 0.652399 0.831159
0.0596017 0.660212 0.838148
0.65211 0.713466 0.945144
1 0.699611 0.875273
0 0.843061 0.880812
0 0.843061 0.880812
0 0.842878 0.880995
0 0.843076 0.880964
0 0.843076 0.880964
0 0.84361 0.881559
0 0.853681 0.888472
0.272465 0.877684 0.898421
0.947723 0.919387 0.868727
