Lumix LUTs/LudemanMidSat709.cube
TITLE "Generated by Resolve"
LUT_3D_SIZE 33
0.00544747 0.0355383 0.0422217
0.00590524 0.0354925 0.0422827
0.00663767 0.0355993 0.0426795
0.00741588 0.0357519 0.0431373
0.00808728 0.0357671 0.0433967
0.0091249 0.0360723 0.0438087
0.0108949 0.0365148 0.0441291
0.0130922 0.0370794 0.0445869
0.017792 0.0375982 0.0453498
0.0279393 0.0370947 0.0454108
0.0398871 0.0383612 0.0475776
0.0593118 0.039826 0.0496376
0.0779736 0.0427863 0.0505531
0.100145 0.0451972 0.0510262
0.130694 0.0479438 0.0526436
0.162005 0.0513161 0.0556802
0.199298 0.0559243 0.0572824
0.241718 0.060029 0.0594492
0.290028 0.0645151 0.0600595
0.34873 0.0695354 0.0611582
0.416007 0.0772869 0.0645457
0.490837 0.0843977 0.0716564
0.568185 0.0915999 0.0785534
0.64535 0.0978714 0.0846571
0.727504 0.105989 0.0923781
0.809033 0.117891 0.0988479
0.886244 0.132082 0.109422
0.955016 0.145068 0.118013
1 0.158328 0.12845
1 0.170352 0.138582
1 0.183322 0.147601
1 0.196139 0.156756
1 0.206989 0.164248
0.00601205 0.0362554 0.0431525
0.00650034 0.0362554 0.0433204
0.00708019 0.0364538 0.0436103
0.00766003 0.0365301 0.0438544
0.00830091 0.0366827 0.0441138
0.00920119 0.0369116 0.0443732
0.0109102 0.0373541 0.0447395
0.0130312 0.0378424 0.0452277
0.0175631 0.038117 0.0456855
0.0277562 0.0379187 0.0459297
0.0393072 0.0392615 0.0479133
0.0589456 0.0409705 0.0500954
0.0776532 0.0438544 0.0511177
0.100542 0.0459144 0.0513466
0.131273 0.0486152 0.0529641
0.162707 0.0521859 0.0559701
0.200168 0.0567483 0.0578622
0.242237 0.060914 0.0599832
0.290379 0.0651102 0.060029
0.349218 0.0701152 0.0612039
0.416388 0.0778515 0.0644694
0.491051 0.0848402 0.071458
0.568399 0.0921798 0.0782635
0.645716 0.0983597 0.0844129
0.728252 0.106905 0.0923781
0.809522 0.118669 0.0987716
0.886046 0.132723 0.109346
0.955215 0.145953 0.117876
1 0.159243 0.128405
1 0.171283 0.138567
1 0.184009 0.147601
1 0.196612 0.156527
1 0.207477 0.164263
0.00614939 0.037232 0.0438544
0.00662242 0.0372168 0.0439155
0.00717174 0.0373236 0.0441596
0.00773632 0.0374609 0.0444648
0.0083772 0.0375067 0.0446937
0.00920119 0.0378119 0.0449531
0.0108339 0.038117 0.0453193
0.0128939 0.038529 0.045716
0.0167239 0.0383459 0.0457771
0.0274815 0.03888 0.0464637
0.0388342 0.0400397 0.0484016
0.0583505 0.0422065 0.0504616
0.0778515 0.0447547 0.0513008
0.101137 0.0470588 0.0517433
0.131868 0.0497292 0.0532235
0.163272 0.0531167 0.0562448
0.201007 0.0579232 0.0584573
0.24303 0.0618143 0.0604715
0.291325 0.0657206 0.0601511
0.349798 0.0707103 0.0612497
0.416693 0.0784619 0.064332
0.491676 0.0852979 0.0713512
0.568551 0.0927749 0.0779889
0.645869 0.0990463 0.0841688
0.72845 0.10782 0.0923476
0.810056 0.119402 0.0987411
0.886351 0.133577 0.109361
0.954971 0.146578 0.117739
1 0.160006 0.128328
1 0.172061 0.138582
1 0.184588 0.147662
1 0.197009 0.156329
1 0.20795 0.164431
0.00616464 0.0381781 0.0443732
0.00662242 0.0382849 0.0445411
0.00715648 0.0384375 0.0448005
0.00770581 0.0384985 0.0450599
0.00828565 0.0384833 0.0452888
0.00910964 0.0386664 0.0455329
0.0106203 0.0390173 0.0459144
0.0125124 0.039353 0.0462959
0.0162356 0.0391241 0.0461738
0.0270085 0.0399481 0.0472419
0.0381323 0.0412909 0.0489052
0.0583658 0.0433661 0.0504311
0.078233 0.0457465 0.0513924
0.101442 0.0479744 0.0520638
0.132525 0.0507668 0.0534829
0.164096 0.0541238 0.0565805
0.201572 0.0590219 0.0590677
0.243626 0.0627604 0.0610056
0.292103 0.0662852 0.0602579
0.350072 0.0713512 0.0613107
0.417212 0.079118 0.0642252
0.491829 0.0857252 0.0711681
0.569192 0.09337 0.0777447
0.646479 0.0996872 0.0839704
0.729183 0.10869 0.0923323
0.810178 0.120073 0.0987716
0.886595 0.134371 0.109438
0.955306 0.147372 0.117693
1 0.160723 0.128222
1 0.172885 0.138521
1 0.185473 0.147677
1 0.19736 0.156069
1 0.208423 0.164584
0.00613413 0.0394751 0.0451209
0.00656138 0.0395056 0.045304
0.00706493 0.039353 0.0453803
0.00756847 0.0395361 0.045716
0.00817884 0.0394751 0.0460059
0.00888075 0.0396582 0.0462654
0.0103304 0.0399023 0.0465858
0.0115663 0.0398108 0.0464942
0.0157626 0.0401465 0.047013
0.026566 0.0413825 0.0477607
0.038056 0.043061 0.049012
0.0585336 0.0446326 0.0503853
0.078584 0.0468452 0.0515145
0.101747 0.0490272 0.0524605
0.133227 0.0520027 0.0537881
0.165148 0.055375 0.0569009
0.202258 0.0602274 0.059678
0.244083 0.0635691 0.0613718
0.292836 0.0670634 0.0604257
0.350607 0.0718395 0.0614328
0.418097 0.079881 0.0642405
0.492058 0.086183 0.070985
0.569467 0.0940566 0.0774395
0.646769 0.100404 0.083772
0.72932 0.109651 0.0922408
0.810727 0.120897 0.0987411
0.886946 0.135363 0.109499
0.955657 0.148241 0.117693
1 0.161547 0.128099
1 0.17377 0.138506
1 0.186099 0.147677
1 0.197955 0.155917
1 0.208972 0.164614
0.00595102 0.0408942 0.0458534
0.00637827 0.0408331 0.0460059
0.00682078 0.0407721 0.0461433
0.00730907 0.0408484 0.0463569
0.00787366 0.0408637 0.0466011
0.00839246 0.0407568 0.0466011
0.0093843 0.0407263 0.0464942
0.0112612 0.0411231 0.0468452
0.0155489 0.0420844 0.0472877
0.0261997 0.043122 0.047837
0.0379034 0.0447242 0.0490578
0.0588235 0.0462348 0.0502937
0.0788891 0.0482185 0.0516976
0.102205 0.0505379 0.0529946
0.133715 0.0533455 0.0538949
0.166323 0.0567636 0.0573129
0.203159 0.0616617 0.0603952
0.24506 0.0643473 0.0616312
0.29369 0.0678111 0.0605783
0.351919 0.072694 0.0616465
0.418982 0.0806897 0.0642405
0.492348 0.086717 0.0707256
0.56997 0.0948348 0.0772106
0.647532 0.101335 0.0835279
0.730007 0.110872 0.0922103
0.810773 0.121782 0.098558
0.887037 0.136446 0.109514
0.955825 0.149294 0.117494
1 0.162539 0.127977
1 0.174884 0.138689
1 0.186847 0.147539
1 0.198611 0.15581
1 0.20943 0.164523
0.00492866 0.0436255 0.0461433
0.0053254 0.0435645 0.0461433
0.00572213 0.0436103 0.0462196
0.00624094 0.0436561 0.0462959
0.00683604 0.0436866 0.0464332
0.0075227 0.0439765 0.0466011
0.00900282 0.0442054 0.0468452
0.0109407 0.0447242 0.0472267
0.0154421 0.0454871 0.0476692
0.0259403 0.0461738 0.0480201
0.0380407 0.0476081 0.049134
0.0593118 0.0486152 0.0497292
0.0796826 0.0506905 0.0523995
0.103044 0.053315 0.0538491
0.13518 0.0557717 0.0544747
0.168246 0.058732 0.0580148
0.2047 0.0634165 0.0607614
0.246448 0.0652628 0.0617533
0.29543 0.0689097 0.0607004
0.35285 0.0738079 0.0617075
0.419883 0.0819104 0.0640421
0.493034 0.0873579 0.0706188
0.570642 0.0957656 0.0769207
0.647837 0.102327 0.0831464
0.730419 0.111971 0.0921798
0.811414 0.122927 0.0983597
0.88748 0.137621 0.10959
0.955383 0.150134 0.11725
1 0.163348 0.127886
1 0.175631 0.138613
1 0.187686 0.147494
1 0.199237 0.155795
1 0.210071 0.164431
0.00454719 0.0491035 0.0477607
0.00494392 0.0489509 0.0475624
0.00527962 0.049073 0.0474708
0.00569162 0.0491798 0.0472725
0.0062562 0.0491035 0.0470741
0.00691234 0.0491798 0.0470893
0.0083772 0.0491951 0.0472267
0.0104524 0.0493935 0.0476539
0.015259 0.049546 0.0480507
0.0264134 0.050248 0.0488289
0.0386664 0.0513008 0.0492866
0.0602579 0.052018 0.0498665
0.0802319 0.0541848 0.0530404
0.104417 0.0568093 0.0543984
0.137575 0.0590677 0.0552682
0.170489 0.0614939 0.0584268
0.206439 0.0650645 0.0603494
0.24831 0.0665446 0.0616922
0.297276 0.0702678 0.0607919
0.354177 0.0754101 0.0617685
0.42121 0.083238 0.0638285
0.493629 0.088304 0.0703899
0.571221 0.0969711 0.0764019
0.648325 0.103502 0.0827344
0.731029 0.113466 0.0921492
0.811734 0.124163 0.0981155
0.887526 0.138933 0.109483
0.955474 0.151492 0.116976
1 0.164355 0.127733
1 0.176654 0.138399
1 0.188647 0.147585
1 0.2 0.155703
1 0.210864 0.164385
0.00419623 0.054902 0.0487373
0.00457771 0.0547646 0.0484932
0.00494392 0.055024 0.0481575
0.0053254 0.0548409 0.0478981
0.00584421 0.0552834 0.0474403
0.00656138 0.054963 0.0475929
0.0081178 0.0553292 0.0480507
0.0101778 0.0556802 0.0487068
0.0151522 0.0558022 0.049012
0.0263981 0.0563973 0.049134
0.0372015 0.0574502 0.0494698
0.0602426 0.057969 0.0502022
0.0824903 0.0584421 0.0513313
0.1075 0.0601816 0.0535744
0.140154 0.0630503 0.0552834
0.173373 0.0651102 0.05832
0.208911 0.0674601 0.0599222
0.251408 0.0686809 0.0614176
0.300954 0.0728161 0.0607767
0.357107 0.0775006 0.0613718
0.422461 0.0842298 0.0635996
0.494301 0.0894636 0.0698405
0.571344 0.0981918 0.0757305
0.648722 0.104692 0.0823682
0.731594 0.115236 0.0918898
0.81178 0.125399 0.0975204
0.887602 0.140139 0.109331
0.955016 0.152728 0.116655
1 0.165576 0.127611
1 0.17792 0.138323
1 0.189792 0.147616
1 0.200916 0.155428
1 0.211749 0.164233
0.00364691 0.0638743 0.0471809
0.00401312 0.0636912 0.0471199
0.0043183 0.0636759 0.0469825
0.00466926 0.0635538 0.0468757
0.00509651 0.0632944 0.0467536
0.00564584 0.0635538 0.0466621
0.00708019 0.0637217 0.0475471
0.00915541 0.0644236 0.0486152
0.0128023 0.065156 0.049485
0.0244144 0.0656291 0.0487984
0.034699 0.0665599 0.0500801
0.0587778 0.0661173 0.0501411
0.0852674 0.0643931 0.0493477
0.110872 0.0654459 0.0518502
0.142153 0.0679637 0.0547189
0.176654 0.0696117 0.0579995
0.212055 0.0709392 0.059144
0.255344 0.071458 0.0610056
0.304784 0.0754101 0.0604105
0.359838 0.0793317 0.0610666
0.423514 0.0850233 0.0632029
0.495155 0.0907301 0.0692912
0.571603 0.0994278 0.0750134
0.649531 0.106188 0.0816663
0.73196 0.116991 0.0912337
0.812222 0.127077 0.0970474
0.887495 0.141894 0.108782
0.954513 0.154314 0.116228
1 0.166812 0.127611
1 0.179355 0.138369
1 0.191257 0.147646
1 0.202029 0.155154
1 0.212955 0.16408
0.00267033 0.0766613 0.047013
0.00294499 0.0766613 0.0469368
0.00328069 0.0759594 0.047013
0.00354009 0.076051 0.047013
0.00384527 0.0764172 0.046952
0.00427253 0.0763409 0.046952
0.00595102 0.0762493 0.0475929
0.00813306 0.0758984 0.0484932
0.010544 0.0759442 0.0495918
0.020798 0.0758068 0.0492714
0.0321965 0.0769207 0.0497749
0.054078 0.0765698 0.049485
0.0830243 0.0743725 0.0486458
0.116472 0.0727092 0.0492866
0.148287 0.0748302 0.053193
0.180591 0.0759747 0.0560464
0.216739 0.0770581 0.0578775
0.259449 0.0765545 0.060441
0.308125 0.0785992 0.0589151
0.363378 0.0817731 0.0607004
0.425406 0.086305 0.0627298
0.496834 0.0929885 0.0683604
0.572259 0.101076 0.0740063
0.65005 0.107988 0.0806744
0.731502 0.11841 0.0897231
0.812985 0.129183 0.096437
0.887343 0.143786 0.107942
0.954055 0.156161 0.115694
1 0.168261 0.127077
1 0.181094 0.138293
1 0.192721 0.148013
1 0.203372 0.154818
1 0.21413 0.163745
0.00140383 0.0920577 0.0464179
0.00161746 0.0922103 0.0463569
0.00181582 0.0923018 0.0462959
0.00204471 0.092256 0.0462348
0.00218204 0.0925307 0.0461128
0.002533 0.0923476 0.0460517
0.00384527 0.092256 0.0459449
0.00596628 0.0916762 0.0461738
0.00840772 0.090959 0.0465858
0.0148775 0.0910811 0.0471351
0.0264897 0.0911421 0.0478828
0.0468757 0.091249 0.0477913
0.0742504 0.0898146 0.0475319
0.114885 0.0854353 0.0467384
0.154559 0.0841382 0.0479286
0.18851 0.0848707 0.0506294
0.223575 0.0855726 0.0533608
0.26685 0.0871443 0.0569314
0.314015 0.0856794 0.0565042
0.369223 0.0873579 0.05832
0.42945 0.0898909 0.061799
0.499245 0.0957656 0.0662852
0.572564 0.102953 0.0725872
0.650828 0.109926 0.0792706
0.731243 0.12015 0.0881361
0.813703 0.13135 0.0959029
0.887236 0.145983 0.106935
0.953185 0.157916 0.114824
1 0.170077 0.126772
1 0.183062 0.138293
1 0.194553 0.148013
1 0.204791 0.154467
1 0.215625 0.163455
0 0.107973 0.0442512
0 0.10753 0.0443275
0 0.108125 0.0440528
9.15541e-05 0.108141 0.044007
0.000259403 0.108263 0.0439002
0.000442512 0.108568 0.0437476
0.00134279 0.108659 0.0432898
0.00317388 0.108568 0.0427558
0.00538643 0.108186 0.0423896
0.00868238 0.107805 0.0424353
0.0149233 0.107713 0.0446021
0.0347906 0.107332 0.0439002
0.0663767 0.105608 0.0449073
0.104097 0.101915 0.0459602
0.154864 0.0965438 0.0418097
0.196475 0.0935683 0.0437781
0.231739 0.0941482 0.0466468
0.275288 0.09691 0.0512093
0.318257 0.0944076 0.0533608
0.374334 0.0943008 0.0551003
0.435096 0.0952621 0.0593271
0.50193 0.099382 0.0641794
0.573892 0.106264 0.0705425
0.651347 0.112749 0.0768597
0.73196 0.122988 0.0859083
0.81416 0.133806 0.0949416
0.886564 0.147845 0.105837
0.952972 0.159731 0.114443
1 0.171969 0.126421
1 0.185031 0.138338
1 0.196246 0.147463
1 0.2065 0.154055
1 0.217212 0.163149
0 0.123995 0.0406958
0 0.12398 0.04065
0 0.124208 0.0404974
0 0.124437 0.0402686
0 0.124056 0.0403754
0 0.124544 0.0399939
0 0.124361 0.0395514
0.000228885 0.125002 0.0383307
0.00204471 0.126207 0.0372625
0.00428779 0.127535 0.0362707
0.00875868 0.127886 0.0379034
0.0210269 0.126802 0.0380255
0.0500191 0.125734 0.038056
0.0921492 0.121843 0.0423133
0.139635 0.116701 0.0404517
0.195544 0.108186 0.0368353
0.237842 0.105272 0.036347
0.281956 0.10547 0.0411231
0.326802 0.105501 0.0449683
0.379965 0.108919 0.047303
0.441321 0.108965 0.0533455
0.508156 0.109468 0.0596933
0.576959 0.11313 0.0668193
0.65066 0.116655 0.0739452
0.732097 0.125902 0.0838026
0.813855 0.136019 0.0935225
0.885679 0.149859 0.104555
0.95198 0.161913 0.11342
1 0.174105 0.125826
1 0.187213 0.138399
1 0.198169 0.146822
1 0.208194 0.153613
1 0.218967 0.163073
0 0.142962 0.0337224
0 0.142916 0.0336309
0 0.143313 0.0336004
0 0.143145 0.0335851
0 0.143297 0.0335088
0 0.143328 0.033463
0 0.143679 0.0330053
0 0.144183 0.0323796
0 0.145525 0.0314641
4.57771e-05 0.147784 0.0303502
0.00309758 0.151415 0.0292821
0.00766003 0.150759 0.0310063
0.0262303 0.1505 0.0301213
0.0723583 0.14725 0.0322118
0.126558 0.138491 0.0380713
0.183597 0.134066 0.0302586
0.238178 0.123842 0.0283818
0.289967 0.120195 0.0275578
0.338735 0.118776 0.033463
0.390509 0.121965 0.0369116
0.448722 0.122835 0.0473945
0.514458 0.123827 0.0512398
0.581445 0.124651 0.0593118
0.65156 0.125734 0.0696117
0.73312 0.133089 0.0786297
0.811933 0.141649 0.0902571
0.885252 0.153674 0.102861
0.950942 0.164401 0.112169
1 0.176379 0.124819
1 0.18941 0.137865
1 0.200153 0.145907
1 0.210147 0.152956
1 0.220935 0.162707
0 0.163577 0.0280308
0 0.163684 0.0279393
0 0.163806 0.027924
0 0.163561 0.027924
0 0.163836 0.0277714
0 0.163851 0.0277256
0 0.164126 0.0272068
0 0.164309 0.0268254
0 0.16524 0.0266728
0 0.166857 0.026215
0 0.169955 0.0253147
0.000991836 0.173709 0.024094
0.00849927 0.175219 0.0239109
0.0332647 0.174075 0.0232395
0.107424 0.165011 0.0286259
0.162158 0.157992 0.0322881
0.223865 0.151308 0.0200351
0.287205 0.139742 0.0192721
0.34081 0.13489 0.0178683
0.397269 0.1355 0.024155
0.456641 0.138186 0.0319982
0.518914 0.142123 0.0406653
0.586816 0.144671 0.0501259
0.656016 0.144869 0.0610056
0.733577 0.145022 0.0712139
0.810544 0.149523 0.086183
0.883543 0.156939 0.100206
0.949859 0.167605 0.110613
1 0.179049 0.123369
1 0.191989 0.137133
1 0.20235 0.144976
1 0.212146 0.152636
1 0.223178 0.162356
0 0.183886 0.0207675
0 0.183764 0.0208591
0 0.183993 0.0207065
0 0.184253 0.0205997
0 0.184451 0.0204776
0 0.184405 0.0204929
0 0.184054 0.0201419
0 0.1841 0.0194247
0 0.184649 0.0187228
0 0.186664 0.0184176
0 0.188876 0.0173953
0 0.193759 0.0163882
0 0.197787 0.0156405
0.00909438 0.200397 0.014435
0.0691844 0.19501 0.0172427
0.143084 0.183902 0.0251926
0.204959 0.181018 0.0203403
0.276097 0.169009 0.0121157
0.338689 0.157244 0.0108949
0.401602 0.153872 0.0117647
0.463859 0.152392 0.0194705
0.52462 0.157504 0.0291752
0.588388 0.161776 0.0392767
0.658213 0.164569 0.0510719
0.734005 0.163333 0.062501
0.811429 0.165637 0.0791791
0.881346 0.169299 0.0923018
0.950484 0.176074 0.105608
1 0.183093 0.120775
1 0.194522 0.135943
1 0.204685 0.144121
1 0.214572 0.152026
1 0.225223 0.161639
0 0.206348 0.0149081
0 0.206531 0.0148775
0 0.206882 0.0148775
0 0.206714 0.0149081
0 0.206714 0.0149081
0 0.206699 0.0149081
0 0.206088 0.0148928
0 0.205371 0.0148165
0 0.206683 0.0142672
0 0.209445 0.0138552
0 0.21265 0.0132601
0 0.216831 0.0122225
0 0.221347 0.0107424
0 0.227283 0.00793469
0.0182498 0.226871 0.00704967
0.0960403 0.220249 0.0117494
0.173404 0.205905 0.0196078
0.249516 0.206806 0.00865187
0.320012 0.190784 0.00590524
0.390234 0.178973 0.00450141
0.460945 0.175677 0.00575265
0.526711 0.176959 0.0155795
0.588739 0.180957 0.0272374
0.661097 0.187533 0.0417945
0.734401 0.188937 0.0527199
0.810956 0.187549 0.0672923
0.88043 0.18674 0.0820325
0.9514 0.185168 0.0994583
1 0.190112 0.116915
1 0.19881 0.131899
1 0.209751 0.141711
1 0.217914 0.150958
1 0.227634 0.161074
0 0.234272 0.00972
0 0.23444 0.00972
0 0.234607 0.00972
0 0.234607 0.00972
0 0.234607 0.00973526
0 0.234775 0.00975052
0 0.23505 0.00946059
0 0.235538 0.00907912
0 0.235828 0.00863661
0 0.237324 0.00759899
0 0.23827 0.00645457
0 0.239948 0.00531014
0 0.243336 0.00337224
0 0.248386 0.00157168
0 0.255299 0
0.0338903 0.257389 0.000167849
0.132326 0.240696 0.00648508
0.216861 0.230426 0.011841
0.295933 0.231189 0
0.372122 0.212055 0.000732433
0.450111 0.202564 0.000579843
0.523949 0.199573 0.00392157
0.589822 0.201572 0.0135042
0.663462 0.208179 0.0273442
0.733654 0.212879 0.0417945
0.807858 0.218311 0.0519875
0.878431 0.216022 0.0691539
0.950713 0.211933 0.0867628
1 0.208194 0.107118
1 0.206592 0.125048
1 0.214374 0.138308
1 0.221408 0.149874
1 0.230732 0.15964
0 0.262226 0.00584421
0 0.262379 0.00587472
0 0.262562 0.00588998
0 0.262379 0.00588998
0 0.262562 0.00588998
0 0.262318 0.0059205
0 0.262989 0.00584421
0 0.263783 0.00563058
0 0.264347 0.00540169
0 0.26566 0.00471504
0 0.266316 0.00424201
0 0.268894 0.00300603
0 0.273106 0.00143435
0 0.278691 0
0 0.283131 0
0 0.28896 0
0.0643626 0.287556 0
0.167239 0.269734 0.00274662
0.258869 0.262943 0.00216678
0.345113 0.263096 0
0.426596 0.242344 0
0.509758 0.230701 0
0.587091 0.228855 0.000762951
0.663264 0.232685 0.010605
0.737469 0.238483 0.0233158
0.805844 0.245289 0.0387274
0.875349 0.251637 0.0497292
0.949416 0.245884 0.0717479
1 0.236194 0.0931106
1 0.227588 0.113878
1 0.228824 0.129244
1 0.232746 0.143893
1 0.235111 0.156008
0 0.296254 0.00207523
0 0.295811 0.00218204
0 0.296483 0.00204471
0 0.296254 0.00210575
0 0.296254 0.00210575
0 0.296254 0.002121
0 0.296712 0.00195315
0 0.297383 0.00164797
0 0.298436 0.00106813
0 0.299397 0.000610361
0 0.300298 0.000122072
0 0.301747 0
0 0.306127 0
0 0.312657 0
0 0.319936 0
0 0.32488 0
0.00607309 0.325475 0
0.0912947 0.319768 0
0.200504 0.305287 0
0.307164 0.302571 0
0.399847 0.301579 0
0.48719 0.277546 0
0.571679 0.267765 0
0.659907 0.263539 0
0.73756 0.265766 0.00556954
0.808118 0.274998 0.0151064
0.876585 0.282872 0.0340124
0.945266 0.285023 0.0542153
1 0.276524 0.0746014
1 0.265644 0.0956588
1 0.252537 0.117296
1 0.243183 0.135622
1 0.245716 0.14934
0 0.329046 0.000808728
0 0.328984 0.000900282
0 0.328984 0.000900282
0 0.328771 0.000885023
0 0.328984 0.000900282
0 0.329198 0.000961318
0 0.329137 0.000900282
0 0.329122 0.000839246
0 0.329854 0.000839246
0 0.330068 0.000885023
0 0.330495 0.000839246
0 0.331365 0.000503548
0 0.337499 0
0 0.345464 0
0 0.352911 0
0 0.357458 0
0 0.361105 0
0.0236667 0.361685 0
0.126284 0.353155 0
0.244785 0.336202 0
0.364294 0.341192 0
0.459632 0.342718 0
0.553491 0.317739 0
0.644831 0.305562 0
0.733303 0.30219 0
0.807034 0.307332 0
0.875563 0.312978 0.0120699
0.946441 0.317968 0.0344091
1 0.319265 0.0543984
1 0.314519 0.0773022
1 0.294484 0.103792
1 0.282963 0.124224
1 0.276661 0.136431
0 0.36939 0
0 0.369329 0
0 0.369329 0
0 0.369055 0
0 0.369329 0
0 0.369543 0
0 0.369543 0
0 0.369497 0
0 0.369482 0
0 0.36965 0
0 0.369574 0
0 0.369741 0
0 0.373663 0
0 0.381796 0
0 0.391745 0
0 0.399435 0
0 0.402487 0
0.0219425 0.403815 0
0.0728923 0.402426 0
0.173892 0.390829 0
0.290974 0.37789 0
0.42153 0.387717 0
0.519966 0.390875 0
0.618967 0.361212 0
0.712184 0.350774 0
0.798779 0.346441 0
0.875593 0.350958 0
0.953109 0.353429 0.00932326
1 0.358755 0.0346227
1 0.359304 0.058793
1 0.352163 0.08336
1 0.333257 0.103456
1 0.317937 0.123247
0 0.415854 0
0 0.415793 0
0 0.416068 0
0 0.415793 0
0 0.415793 0
0 0.415793 0
0 0.415793 0
0 0.415656 0
0 0.415885 0
0 0.415793 0
0 0.415747 0
0 0.41593 0
0 0.419989 0
0 0.425696 0
0 0.430961 0
0 0.437659 0
0.0059205 0.445319 0
0.0341039 0.449592 0
0.0579843 0.449577 0
0.105165 0.444541 0
0.218601 0.431846 0
0.345129 0.425834 0
0.480995 0.439857 0
0.583703 0.444633 0
0.682139 0.414191 0
0.776486 0.403998 0
0.872816 0.39939 0
0.951873 0.399451 0
1 0.401465 0.0115511
1 0.403525 0.0342107
1 0.400275 0.0622568
1 0.395499 0.0884718
1 0.379919 0.105882
0 0.470207 0
0 0.470054 0
0 0.470451 0
0 0.470054 0
0 0.470054 0
0 0.470054 0
0 0.470054 0
0 0.469963 0
0 0.470237 0
0 0.470237 0
0 0.470069 0
0 0.469886 0
0 0.470863 0
0 0.471839 0
0 0.472877 0
0 0.480186 0
0.0117647 0.486412 0
0.0467536 0.48957 0
0.0727398 0.490486 0
0.0968948 0.489662 0
0.155428 0.486473 0
0.275212 0.473579 0
0.40531 0.473579 0
0.549004 0.49308 0
0.648661 0.504311 0
0.750881 0.476631 0
0.844739 0.460548 0
0.939223 0.451423 0
1 0.449348 0
1 0.449302 0.0142061
1 0.44448 0.0407874
1 0.444373 0.0606088
1 0.435492 0.087541
0 0.51899 0
0 0.51899 0
0 0.518929 0
0 0.518929 0
0 0.519173 0
0 0.519097 0
0 0.518853 0
0 0.519265 0
0 0.519036 0
0 0.519249 0
0 0.519142 0
0 0.518914 0
0 0.5196 0
0 0.519341 0
0 0.519341 0
0 0.521996 0
0.00972 0.525979 0
0.0466468 0.530831 0
0.0839399 0.533669 0
0.112261 0.534966 0
0.141558 0.530495 0
0.210697 0.526162 0
0.328923 0.51841 0.00184634
0.47396 0.528832 0
0.613504 0.552239 0
0.716075 0.567315 0
0.821881 0.535698 0
0.910857 0.519661 0
0.996811 0.510414 0
1 0.49865 0.00129702
1 0.497124 0.019501
1 0.493523 0.0385901
1 0.484489 0.0597391
0 0.557778 0
0 0.558099 0
0 0.558038 0
0 0.558038 0
0 0.557717 0
0 0.558267 0
0 0.557977 0
0 0.558206 0
0 0.557778 0
0 0.557473 0
0 0.557671 0
0 0.557961 0
0 0.558068 0
0 0.55761 0
0 0.558129 0
0 0.559686 0
0 0.561181 0
0.0218509 0.566384 0
0.0792096 0.572717 0.00263981
0.114046 0.576455 0.000259403
0.137514 0.578424 0
0.161593 0.576562 0
0.247623 0.571908 0.00239567
0.399145 0.565621 0.0137484
0.538933 0.587167 0
0.679011 0.613397 0
0.777462 0.631891 0
0.885283 0.600992 0
0.972427 0.579522 0
1 0.563272 0
1 0.549462 0.00650034
1 0.546746 0.0216373
1 0.535515 0.0395056
0.000686656 0.601862 0.00982681
0.000488289 0.601862 0.00985733
0.000381476 0.60206 0.00993362
0.000381476 0.60206 0.00993362
0.000320439 0.601846 0.00993362
0.00015259 0.601846 0.00996414
0.000198367 0.602045 0.0100099
0 0.601816 0.0100557
0 0.601785 0.010132
