Lumix LUTs/LudemanMidSat709.cube
TITLE "Generated by Resolve"
LUT_3D_SIZE 5
0.00544747 0.0355383 0.0422217
0.017792 0.0375982 0.0453498
0.199298 0.0559243 0.0572824
0.727504 0.105989 0.0923781
1 0.206989 0.164248
0.00419623 0.054902 0.0487373
0.0151522 0.0558022 0.049012
0.208911 0.0674601 0.0599222
0.731594 0.115236 0.0918898
1 0.211749 0.164233
0 0.183886 0.0207675
0 0.184649 0.0187228
0.204959 0.181018 0.0203403
0.734005 0.163333 0.062501
1 0.225223 0.161639
0 0.470207 0
0 0.470237 0
0.0117647 0.486412 0
0.648661 0.504311 0
1 0.435492 0.087541
0.0776837 0.82945 0.0245518
0.0771496 0.829297 0.0248112
0.0754406 0.829847 0.0251316
0.229572 0.858 0.0357671
1 0.953872 0.0528725
0.00515755 0.0355993 0.0508736
0.0163882 0.0375525 0.0546273
0.20267 0.0541085 0.0681621
0.727596 0.104036 0.105165
1 0.203891 0.168231
0.00407416 0.0521096 0.0590677
0.0133364 0.0521096 0.0597543
0.206439 0.0692302 0.0716564
0.723949 0.109499 0.103807
1 0.208972 0.168261
0 0.185229 0.036347
0 0.184405 0.0354314
0.2009 0.18114 0.0357671
0.721477 0.164996 0.0761273
1 0.223575 0.168841
0 0.460105 0.00570687
0 0.46038 0.00593576
0 0.484688 0
0.645685 0.50486 0
1 0.442252 0.0892653
0.062501 0.827802 0.0294041
0.0621805 0.827863 0.0294194
0.0606546 0.827909 0.0297704
0.222354 0.859098 0.0410925
1 0.954238 0.0588235
0.00178531 0.0412451 0.0917372
0.0100404 0.0444953 0.0975662
0.240879 0.0700847 0.139315
0.756939 0.123919 0.177127
1 0.200366 0.199741
0.00115969 0.0556497 0.104891
0.00823987 0.0598306 0.111315
0.240055 0.0767529 0.144106
0.755383 0.127626 0.176577
1 0.202976 0.198993
0 0.18146 0.163989
0 0.180667 0.164584
0.152865 0.186969 0.175769
0.735363 0.160281 0.170871
1 0.210575 0.197024
0 0.430198 0.076173
0 0.430442 0.0766766
0 0.449058 0.0625467
0.638956 0.50927 0
1 0.451362 0.123217
0.0246433 0.818524 0.0581826
0.0242924 0.818769 0.0583047
0.0229343 0.818433 0.059556
0.188876 0.849729 0.0562295
1 0.953765 0.0804608
0.00215152 0.118502 0.28571
0.0049897 0.120089 0.291768
0.153414 0.135943 0.352926
0.813321 0.208591 0.386389
1 0.255619 0.379126
0.00129702 0.1243 0.293034
0.00358587 0.126604 0.298619
0.136873 0.14255 0.356786
0.810346 0.21268 0.387243
1 0.257847 0.380346
0 0.162325 0.337667
0 0.16347 0.33991
0.0193942 0.176715 0.380148
0.793744 0.22179 0.389593
1 0.265568 0.384421
0 0.473442 0.445991
0 0.473716 0.446143
0 0.479484 0.449058
0.52134 0.517281 0.449271
1 0.407401 0.40737
0 0.806027 0.372747
0 0.806332 0.372992
0 0.806607 0.37406
0 0.823957 0.361776
1 0.946136 0.299214
0 0.282704 0.73753
0 0.285573 0.743114
0 0.292699 0.760021
0.700175 0.326787 0.753521
1 0.384207 0.773404
0 0.284672 0.738888
0 0.287694 0.745602
0 0.294011 0.762219
0.695933 0.326665 0.754986
1 0.385626 0.77435
0 0.290333 0.7402
0 0.293126 0.748425
0 0.298711 0.768917
0.676951 0.318471 0.768872
1 0.390814 0.776822
0 0.476661 0.772808
0 0.477043 0.772976
0 0.482353 0.786343
0.305516 0.513588 0.904524
1 0.453437 0.798047
0 0.843061 0.880812
0 0.842878 0.880995
0 0.843076 0.880964
0 0.853681 0.888472
0.947723 0.919387 0.868727
