LUMIX SD Backup/BaseLUTs - Panasonic V-Log.cube
TITLE "BaseLUTs - Panasonic V-Log Conversion LUT by Gamut"
# Designed for converting V-Gamut / V-Log to Rec709 Color Space. Version 1.3 - 06/23/2022 -  Copyright 2022 Gamut, LLC
LUT_3D_SIZE 33
0.0000000000 0.0000000000 0.0000000000
0.0000000000 0.0000000000 0.0000000000
0.0000000000 0.0000000000 0.0000000000
0.0068010000 0.0000000000 0.0000000000
0.0243470000 0.0000000000 0.0014780000
0.0481920000 0.0000000000 0.0030310000
0.0758690000 0.0000000000 0.0060130000
0.1057760000 0.0000000000 0.0091180000
0.1414190000 0.0007890000 0.0130120000
0.1778410000 0.0007890000 0.0169050000
0.2195090000 0.0007890000 0.0207990000
0.2720740000 0.0007890000 0.0252100000
0.3322150000 0.0000000000 0.0293750000
0.3931090000 0.0000000000 0.0329480000
0.4592060000 0.0000000000 0.0377040000
0.5331980000 0.0004190000 0.0473750000
0.6115260000 0.0023650000 0.0635280000
0.6948530000 0.0058900000 0.0820650000
0.7771230000 0.0048300000 0.0955130000
0.8599910000 0.0017250000 0.1041720000
0.9315380000 0.0000000000 0.1109150000
0.9755710000 0.0000000000 0.1175430000
0.9940020000 0.0000000000 0.1236150000
0.9988640000 0.0000000000 0.1284150000
0.9995370000 0.0000000000 0.1318770000
0.9995650000 0.0000000000 0.1343340000
0.9995440000 0.0000000000 0.1350930000
0.9995440000 0.0000000000 0.1353890000
0.9995440000 0.0000000000 0.1353890000
0.9995440000 0.0000000000 0.1353890000
0.9995440000 0.0000000000 0.1353890000
0.9995440000 0.0000000000 0.1353890000
0.9995440000 0.0000000000 0.1353890000
0.0000000000 0.0000000000 0.0000000000
0.0000000000 0.0000000000 0.0000000000
0.0000000000 0.0000000000 0.0000000000
0.0036970000 0.0000000000 0.0000000000
0.0141200000 0.0000000000 0.0006900000
0.0380980000 0.0000000000 0.0022670000
0.0638330000 0.0000000000 0.0044600000
0.0953900000 0.0000000000 0.0075660000
0.1326090000 0.0005920000 0.0120500000
0.1693600000 0.0007890000 0.0159190000
0.2129280000 0.0007890000 0.0200100000
0.2692000000 0.0007890000 0.0252100000
0.3375340000 0.0000000000 0.0298670000
0.4096520000 0.0000000000 0.0342050000
0.4867050000 0.0000000000 0.0411920000
0.5676850000 0.0011830000 0.0540140000
0.6528500000 0.0039180000 0.0723460000
0.7405050000 0.0055200000 0.0891810000
0.8269790000 0.0028590000 0.1005060000
0.9064860000 0.0008140000 0.1081970000
0.9612650000 0.0000000000 0.1151800000
0.9881580000 0.0000000000 0.1212550000
0.9971250000 0.0000000000 0.1261430000
0.9993020000 0.0000000000 0.1298450000
0.9996140000 0.0000000000 0.1329140000
0.9995650000 0.0000000000 0.1345570000
0.9995440000 0.0000000000 0.1350930000
0.9995440000 0.0000000000 0.1353890000
0.9995440000 0.0000000000 0.1353890000
0.9995440000 0.0000000000 0.1353890000
0.9995440000 0.0000000000 0.1353890000
0.9995440000 0.0000000000 0.1353890000
0.9995440000 0.0000000000 0.1353890000
0.0000000000 0.0000000000 0.0000000000
0.0000000000 0.0000000000 0.0000000000
0.0000000000 0.0000000000 0.0000000000
0.0000000000 0.0000000000 0.0000000000
0.0067030000 0.0000000000 0.0000000000
0.0276980000 0.0000000000 0.0015030000
0.0560020000 0.0000000000 0.0037950000
0.0907800000 0.0000000000 0.0075410000
0.1291660000 0.0005920000 0.0120250000
0.1731770000 0.0007890000 0.0166840000
0.2256260000 0.0007890000 0.0212910000
0.2920130000 0.0002710000 0.0267370000
0.3659650000 0.0000000000 0.0313950000
0.4435840000 0.0000000000 0.0364720000
0.5277560000 0.0004440000 0.0463960000
0.6153570000 0.0023660000 0.0643770000
0.7052250000 0.0058650000 0.0833460000
0.7921690000 0.0040410000 0.0964900000
0.8744090000 0.0012820000 0.1049250000
0.9390940000 0.0004680000 0.1116140000
0.9773670000 0.0000000000 0.1181130000
0.9938590000 0.0000000000 0.1234250000
0.9986620000 0.0000000000 0.1274120000
0.9994520000 0.0000000000 0.1306040000
0.9996170000 0.0000000000 0.1332140000
0.9995650000 0.0000000000 0.1346310000
0.9995440000 0.0000000000 0.1350930000
0.9995440000 0.0000000000 0.1353890000
0.9995440000 0.0000000000 0.1353890000
0.9995440000 0.0000000000 0.1353890000
0.9995440000 0.0000000000 0.1353890000
0.9995440000 0.0000000000 0.1353890000
0.9995440000 0.0000000000 0.1353890000
0.0000000000 0.0000000000 0.0000000000
0.0000000000 0.0000000000 0.0000000000
0.0000000000 0.0000000000 0.0000000000
0.0000000000 0.0000000000 0.0000000000
0.0027600000 0.0000000000 0.0000000000
0.0233860000 0.0000000000 0.0007400000
0.0581970000 0.0000000000 0.0043610000
0.0955740000 0.0000000000 0.0081570000
0.1410950000 0.0000000000 0.0134060000
0.1911210000 0.0007150000 0.0181870000
0.2513920000 0.0007890000 0.0235590000
0.3267300000 0.0001970000 0.0290790000
0.4070860000 0.0000000000 0.0337360000
0.4921310000 0.0000000000 0.0416040000
0.5785550000 0.0016020000 0.0565730000
0.6642870000 0.0054210000 0.0757830000
0.7458060000 0.0059140000 0.0907200000
0.8246910000 0.0032040000 0.1005840000
0.8984250000 0.0008630000 0.1070500000
0.9529870000 0.0000000000 0.1131060000
0.9836950000 0.0000000000 0.1190500000
0.9959140000 0.0000000000 0.1239910000
0.9990710000 0.0000000000 0.1277640000
0.9995560000 0.0000000000 0.1307080000
0.9996110000 0.0000000000 0.1332330000
0.9995650000 0.0000000000 0.1346310000
0.9995440000 0.0000000000 0.1350930000
0.9995440000 0.0000000000 0.1353890000
0.9995440000 0.0000000000 0.1353890000
0.9995440000 0.0000000000 0.1353890000
0.9995440000 0.0000000000 0.1353890000
0.9995440000 0.0000000000 0.1353890000
0.9995440000 0.0000000000 0.1353890000
0.0000000000 0.0027600000 0.0006900000
0.0000000000 0.0027600000 0.0006900000
0.0000000000 0.0027600000 0.0006900000
0.0013800000 0.0027600000 0.0000000000
0.0055200000 0.0041400000 0.0013800000
0.0288820000 0.0048300000 0.0014540000
0.0635560000 0.0034990000 0.0050760000
0.1093290000 0.0021440000 0.0096350000
0.1617550000 0.0020700000 0.0148840000
0.2211070000 0.0027600000 0.0203060000
0.2908980000 0.0035490000 0.0258750000
0.3694030000 0.0030310000 0.0306310000
0.4467980000 0.0015770000 0.0357820000
0.5267670000 0.0013800000 0.0461670000
0.6047610000 0.0038440000 0.0620550000
0.6835220000 0.0073190000 0.0793850000
0.7600560000 0.0069990000 0.0930780000
0.8350210000 0.0035240000 0.1015510000
0.9052890000 0.0011340000 0.1074940000
0.9567110000 0.0000000000 0.1133500000
0.9852760000 0.0000000000 0.1191230000
0.9962800000 0.0000000000 0.1240210000
0.9990840000 0.0000000000 0.1276670000
0.9995560000 0.0000000000 0.1307080000
0.9996170000 0.0000000000 0.1332330000
0.9995650000 0.0000000000 0.1346310000
0.9995440000 0.0000000000 0.1350930000
0.9995440000 0.0000000000 0.1353890000
0.9995440000 0.0000000000 0.1353890000
0.9995440000 0.0000000000 0.1353890000
0.9995440000 0.0000000000 0.1353890000
0.9995440000 0.0000000000 0.1353890000
0.9995440000 0.0000000000 0.1353890000
0.0000000000 0.0244710000 0.0086000000
0.0000000000 0.0274520000 0.0093640000
0.0000000000 0.0302860000 0.0107940000
0.0000490000 0.0331200000 0.0115080000
0.0049290000 0.0367920000 0.0074670000
0.0403330000 0.0384380000 0.0009120000
0.0759270000 0.0336370000 0.0057170000
0.1219740000 0.0306310000 0.0099060000
0.1759790000 0.0283640000 0.0157710000
0.2369580000 0.0277230000 0.0198380000
0.3032830000 0.0252100000 0.0239530000
0.3749930000 0.0192210000 0.0284870000
0.4511930000 0.0136030000 0.0347460000
0.5298180000 0.0109170000 0.0457570000
0.6066700000 0.0120750000 0.0615660000
0.6826970000 0.0142440000 0.0784550000
0.7569890000 0.0121250000 0.0919060000
0.8305660000 0.0071960000 0.1006850000
0.9007780000 0.0022180000 0.1067080000
0.9540120000 0.0007890000 0.1127020000
0.9841060000 0.0000000000 0.1186400000
0.9959190000 0.0000000000 0.1235370000
0.9990270000 0.0000000000 0.1273540000
0.9995630000 0.0000000000 0.1304500000
0.9996170000 0.0000000000 0.1329800000
0.9995650000 0.0000000000 0.1345660000
0.9995440000 0.0000000000 0.1350930000
0.9995440000 0.0000000000 0.1351850000
0.9995440000 0.0000000000 0.1353890000
0.9995440000 0.0000000000 0.1353890000
0.9995440000 0.0000000000 0.1353890000
0.9995440000 0.0000000000 0.1353890000
0.9995440000 0.0000000000 0.1353890000
0.0000000000 0.0658320000 0.0236080000
0.0000000000 0.0725680000 0.0258010000
0.0000000000 0.0780940000 0.0275010000
0.0000000000 0.0840790000 0.0277720000
0.0048300000 0.0920820000 0.0128140000
0.0377930000 0.0936820000 0.0019220000
0.0875060000 0.0853170000 0.0015770000
0.1306560000 0.0724470000 0.0068510000
0.1706330000 0.0657410000 0.0164620000
0.2196810000 0.0621450000 0.0228440000
0.2811050000 0.0579440000 0.0261710000
0.3522620000 0.0515760000 0.0297930000
0.4286710000 0.0424730000 0.0349440000
0.5074290000 0.0342790000 0.0444960000
0.5865770000 0.0300150000 0.0583870000
0.6649350000 0.0281420000 0.0751230000
0.7409650000 0.0243970000 0.0890190000
0.8163200000 0.0169540000 0.0984150000
0.8896610000 0.0087730000 0.1049340000
0.9472120000 0.0036470000 0.1108600000
0.9807620000 0.0017740000 0.1170370000
0.9948260000 0.0006410000 0.1223120000
0.9987950000 0.0006410000 0.1263120000
0.9995730000 0.0000000000 0.1298460000
0.9996170000 0.0000000000 0.1326890000
0.9996830000 0.0000000000 0.1342690000
0.9996280000 0.0000000000 0.1349090000
0.9995440000 0.0000000000 0.1350930000
0.9995440000 0.0000000000 0.1350930000
0.9995440000 0.0000000000 0.1351490000
0.9995440000 0.0000000000 0.1351480000
0.9995440000 0.0000000000 0.1351580000
0.9995440000 0.0000000000 0.1353890000
0.0000000000 0.1285150000 0.0428860000
0.0000000000 0.1370490000 0.0437730000
0.0000000000 0.1415370000 0.0446550000
0.0000000000 0.1433540000 0.0415450000
0.0015280000 0.1441990000 0.0245200000
0.0144410000 0.1446420000 0.0012320000
0.0675030000 0.1357800000 0.0000250000
0.1284600000 0.1215670000 0.0015770000
0.1756440000 0.1060060000 0.0085510000
0.2140380000 0.0995800000 0.0176690000
0.2596280000 0.0951770000 0.0266390000
0.3182200000 0.0886980000 0.0334400000
0.3906480000 0.0794100000 0.0380240000
0.4710640000 0.0698430000 0.0455070000
0.5540290000 0.0615320000 0.0573410000
0.6364060000 0.0557310000 0.0726420000
0.7162950000 0.0487300000 0.0864550000
0.7951020000 0.0376800000 0.0960320000
0.8723210000 0.0247910000 0.1026890000
0.9353970000 0.0143180000 0.1084430000
0.9744420000 0.0087730000 0.1146140000
0.9924620000 0.0051750000 0.1199570000
0.9982610000 0.0031790000 0.1244930000
0.9995100000 0.0017990000 0.1282220000
0.9996950000 0.0010350000 0.1313280000
0.9996630000 0.0006160000 0.1332710000
0.9996570000 0.0004680000 0.1340920000
0.9996280000 0.0000000000 0.1345660000
0.9995440000 0.0000000000 0.1348630000
0.9995440000 0.0000000000 0.1348630000
0.9995440000 0.0000000000 0.1348810000
0.9995440000 0.0000000000 0.1350930000
0.9995440000 0.0000000000 0.1350930000
0.0000000000 0.2032880000 0.0467090000
0.0000000000 0.2045100000 0.0468600000
0.0000000000 0.2047540000 0.0468820000
0.0000000000 0.2036950000 0.0433390000
0.0000990000 0.2015000000 0.0280930000
0.0038200000 0.1990340000 0.0017250000
0.0305630000 0.1888430000 0.0000000000
0.0972850000 0.1732580000 0.0000250000
0.1626150000 0.1565210000 0.0023660000
0.2114960000 0.1458190000 0.0085510000
0.2560490000 0.1377840000 0.0183840000
0.3058180000 0.1303790000 0.0303600000
0.3652010000 0.1232760000 0.0412340000
0.4365760000 0.1134120000 0.0493810000
0.5184230000 0.1038140000 0.0597160000
0.6037170000 0.0959440000 0.0727590000
0.6865740000 0.0869840000 0.0859200000
0.7676360000 0.0735890000 0.0951620000
0.8486150000 0.0569180000 0.1014960000
0.9181320000 0.0403880000 0.1064440000
0.9645530000 0.0285860000 0.1120300000
0.9883120000 0.0206020000 0.1173150000
0.9970490000 0.0147860000 0.1220170000
0.9992530000 0.0101770000 0.1258170000
0.9996710000 0.0069000000 0.1290470000
0.9997790000 0.0045590000 0.1313940000
0.9997220000 0.0025630000 0.1326890000
0.9996990000 0.0018480000 0.1332800000
0.9996650000 0.0011830000 0.1335700000
0.9995860000 0.0005920000 0.1340550000
0.9995970000 0.0005920000 0.1342780000
0.9995440000 0.0000000000 0.1345750000
0.9995440000 0.0000000000 0.1348720000
0.0000000000 0.2783830000 0.0283390000
0.0000000000 0.2775100000 0.0283390000
0.0000000000 0.2741530000 0.0296950000
0.0000000000 0.2695150000 0.0286840000
0.0000000000 0.2642280000 0.0197890000
0.0007640000 0.2600180000 0.0016020000
0.0095370000 0.2485890000 0.0000000000
0.0550300000 0.2325690000 0.0000000000
0.1305450000 0.2160190000 0.0000250000
0.1970490000 0.2030060000 0.0029320000
0.2538740000 0.1927830000 0.0099060000
0.3090530000 0.1816280000 0.0217600000
0.3643510000 0.1709850000 0.0362990000
0.4239360000 0.1621560000 0.0505390000
0.4953670000 0.1522160000 0.0630920000
0.5757710000 0.1426990000 0.0756250000
0.6577760000 0.1338290000 0.0880880000
0.7394640000 0.1216080000 0.0973240000
0.8221340000 0.1046520000 0.1032000000
0.8964400000 0.0853920000 0.1071130000
0.9503240000 0.0683980000 0.1113870000
0.9810710000 0.0552580000 0.1160600000
0.9942870000 0.0443000000 0.1204670000
0.9984030000 0.0342290000 0.1240830000
0.9993330000 0.0257760000 0.1270420000
0.9995820000 0.0188520000 0.1294250000
0.9996030000 0.0138250000 0.1306520000
0.9996270000 0.0102510000 0.1313670000
0.9996770000 0.0072450000 0.1317920000
0.9996550000 0.0051260000 0.1323590000
0.9996630000 0.0032280000 0.1326790000
0.9996610000 0.0019220000 0.1332710000
0.9995440000 0.0011330000 0.1335600000
0.0000000000 0.3516210000 0.0095610000
0.0000000000 0.3486610000 0.0103250000
0.0000000000 0.3448940000 0.0110890000
0.0000000000 0.3408440000 0.0104240000
0.0000000000 0.3356310000 0.0076390000
0.0001230000 0.3298650000 0.0014050000
0.0022180000 0.3183550000 0.0000000000
0.0214890000 0.3030210000 0.0000000000
0.0844550000 0.2858110000 0.0000000000
0.1617710000 0.2712260000 0.0005920000
0.2367430000 0.2583370000 0.0036960000
0.3060030000 0.2450310000 0.0127410000
0.3697630000 0.2302050000 0.0268610000
0.4287190000 0.2166880000 0.0439440000
0.4908540000 0.2058910000 0.0619670000
0.5616240000 0.1959180000 0.0785450000
0.6373230000 0.1867240000 0.0922070000
0.7157120000 0.1762650000 0.1021990000
0.7969130000 0.1621880000 0.1083230000
0.8732640000 0.1442450000 0.1117770000
0.9331100000 0.1260620000 0.1146520000
0.9708370000 0.1100230000 0.1182410000
0.9894850000 0.0953950000 0.1216260000
0.9963380000 0.0812550000 0.1247920000
0.9983160000 0.0672000000 0.1271190000
0.9988210000 0.0548430000 0.1288450000
0.9990590000 0.0444430000 0.1298770000
0.9992500000 0.0360170000 0.1302800000
0.9993810000 0.0276990000 0.1303760000
0.9994660000 0.0217110000 0.1307480000
0.9995540000 0.0158210000 0.1308900000
0.9996110000 0.0116310000 0.1314800000
0.9996160000 0.0074910000 0.1317830000
0.0000000000 0.4211700000 0.0016020000
0.0000000000 0.4194370000 0.0016020000
0.0000000000 0.4166900000 0.0016020000
0.0000000000 0.4135330000 0.0016020000
0.0000000000 0.4089670000 0.0009120000
0.0000000000 0.4024870000 0.0001230000
0.0007640000 0.3916230000 0.0000000000
0.0061360000 0.3773270000 0.0000000000
0.0394300000 0.3609470000 0.0000000000
0.1123060000 0.3457540000 0.0000000000
0.1984280000 0.3311820000 0.0008380000
0.2859380000 0.3156050000 0.0052490000
0.3637960000 0.2993660000 0.0158210000
0.4324060000 0.2817720000 0.0327010000
0.4969180000 0.2664430000 0.0537620000
0.5620400000 0.2545410000 0.0759340000
0.6305820000 0.2451770000 0.0949420000
0.7026980000 0.2364680000 0.1083590000
0.7789950000 0.2254660000 0.1164010000
0.8533310000 0.2104960000 0.1201290000
0.9158140000 0.1936040000 0.1223490000
0.9591710000 0.1774790000 0.1245940000
0.9833320000 0.1622040000 0.1272020000
0.9936470000 0.1466500000 0.1293640000
0.9969580000 0.1308610000 0.1310830000
0.9977620000 0.1150040000 0.1319390000
0.9980520000 0.0999590000 0.1322240000
0.9983030000 0.0858470000 0.1317340000
0.9984920000 0.0726800000 0.1312040000
0.9987110000 0.0603910000 0.1305470000
0.9989370000 0.0494910000 0.1304620000
0.9991570000 0.0385670000 0.1302700000
0.9993580000 0.0290040000 0.1302800000
0.0000000000 0.4911980000 0.0000000000
0.0000000000 0.4897220000 0.0000000000
0.0000000000 0.4876230000 0.0000000000
0.0000000000 0.4848550000 0.0000000000
0.0000000000 0.4807360000 0.0000000000
0.0000000000 0.4743200000 0.0000000000
0.0001480000 0.4640890000 0.0000000000
0.0022670000 0.4510870000 0.0000000000
0.0142930000 0.4362720000 0.0000000000
0.0611750000 0.4219280000 0.0000000000
0.1434730000 0.4065270000 0.0000490000
0.2450020000 0.3892000000 0.0016260000
0.3403670000 0.3720570000 0.0068020000
0.4224750000 0.3544320000 0.0198620000
0.4975730000 0.3351930000 0.0412140000
0.5674220000 0.3189880000 0.0665660000
0.6347550000 0.3079350000 0.0920020000
0.7025440000 0.3000750000 0.1114370000
0.7722400000 0.2914840000 0.1232980000
0.8414170000 0.2796230000 0.1294420000
0.9028350000 0.2651640000 0.1325300000
0.9490610000 0.2503810000 0.1346540000
0.9774840000 0.2360370000 0.1366790000
0.9911120000 0.2212730000 0.1382270000
0.9959850000 0.2057550000 0.1393990000
0.9971730000 0.1896900000 0.1396150000
0.9973830000 0.1733960000 0.1391550000
0.9974570000 0.1570370000 0.1377960000
0.9975580000 0.1408140000 0.1362970000
0.9977000000 0.1241870000 0.1345120000
0.9979110000 0.1077930000 0.1331520000
0.9981720000 0.0916360000 0.1320080000
0.9984730000 0.0758930000 0.1310420000
0.0000000000 0.5659480000 0.0000000000
0.0000000000 0.5644770000 0.0000000000
0.0000000000 0.5627070000 0.0000000000
0.0000000000 0.5600660000 0.0000000000
0.0000000000 0.5559980000 0.0000000000
0.0000000000 0.5500520000 0.0000000000
0.0000000000 0.5405190000 0.0000000000
0.0007640000 0.5277900000 0.0000000000
0.0054210000 0.5138320000 0.0000000000
0.0273740000 0.5000770000 0.0000000000
0.0879210000 0.4852510000 0.0000000000
0.1866550000 0.4674770000 0.0005180000
0.2977400000 0.4486190000 0.0024400000
0.3970470000 0.4303290000 0.0096100000
0.4850550000 0.4113530000 0.0264670000
0.5659750000 0.3919850000 0.0523080000
0.6400590000 0.3765020000 0.0819100000
0.7092900000 0.3659690000 0.1077620000
0.7755470000 0.3575280000 0.1253320000
0.8392250000 0.3479920000 0.1354410000
0.8969310000 0.3363210000 0.1409490000
0.9428320000 0.3236580000 0.1446930000
0.9731420000 0.3109210000 0.1474890000
0.9891880000 0.2978240000 0.1496430000
0.9955440000 0.2837730000 0.1507870000
0.9972360000 0.2687800000 0.1509860000
0.9974460000 0.2530150000 0.1502000000
0.9973920000 0.2367400000 0.1483820000
0.9973440000 0.2198810000 0.1460960000
0.9973660000 0.2022430000 0.1434960000
0.9973990000 0.1843090000 0.1412480000
0.9974420000 0.1652880000 0.1386840000
0.9975190000 0.1461380000 0.1366400000
0.0000000000 0.6466530000 0.0000000000
0.0000000000 0.6452920000 0.0000000000
0.0000000000 0.6433930000 0.0000000000
0.0000000000 0.6408420000 0.0000000000
0.0000000000 0.6371940000 0.0000000000
0.0000000000 0.6314470000 0.0000000000
0.0000000000 0.6225670000 0.0000000000
0.0000000000 0.6107180000 0.0000000000
0.0016760000 0.5977630000 0.0000000000
0.0114840000 0.5849460000 0.0000000000
0.0470920000 0.5705670000 0.0000000000
0.1250280000 0.5527620000 0.0000000000
0.2375130000 0.5327750000 0.0008380000
0.3532850000 0.5127270000 0.0037210000
0.4582060000 0.4931870000 0.0139480000
0.5522660000 0.4733590000 0.0345990000
0.6371460000 0.4542210000 0.0650040000
0.7135470000 0.4380500000 0.0962880000
0.7819820000 0.4253000000 0.1204090000
0.8434750000 0.4145320000 0.1349640000
0.8976260000 0.4041150000 0.1436080000
0.9410250000 0.3936490000 0.1494290000
0.9709270000 0.3830760000 0.1541730000
0.9877950000 0.3719140000 0.1580310000
0.9951600000 0.3597320000 0.1605900000
0.9974180000 0.3463400000 0.1619290000
0.9978190000 0.3320290000 0.1619410000
0.9977800000 0.3167600000 0.1606160000
0.9977140000 0.3007720000 0.1584070000
0.9976550000 0.2839270000 0.1557970000
0.9976020000 0.2661510000 0.1532250000
0.9975060000 0.2470830000 0.1502440000
0.9974120000 0.2274050000 0.1470810000
0.0000000000 0.7318110000 0.0000000000
0.0000000000 0.7305370000 0.0000000000
0.0000000000 0.7287870000 0.0000000000
0.0000000000 0.7263600000 0.0000000000
0.0000000000 0.7228410000 0.0000000000
0.0000000000 0.7174890000 0.0000000000
0.0000000000 0.7093430000 0.0000000000
0.0000000000 0.6982940000 0.0000000000
0.0005920000 0.6862010000 0.0000000000
0.0046570000 0.6742310000 0.0000000000
0.0231640000 0.6605800000 0.0000000000
0.0755840000 0.6432100000 0.0000000000
0.1711270000 0.6226860000 0.0000000000
0.2922850000 0.6011060000 0.0008880000
0.4142560000 0.5799890000 0.0057170000
0.5250720000 0.5594060000 0.0190250000
0.6221550000 0.5389190000 0.0443830000
0.7070700000 0.5184860000 0.0772410000
0.7811950000 0.4995580000 0.1074960000
0.8453670000 0.4831680000 0.1280710000
0.8993850000 0.4697970000 0.1401870000
0.9413810000 0.4589460000 0.1478640000
0.9701540000 0.4494920000 0.1538300000
0.9869000000 0.4401730000 0.1590200000
0.9947410000 0.4299870000 0.1631560000
0.9974010000 0.4186760000 0.1665040000
0.9979700000 0.4060940000 0.1684080000
0.9980570000 0.3925970000 0.1690020000
0.9980140000 0.3781560000 0.1681450000
0.9979880000 0.3627820000 0.1666970000
0.9979220000 0.3462150000 0.1647950000
0.9978950000 0.3285580000 0.1624140000
0.9977750000 0.3099770000 0.1597450000
0.0000000000 0.8141210000 0.0000000000
0.0000000000 0.8130640000 0.0000000000
0.0000000000 0.8116320000 0.0000000000
0.0000000000 0.8095340000 0.0000000000
0.0000000000 0.8066470000 0.0000000000
0.0000000000 0.8021550000 0.0000000000
0.0000000000 0.7950800000 0.0000000000
0.0000000000 0.7851900000 0.0000000000
0.0000000000 0.7739830000 0.0000000000
0.0017000000 0.7625600000 0.0000000000
0.0104480000 0.7493840000 0.0000000000
0.0415380000 0.7322680000 0.0000000000
0.1116530000 0.7115240000 0.0000000000
0.2219580000 0.6888250000 0.0000740000
0.3527450000 0.6659220000 0.0021190000
0.4814110000 0.6438250000 0.0096600000
0.5939400000 0.6228530000 0.0272060000
0.6875260000 0.6020660000 0.0559620000
0.7663040000 0.5806140000 0.0888130000
0.8343060000 0.5592400000 0.1160660000
0.8918660000 0.5400430000 0.1345510000
0.9366470000 0.5244700000 0.1456990000
0.9673280000 0.5124800000 0.1524990000
0.9853520000 0.5025910000 0.1572070000
0.9940470000 0.4933460000 0.1613270000
0.9971620000 0.4835180000 0.1646980000
0.9979260000 0.4728290000 0.1674340000
0.9980520000 0.4612870000 0.1693710000
0.9981200000 0.4486970000 0.1702260000
0.9981200000 0.4351480000 0.1703140000
0.9980800000 0.4204710000 0.1701820000
0.9980800000 0.4046960000 0.1692600000
0.9980800000 0.3882280000 0.1685510000
0.0000000000 0.8834710000 0.0000000000
0.0000000000 0.8827370000 0.0000000000
0.0000000000 0.8816920000 0.0000000000
0.0000000000 0.8801920000 0.0000000000
0.0000000000 0.8780320000 0.0000000000
0.0000000000 0.8746820000 0.0000000000
0.0000000000 0.8690770000 0.0000000000
0.0000000000 0.8607210000 0.0000000000
0.0000000000 0.8505630000 0.0000000000
0.0001970000 0.8396080000 0.0000000000
0.0041400000 0.8267830000 0.0000000000
0.0201090000 0.8101500000 0.0000000000
0.0652750000 0.7895680000 0.0000000000
0.1538220000 0.7665210000 0.0000000000
0.2801510000 0.7425780000 0.0016760000
0.4215430000 0.7189880000 0.0072450000
0.5521580000 0.6972740000 0.0201580000
0.6582250000 0.6779410000 0.0427470000
0.7414360000 0.6593060000 0.0719790000
0.8101780000 0.6392220000 0.1019800000
0.8697800000 0.6178420000 0.1272160000
0.9193480000 0.5975090000 0.1456950000
0.9559310000 0.5800080000 0.1571520000
0.9789420000 0.5659120000 0.1631790000
0.9910260000 0.5543340000 0.1662230000
0.9960010000 0.5439400000 0.1677570000
0.9975810000 0.5337470000 0.1687640000
0.9979720000 0.5231530000 0.1691600000
0.9980920000 0.5118880000 0.1690830000
0.9981200000 0.4999030000 0.1690930000
0.9981200000 0.4870870000 0.1692550000
0.9981200000 0.4733490000 0.1696060000
0.9981200000 0.4589110000 0.1696130000
0.0000000000 0.9351510000 0.0000000000
0.0000000000 0.9347130000 0.0000000000
0.0000000000 0.9341000000 0.0000000000
0.0000000000 0.9331420000 0.0000000000
0.0000000000 0.9317780000 0.0000000000
0.0000000000 0.9295720000 0.0000000000
0.0000000000 0.9254870000 0.0000000000
0.0000000000 0.9188360000 0.0000000000
0.0000000000 0.9099890000 0.0000000000
0.0000000000 0.8997200000 0.0000000000
0.0011830000 0.8873600000 0.0000000000
0.0086250000 0.8713320000 0.0000000000
0.0345970000 0.8514600000 0.0000000000
0.0984730000 0.8288540000 0.0004680000
0.2088050000 0.8050120000 0.0021190000
0.3522010000 0.7810090000 0.0087240000
