LUMIX SD Backup/BaseLUTs - Panasonic Cinelike-D.cube
TITLE "BaseLUTs - Panasonic Cinelike-D Conversion LUT by Gamut"
# Designed for Rec709 Color Space. Version 1.3 - 06/23/2022 -  Copyright 2022 Gamut, LLC
LUT_3D_SIZE 33
0.0000000000 0.0000000000 0.0000000000
0.0244454375 0.0000000000 0.0007643437
0.0539649375 0.0000000000 0.0068998750
0.0888386875 0.0000000000 0.0123213125
0.1255897500 0.0041396250 0.0198130000
0.1567040937 0.0121241875 0.0285609063
0.1867093750 0.0154753125 0.0356826250
0.2168250000 0.0185810312 0.0410767187
0.2466630000 0.0203057500 0.0463535000
0.2758986875 0.0218583750 0.0515938125
0.3049000000 0.0228690000 0.0556019375
0.3331766562 0.0236570000 0.0588496875
0.3617501250 0.0241501250 0.0625097500
0.3899196875 0.0241254688 0.0660771562
0.4177485000 0.0244460000 0.0701298750
0.4451446250 0.0252340000 0.0749866875
0.4724590000 0.0260230000 0.0802915000
0.4996844375 0.0263928437 0.0855285000
0.5265880000 0.0268120000 0.0907235000
0.5536035937 0.0276000000 0.0960796563
0.5804178750 0.0276000000 0.1011820000
0.6069642500 0.0278712188 0.1061877187
0.6330144375 0.0283890000 0.1112091875
0.6588695313 0.0286106250 0.1161216875
0.6860290000 0.0283890000 0.1208287500
0.7167154688 0.0274276250 0.1240332188
0.7489236250 0.0258750625 0.1264121875
0.7797187500 0.0235338750 0.1282634687
0.8109815000 0.0218828750 0.1297043750
0.8443127500 0.0187781562 0.1305860000
0.8828705000 0.0148351250 0.1299345000
0.9231694062 0.0102017187 0.1287486875
0.9574610000 0.0070970000 0.1293570000
0.0000492813 0.0324546562 0.0000000000
0.0325039375 0.0317159063 0.0000000000
0.0613123750 0.0293991875 0.0007643438
0.0936164063 0.0285609375 0.0031047500
0.1261830625 0.0277482813 0.0089947813
0.1580229375 0.0280192812 0.0208976250
0.1895718437 0.0274029375 0.0265162187
0.2195022813 0.0267379375 0.0312472187
0.2492235000 0.0272305000 0.0365198125
0.2777806250 0.0287828750 0.0418810000
0.3066303125 0.0295715937 0.0464360000
0.3347275000 0.0298181250 0.0500851875
0.3629611250 0.0306061562 0.0533593437
0.3908868125 0.0303106563 0.0569050937
0.4187167813 0.0306061562 0.0613928750
0.4461528750 0.0310499688 0.0667416875
0.4734265000 0.0314197813 0.0720265312
0.5006190625 0.0321841250 0.0772334375
0.5274919375 0.0325535313 0.0826322812
0.5542870937 0.0329967812 0.0882112500
0.5810718125 0.0329967812 0.0934305313
0.6076487500 0.0337857813 0.0986442500
0.6337017188 0.0337857813 0.1040007187
0.6593693750 0.0340320312 0.1092164687
0.6865035625 0.0343767812 0.1139310625
0.7173202500 0.0328490625 0.1174973750
0.7492784375 0.0312718438 0.1200740000
0.7799383125 0.0295963750 0.1219668125
0.8113355000 0.0272796562 0.1235600000
0.8445110312 0.0241995937 0.1244445000
0.8829025000 0.0202565625 0.1240834687
0.9231413125 0.0156231562 0.1231458438
0.9574627813 0.0132827813 0.1234695625
0.0000000000 0.0704226250 0.0000000000
0.0348699062 0.0734307187 0.0000000000
0.0673081250 0.0662027500 0.0000000000
0.0971407500 0.0640094688 0.0037211875
0.1258335000 0.0629221875 0.0082797500
0.1543931562 0.0629399375 0.0206759062
0.1833090625 0.0618389375 0.0255793750
0.2138473438 0.0617220625 0.0302366563
0.2440383750 0.0611339375 0.0341550000
0.2737604687 0.0601187188 0.0374575000
0.3030082500 0.0594902500 0.0405541875
0.3317649687 0.0587835000 0.0435399063
0.3602096875 0.0577946250 0.0464010000
0.3885320937 0.0566222500 0.0495567500
0.4168352500 0.0553820625 0.0534836875
0.4445006563 0.0541731875 0.0572215312
0.4720771250 0.0529945625 0.0611949375
0.4996479062 0.0517973438 0.0655171562
0.5270134375 0.0509590625 0.0701268125
0.5540840000 0.0500225625 0.0745082500
0.5810260000 0.0487725000 0.0789646875
0.6076774375 0.0477399375 0.0836829688
0.6338414375 0.0473036875 0.0892793125
0.6595065000 0.0477891875 0.0951316563
0.6867385000 0.0469588125 0.1004420625
0.7174384375 0.0455526250 0.1041963750
0.7491153750 0.0434321875 0.1074205000
0.7796613750 0.0411980937 0.1095760312
0.8109798125 0.0387883125 0.1116935000
0.8441641562 0.0357319063 0.1133374688
0.8824048750 0.0317898125 0.1132616250
0.9224266562 0.0271564687 0.1129226250
0.9566381875 0.0240516875 0.1139408125
0.0000000000 0.1070007500 0.0000000000
0.0341302500 0.1070803438 0.0000000000
0.0724072812 0.1091106875 0.0000000000
0.1017782187 0.0999500313 0.0000000000
0.1317583438 0.0971996563 0.0076395625
0.1605856250 0.0973778750 0.0178909687
0.1874015000 0.0974717813 0.0255055000
0.2144307500 0.0967116875 0.0296210312
0.2419222500 0.0959091250 0.0335147500
0.2690799375 0.0947774063 0.0366194688
0.2972917500 0.0940059688 0.0390100625
0.3259732813 0.0935555625 0.0420645312
0.3546874688 0.0927746563 0.0449849688
0.3831510312 0.0920710000 0.0482007187
0.4115046562 0.0911014062 0.0521973125
0.4394186562 0.0898221875 0.0559953750
0.4674251875 0.0885263437 0.0596197187
0.4950475937 0.0872632812 0.0636639062
0.5225524062 0.0857401563 0.0677603437
0.5497638125 0.0841810625 0.0719529063
0.5769765625 0.0826384687 0.0760067813
0.6038744688 0.0813126563 0.0803242188
0.6302779063 0.0799155000 0.0850945312
0.6563747187 0.0786055000 0.0898925000
0.6834695625 0.0770461875 0.0941020312
0.7140118125 0.0742538437 0.0975396563
0.7453554688 0.0711593437 0.0999263438
0.7760228437 0.0675878438 0.1017803125
0.8076357813 0.0633627500 0.1033295625
0.8410756250 0.0594370313 0.1047870625
0.8789600625 0.0541130312 0.1047978750
0.9191717812 0.0490165312 0.1041119688
0.9542340312 0.0449565312 0.1048903750
0.0000000000 0.1398386250 0.0000000000
0.0312226563 0.1411920625 0.0000000000
0.0689983125 0.1425321250 0.0000000000
0.1079422187 0.1446995313 0.0000000000
0.1366565000 0.1354813750 0.0006903750
0.1646823125 0.1314644375 0.0114346562
0.1944355000 0.1322419375 0.0229178125
0.2209801563 0.1314401875 0.0280685625
0.2466896250 0.1308881250 0.0313458750
0.2724956562 0.1307591250 0.0351409688
0.2991178125 0.1299381250 0.0377040625
0.3255485938 0.1288213750 0.0405545312
0.3520033750 0.1276380000 0.0434466250
0.3787710313 0.1266718125 0.0470211563
0.4059216875 0.1257766250 0.0508884375
0.4337678437 0.1248296875 0.0544130938
0.4615687500 0.1240395000 0.0584297500
0.4892622813 0.1230436562 0.0619496875
0.5168541875 0.1220866875 0.0661263750
0.5441315000 0.1208386250 0.0699313125
0.5714305000 0.1198167500 0.0742141250
0.5983814687 0.1184980000 0.0784331250
0.6249750625 0.1173178125 0.0829310625
0.6511918437 0.1162093750 0.0876945000
0.6780990000 0.1147656250 0.0920053750
0.7078833125 0.1123181875 0.0954589063
0.7385900000 0.1087510000 0.0978541250
0.7692609688 0.1047715938 0.0997433438
0.8010735000 0.1003286250 0.1012842500
0.8343635938 0.0956610938 0.1023490000
0.8716040000 0.0900083125 0.1023248750
0.9120101563 0.0836264062 0.1015757500
0.9489800000 0.0782473750 0.1016237500
0.0038197188 0.1746590625 0.0021195937
0.0288812813 0.1757591250 0.0013552500
0.0681896875 0.1774781250 0.0013305937
0.1072730625 0.1792090625 0.0000000000
0.1433311250 0.1785899375 0.0000000000
0.1706380625 0.1699385625 0.0014538750
0.1970729688 0.1650971875 0.0165604062
0.2261793750 0.1653419375 0.0264915312
0.2538467500 0.1653155938 0.0303597500
0.2793917188 0.1644508750 0.0327997500
0.3042694375 0.1637796250 0.0359044688
0.3294216875 0.1636633750 0.0396749063
0.3549163438 0.1626418750 0.0431627500
0.3809400000 0.1616393125 0.0469089688
0.4068647188 0.1603990000 0.0503220625
0.4328349687 0.1592865937 0.0540283750
0.4590960000 0.1582206562 0.0577410000
0.4852969375 0.1570581875 0.0612904062
0.5119183125 0.1560985313 0.0652564375
0.5387689375 0.1550886250 0.0692629688
0.5657186563 0.1543305938 0.0733877500
0.5925818125 0.1533962812 0.0773347188
0.6192640938 0.1525410000 0.0818126563
0.6456071875 0.1517241250 0.0863192188
0.6722203750 0.1506181250 0.0908892500
0.7011016562 0.1486006563 0.0942725937
0.7310602812 0.1454315938 0.0970109687
0.7616327187 0.1413563750 0.0989149375
0.7934081250 0.1371734062 0.1004677187
0.8268671250 0.1322746875 0.1015760000
0.8635214062 0.1268733438 0.1018427500
0.9037973125 0.1201130625 0.1010778125
0.9425500937 0.1142008438 0.1007000000
0.0040907500 0.2086281250 0.0037950625
0.0280192500 0.2095672500 0.0030308750
0.0666973750 0.2110080625 0.0023660000
0.1058716562 0.2122608750 0.0007889063
0.1438480000 0.2147166250 0.0000000000
0.1775160313 0.2120449375 0.0000000000
0.2042351875 0.2040048125 0.0084280000
0.2292006875 0.1980667188 0.0239778125
0.2572403750 0.1976310000 0.0295224375
0.2852051562 0.1978818750 0.0340318437
0.3113879375 0.1972781875 0.0370631875
0.3361216250 0.1963084688 0.0403080937
0.3604321250 0.1955996875 0.0440450000
0.3850980312 0.1953675625 0.0480014063
0.4102491250 0.1947368125 0.0518815625
0.4356621562 0.1935335313 0.0551841563
0.4611477500 0.1923843750 0.0588453750
0.4867283125 0.1911440313 0.0623480937
0.5124511875 0.1900339375 0.0661608750
0.5381020000 0.1888469688 0.0702283125
0.5637813125 0.1878186250 0.0738020625
0.5895990000 0.1867304687 0.0781270000
0.6153132500 0.1859394375 0.0821183125
0.6411119375 0.1851006875 0.0866117187
0.6671766875 0.1842055625 0.0909139375
0.6949417500 0.1824047500 0.0945440625
0.7239216250 0.1795253125 0.0972758125
0.7542365937 0.1756615313 0.0993108438
0.7861770625 0.1716296875 0.1009921875
0.8195848125 0.1668432812 0.1018304375
0.8558225000 0.1614300625 0.1021806250
0.8959408438 0.1551186875 0.1016970313
0.9363738750 0.1488152500 0.1007000000
0.0047310000 0.2417980312 0.0039430000
0.0266640937 0.2426890937 0.0031786563
0.0646473125 0.2438326875 0.0024152500
0.1043889375 0.2451170000 0.0008628750
0.1422834063 0.2467862500 0.0000000000
0.1788157813 0.2489539688 0.0000000000
0.2106876562 0.2446894062 0.0006656875
0.2368514063 0.2369756250 0.0108674062
0.2609312500 0.2302960000 0.0284132500
0.2880839375 0.2291164688 0.0352145625
0.3155987188 0.2293133750 0.0406119375
0.3424832812 0.2292556875 0.0437347500
0.3674307187 0.2283254375 0.0467497188
0.3917658438 0.2274759688 0.0500176875
0.4158244375 0.2268482187 0.0538008750
0.4401348438 0.2265125625 0.0575246875
0.4647488750 0.2258007500 0.0610836562
0.4898808750 0.2248861563 0.0647563125
0.5151164375 0.2236407812 0.0685533125
0.5404036250 0.2224813438 0.0723880000
0.5656577500 0.2213847812 0.0761905312
0.5908964062 0.2202768438 0.0803944688
0.6158855313 0.2192326563 0.0844233437
0.6407653125 0.2182254375 0.0886118125
0.6657960000 0.2171686250 0.0927299688
0.6920220000 0.2153213125 0.0960832188
0.7195827187 0.2122872188 0.0987767813
0.7492496562 0.2085077188 0.1009545938
0.7806971875 0.2044268438 0.1024316875
0.8140478438 0.1997695312 0.1032711562
0.8500936562 0.1946931875 0.1036170937
0.8897517187 0.1885552187 0.1031275000
0.9311828750 0.1819881250 0.1020836875
0.0047310000 0.2746465000 0.0031540000
0.0251602812 0.2755487500 0.0023906250
0.0624303125 0.2763826875 0.0010353125
0.1022162813 0.2774359063 0.0001972500
0.1409230000 0.2789150000 0.0000000000
0.1777345938 0.2811814375 0.0000000000
0.2124845000 0.2817311875 0.0000000000
0.2434522813 0.2771204688 0.0014539062
0.2689082500 0.2692917500 0.0137997500
0.2924044688 0.2621418750 0.0344017812
0.3185966250 0.2603000625 0.0415513125
0.3456213438 0.2602045000 0.0471395938
0.3727001250 0.2604393750 0.0517500000
0.3983875625 0.2600105313 0.0543985938
0.4227636250 0.2590390625 0.0575006875
0.4465586875 0.2581027188 0.0604875938
0.4704167500 0.2575297500 0.0642220000
0.4944578750 0.2571645313 0.0679050938
0.5189213750 0.2565443750 0.0720921875
0.5437333125 0.2556535000 0.0759671563
0.5686087500 0.2545341250 0.0798101250
0.5934755000 0.2533888125 0.0838477813
0.6182397500 0.2523016875 0.0878403125
0.6426858438 0.2511910625 0.0919076562
0.6672855000 0.2499152500 0.0955932500
0.6928191250 0.2477445625 0.0989855313
0.7198220625 0.2446414375 0.1013053750
0.7488062500 0.2408590938 0.1032934687
0.7796071250 0.2365516250 0.1046822500
0.8125307813 0.2319269375 0.1054223125
0.8481737500 0.2267301875 0.1057620000
0.8874673750 0.2208495625 0.1052690625
0.9289627500 0.2144845000 0.1042572500
0.0028095313 0.3071965313 0.0017989063
0.0228689375 0.3077837500 0.0010352812
0.0595528438 0.3086082500 0.0002219062
0.0995136875 0.3094297188 0.0000000000
0.1387447813 0.3106123438 0.0000000000
0.1762465938 0.3125364063 0.0000000000
0.2119980312 0.3148707188 0.0000000000
0.2454852813 0.3138545313 0.0000493125
0.2753575000 0.3087424375 0.0022673125
0.3004338750 0.3010128437 0.0169051875
0.3236808438 0.2938734063 0.0386650937
0.3488043125 0.2910945938 0.0484700000
0.3753951875 0.2906071562 0.0542356250
0.4022110937 0.2908726250 0.0595653750
0.4285620625 0.2909236875 0.0629443750
0.4532182500 0.2901686562 0.0658328438
0.4771541563 0.2892172813 0.0689651250
0.5008052187 0.2883744375 0.0723260000
0.5246401875 0.2878888750 0.0759658125
0.5484799375 0.2874125312 0.0801488750
0.5726401563 0.2868164375 0.0841582500
0.5970759688 0.2859253750 0.0881388125
0.6213691875 0.2849469063 0.0919701250
0.6455323125 0.2837306250 0.0958967500
0.6698625312 0.2822387500 0.0994507188
0.6950594688 0.2798769688 0.1024260312
0.7219914688 0.2765858750 0.1049031250
0.7508841250 0.2727146875 0.1067475938
0.7817095312 0.2684095000 0.1077852813
0.8147055000 0.2637504687 0.1085755312
0.8505094375 0.2585388750 0.1085755312
0.8897160000 0.2528609687 0.1078325625
0.9312409688 0.2467881875 0.1067377812
0.0010352500 0.3390888750 0.0002465625
0.0203306250 0.3397236563 0.0000246562
0.0561935625 0.3403811250 0.0000000000
0.0961055313 0.3410305000 0.0000000000
0.1362563750 0.3419747500 0.0000000000
0.1743392500 0.3438319062 0.0000000000
0.2105440625 0.3459668750 0.0000000000
0.2456087188 0.3478090625 0.0000000000
0.2777153125 0.3454824375 0.0008382500
0.3068920625 0.3401443125 0.0038443125
0.3315228750 0.3323258750 0.0200101875
0.3546152188 0.3252361875 0.0429383437
0.3791635625 0.3218606250 0.0549160000
0.4053149062 0.3210177187 0.0617666250
0.4316490000 0.3210091875 0.0676911875
0.4578872500 0.3211961875 0.0719341563
0.4831665000 0.3207838750 0.0752979375
0.5073679062 0.3200203750 0.0782160313
0.5310667500 0.3191561875 0.0817197500
0.5546500625 0.3184187500 0.0853460938
0.5782310625 0.3179236875 0.0891461875
0.6018600938 0.3173955000 0.0929287188
0.6255226875 0.3167550625 0.0969853750
0.6491864687 0.3155926875 0.1005041562
0.6732063125 0.3138595625 0.1040813125
0.6983741875 0.3113120000 0.1066980000
0.7254301250 0.3080445000 0.1088672500
0.7543628125 0.3041309375 0.1105837812
0.7854569375 0.2998571875 0.1115887500
0.8189178125 0.2951815625 0.1120120000
0.8554738750 0.2901266875 0.1119899375
0.8950977813 0.2846729688 0.1112894687
0.9368848750 0.2790933750 0.1102272500
0.0000000000 0.3708994375 0.0000000000
0.0169543750 0.3713370312 0.0000000000
0.0520207812 0.3720869375 0.0000000000
0.0926104375 0.3724916875 0.0000000000
0.1330760625 0.3732423437 0.0000000000
0.1718942187 0.3747076250 0.0000000000
0.2087712500 0.3768045312 0.0000000000
0.2441495625 0.3791394062 0.0000000000
0.2782650312 0.3800740938 0.0000000000
0.3093578750 0.3766708438 0.0014046875
0.3378286562 0.3711142187 0.0059637187
0.3623249375 0.3636224687 0.0225977813
0.3853594375 0.3566050313 0.0460443438
0.4094973125 0.3526039062 0.0608325625
0.4351063125 0.3512994063 0.0690692813
0.4610851563 0.3510310625 0.0758360313
0.4870920000 0.3511567187 0.0812805312
0.5125513437 0.3510185625 0.0849045312
0.5369884375 0.3503540000 0.0882642188
0.5607954687 0.3495456875 0.0916675312
0.5842608438 0.3488461875 0.0949640938
0.6075331875 0.3481362812 0.0985608750
0.6306565000 0.3474304687 0.1022969688
0.6539090625 0.3464263750 0.1056555313
0.6776139688 0.3446796562 0.1088288750
0.7028244375 0.3421664063 0.1115849375
0.7299242500 0.3388846875 0.1136020000
0.7591090938 0.3351389062 0.1149176250
0.7905435938 0.3308717187 0.1157167500
0.8246725312 0.3263604687 0.1160171875
0.8619073437 0.3215858750 0.1159958750
0.9021546250 0.3165490313 0.1150935625
0.9442036563 0.3116006875 0.1139431563
0.0000000000 0.4023978750 0.0000000000
0.0136277187 0.4028832188 0.0000000000
0.0478889375 0.4034451250 0.0000000000
0.0884157500 0.4038290625 0.0000000000
0.1296287500 0.4043171250 0.0000000000
0.1689858438 0.4053477812 0.0000000000
0.2064601250 0.4073628750 0.0000000000
0.2423443125 0.4096878125 0.0000000000
0.2771248750 0.4117691250 0.0000000000
0.3099990938 0.4114815938 0.0005670937
0.3404809375 0.4076180625 0.0022180000
0.3684017500 0.4019648125 0.0082797812
0.3927786250 0.3945618750 0.0254316250
0.4159176250 0.3877814375 0.0494710000
0.4398017500 0.3834857500 0.0660076875
0.4649067812 0.3817344688 0.0756061563
0.4906010000 0.3811586250 0.0833255000
0.5161740313 0.3810008437 0.0893796250
0.5414389375 0.3807789375 0.0939602500
0.5659493750 0.3803414687 0.0976710625
0.5897587500 0.3795960000 0.1012662500
0.6130474688 0.3787731562 0.1047939688
0.6360492500 0.3778042500 0.1081943125
0.6591488125 0.3765053125 0.1113993125
0.6830386250 0.3747465000 0.1143052500
0.7083676250 0.3722723437 0.1165987187
0.7356468125 0.3691655625 0.1185356875
0.7650398438 0.3655517500 0.1196447500
0.7968573750 0.3615116250 0.1202471250
0.8316930938 0.3573083125 0.1205367500
0.8694920625 0.3528868125 0.1201855000
0.9101268125 0.3485764687 0.1195209063
0.9523811250 0.3442405000 0.1185385000
0.0000000000 0.4336161562 0.0000000000
0.0105963438 0.4341243125 0.0000000000
0.0432877187 0.4345962812 0.0000000000
0.0834129688 0.4348806250 0.0000000000
0.1257454062 0.4352373750 0.0000000000
0.1656198125 0.4360215312 0.0000000000
0.2036795625 0.4377175625 0.0000000000
0.2402148437 0.4399810312 0.0000000000
0.2753035000 0.4423689687 0.0000000000
0.3093002500 0.4438476250 0.0000986250
0.3412366250 0.4423539687 0.0013307500
0.3710785625 0.4381319375 0.0037703438
0.3984939375 0.4324350937 0.0114097500
0.4228388750 0.4253578125 0.0293253438
0.4462147500 0.4189623750 0.0521160313
0.4699898125 0.4145339375 0.0694004687
0.4947878125 0.4123817187 0.0806864375
0.5199722500 0.4113713438 0.0893444688
0.5451945625 0.4108289375 0.0964420000
0.5699683438 0.4103872813 0.1020940625
0.5942323750 0.4097228750 0.1066185937
0.6178443437 0.4089140312 0.1104934688
0.6411106875 0.4078320625 0.1141688437
0.6645815938 0.4063451250 0.1173042188
0.6888625000 0.4044612187 0.1201062187
0.7146470312 0.4020487500 0.1223059062
0.7422461250 0.3990179687 0.1238450625
0.7720572500 0.3955510312 0.1247971563
0.8044457188 0.3917900625 0.1251982500
0.8397513437 0.3878938750 0.1251686250
0.8779619063 0.3841059375 0.1248595938
0.9186793125 0.3804985000 0.1242291563
0.9607884375 0.3770789063 0.1232730000
0.0000000000 0.4647953750 0.0000000000
0.0075898125 0.4651424375 0.0000000000
0.0385370625 0.4655683750 0.0000000000
0.0783891875 0.4657847500 0.0000000000
0.1213320000 0.4660591250 0.0000000000
0.1618722500 0.4666771875 0.0000000000
0.2005094375 0.4680515625 0.0000000000
0.2374613125 0.4701062813 0.0000000000
0.2732010000 0.4725230000 0.0000000000
0.3076180625 0.4746267187 0.0000000000
0.3407820000 0.4751776875 0.0007890000
0.3719350625 0.4728215000 0.0021686563
0.4010947500 0.4682769375 0.0066041875
0.4280503438 0.4626579375 0.0157713125
0.4524889375 0.4559842500 0.0336623125
0.4762238125 0.4500955625 0.0546726250
0.5000923750 0.4457227500 0.0716968125
0.5245810000 0.4430974063 0.0842599375
0.5492447500 0.4415145000 0.0941964375
0.5738018125 0.4404192188 0.1025405313
0.5980109375 0.4394640625 0.1093151250
0.6218793750 0.4384861562 0.1147262500
0.6456026875 0.4372889375 0.1192620625
0.6697021875 0.4358325000 0.1229935938
0.6947122500 0.4339318750 0.1259273125
0.7211813750 0.4315020312 0.1280200000
0.7494099375 0.4285540000 0.1294269375
0.7799205000 0.4252086875 0.1300327813
0.8130366250 0.4216908750 0.1302915000
0.8488672500 0.4181959687 0.1301210625
0.8872689375 0.4150400000 0.1297948125
0.9275178750 0.4123033750 0.1293601875
0.9687244375 0.4098759375 0.1287510625
0.0000000000 0.4957455938 0.0000000000
0.0053967812 0.4960744375 0.0000000000
0.0335141875 0.4964696875 0.0000000000
0.0730837813 0.4966651875 0.0000000000
0.1165787812 0.4967822500 0.0000000000
0.1579432813 0.4972413438 0.0000000000
0.1969388437 0.4982585312 0.0000000000
0.2344007188 0.5001443125 0.0000000000
0.2705978750 0.5023781250 0.0000000000
0.3055276250 0.5047686250 0.0000000000
0.3392915313 0.5062058750 0.0005424375
0.3716150000 0.5057677188 0.0014047500
0.4020044687 0.5027065313 0.0042135937
0.4306558750 0.4981222188 0.0102266875
0.4571718125 0.4925529063 0.0208480000
0.4818673750 0.4864519063 0.0379007813
0.5059175938 0.4809629687 0.0571700625
0.5298206875 0.4765515000 0.0736939688
0.5538794375 0.4734577500 0.0872665937
0.5779567500 0.4712075312 0.0984897187
0.6018603750 0.4694564688 0.1083246562
0.6257720937 0.4679711875 0.1162966563
0.6498307187 0.4665318125 0.1226074062
0.6744801875 0.4649612188 0.1275309375
0.7002734063 0.4630324375 0.1310326875
0.7275761875 0.4606552187 0.1334305625
0.7569014687 0.4578425312 0.1348357813
0.7884284688 0.4546370625 0.1356123437
0.8224451250 0.4513634687 0.1356123438
0.8588540937 0.4482741562 0.1352900625
0.8970524687 0.4457319062 0.1350038750
0.9363004062 0.4439103750 0.1347259062
0.9759793438 0.4425570000 0.1345857500
0.0000000000 0.5265980000 0.0000000000
0.0042384375 0.5268715625 0.0000000000
0.0285858125 0.5271761250 0.0000000000
0.0669630000 0.5272829062 0.0000000000
0.1111680000 0.5273542500 0.0000000000
0.1533525312 0.5276706250 0.0000000000
0.1930629375 0.5285466250 0.0000000000
0.2310170937 0.5300993125 0.0000000000
0.2675910000 0.5322097500 0.0000000000
0.3030190000 0.5344550313 0.0000000000
0.3372542500 0.5363188750 0.0001479375
0.3703256250 0.5369605625 0.0009121250
0.4018121250 0.5355045000 0.0029571250
0.4316099375 0.5321950000 0.0066041875
0.4596730000 0.5276064375 0.0141450000
0.4860391875 0.5222283125 0.0258754375
0.5109350000 0.5165060000 0.0421290000
0.5350835312 0.5111389063 0.0595911875
0.5588448750 0.5066278125 0.0758981875
0.5824823437 0.5030073750 0.0906169687
0.6060285000 0.5000888750 0.1037168750
0.6296598750 0.4977156250 0.1148204375
0.6538589375 0.4957427500 0.1235283750
0.6790217813 0.4938844063 0.1302130625
0.7055687500 0.4918865000 0.1348640000
0.7339245938 0.4895504062 0.1381191875
0.7644186250 0.4867488750 0.1398436250
0.7972121875 0.4837598125 0.1407325000
0.8322797500 0.4806732500 0.1407325000
0.8691642812 0.4780082187 0.1404490000
0.9068701875 0.4761436250 0.1403050000
0.9447505625 0.4751888437 0.1403137812
0.9822840000 0.4749050000 0.1407300000
0.0000000000 0.5572077500 0.0000000000
0.0034992188 0.5575186250 0.0000000000
0.0232382812 0.5577782813 0.0000000000
0.0607249062 0.5577873438 0.0000000000
0.1049460937 0.5577602188 0.0000000000
0.1482675000 0.5579364063 0.0000000000
0.1887376250 0.5586371562 0.0000000000
0.2271576875 0.5598870938 0.0000000000
0.2641340000 0.5617119375 0.0000000000
0.3000080625 0.5638653437 0.0000000000
0.3346599375 0.5658751562 0.0000000000
0.3682439063 0.5670618125 0.0007890000
0.4006312500 0.5668198750 0.0017002812
0.4314401250 0.5648460312 0.0045095000
0.4607687812 0.5614550938 0.0093396250
0.4885168750 0.5568747500 0.0176442187
0.5146511875 0.5515425312 0.0301380000
0.5396452188 0.5459280937 0.0454144062
0.5636598750 0.5405323750 0.0621741875
0.5871116875 0.5356498125 0.0789905938
0.6103951250 0.5315096250 0.0950780938
0.6339153750 0.5281646250 0.1094657500
0.6580861250 0.5253280000 0.1212484688
0.6834778437 0.5228851875 0.1303477500
0.7106896250 0.5205719063 0.1368393437
0.7400291250 0.5181620625 0.1412117187
0.7717513438 0.5154438125 0.1438378437
0.8059158750 0.5125686563 0.1452280313
0.8420618438 0.5097787188 0.1455788437
0.8792965625 0.5075585938 0.1456720000
0.9163320313 0.5062554687 0.1457058750
0.9523895937 0.5060644375 0.1462165625
0.9875070000 0.5066805937 0.1472675312
0.0000000000 0.5875546875 0.0000000000
0.0030800937 0.5877375312 0.0000000000
0.0190737500 0.5879241875 0.0000000000
0.0542272188 0.5878639062 0.0000000000
0.0986200625 0.5877065000 0.0000000000
0.1425522812 0.5877541875 0.0000000000
0.1837931250 0.5882144375 0.0000000000
0.2226951875 0.5892120938 0.0000000000
0.2601032500 0.5907575625 0.0000000000
0.2963340625 0.5927215625 0.0000000000
0.3314311250 0.5946907500 0.0000000000
0.3655179687 0.5963215000 0.0001725938
0.3985346250 0.5969355625 0.0009367500
0.4302969062 0.5962328750 0.0024891250
0.4607223750 0.5940575625 0.0058157500
0.4896376875 0.5905508750 0.0114096563
0.5170784375 0.5858903750 0.0204041875
