LUMIX SD Backup/BaseLUTs - Panasonic V-Log.cube
TITLE "BaseLUTs - Panasonic V-Log Conversion LUT by Gamut"
# Designed for converting V-Gamut / V-Log to Rec709 Color Space. Version 1.3 - 06/23/2022 -  Copyright 2022 Gamut, LLC
LUT_3D_SIZE 5
0.0000000000 0.0000000000 0.0000000000
0.1414190000 0.0007890000 0.0130120000
0.6115260000 0.0023650000 0.0635280000
0.9995370000 0.0000000000 0.1318770000
0.9995440000 0.0000000000 0.1353890000
0.0000000000 0.2032880000 0.0467090000
0.1626150000 0.1565210000 0.0023660000
0.6865740000 0.0869840000 0.0859200000
0.9996710000 0.0069000000 0.1290470000
0.9995440000 0.0000000000 0.1348720000
0.0000000000 0.8141210000 0.0000000000
0.0000000000 0.7739830000 0.0000000000
0.5939400000 0.6228530000 0.0272060000
0.9940470000 0.4933460000 0.1613270000
0.9980800000 0.3882280000 0.1685510000
0.0000000000 0.9994360000 0.0011830000
0.0000000000 0.9994360000 0.0000000000
0.1836730000 0.9624250000 0.0230660000
0.9448270000 0.9262220000 0.1797050000
0.9849520000 0.9102260000 0.1832830000
0.0000000000 0.9996240000 0.0999160000
0.0000000000 0.9997580000 0.0811220000
0.0043370000 0.9994630000 0.0051250000
0.9326560000 0.9870300000 0.2221520000
1.0000000000 0.9981730000 0.1873420000
0.0098570000 0.0114350000 0.0940240000
0.1197000000 0.0000000000 0.0638000000
0.6144590000 0.0159690000 0.0878530000
0.9996910000 0.0011830000 0.1383700000
0.9995440000 0.0000000000 0.1353890000
0.0000000000 0.1742380000 0.1597210000
0.1351630000 0.1279480000 0.1260880000
0.6664510000 0.0784390000 0.1247270000
0.9997050000 0.0067030000 0.1389440000
0.9995440000 0.0000000000 0.1350930000
0.0000000000 0.7637060000 0.2344200000
0.0000000000 0.7237200000 0.1552120000
0.5646960000 0.5921770000 0.1288260000
0.9930650000 0.4648940000 0.1751710000
0.9979180000 0.3493480000 0.1647300000
0.0000000000 0.9997720000 0.1826350000
0.0000000000 0.9996170000 0.1684800000
0.1502100000 0.9668850000 0.1078810000
0.9402690000 0.9240560000 0.2571730000
0.9846720000 0.9009000000 0.1939260000
0.0000000000 0.9994970000 0.2876390000
0.0000000000 0.9994900000 0.2774920000
0.0076890000 0.9998590000 0.1852870000
0.9686880000 0.9951750000 0.4059840000
0.9993430000 0.9992890000 0.3059900000
0.0185310000 0.0428660000 0.4281100000
0.0965370000 0.0315430000 0.3885760000
0.6285880000 0.0035490000 0.4392750000
0.9992690000 0.0051260000 0.3553760000
0.9996110000 0.0047320000 0.2668780000
0.0110400000 0.1378880000 0.5577100000
0.1353230000 0.1155450000 0.5207770000
0.6522120000 0.0203060000 0.5100290000
0.9992220000 0.0112370000 0.3677870000
0.9995440000 0.0027600000 0.2765440000
0.0000000000 0.6553870000 0.6280870000
0.0007890000 0.6264670000 0.6018360000
0.5147530000 0.5150380000 0.5190120000
0.9926190000 0.4027290000 0.4153010000
0.9970030000 0.2862430000 0.3190310000
0.0000000000 0.9808450000 0.6486320000
0.0000000000 0.9785710000 0.6387390000
0.2179330000 0.9399300000 0.5900560000
0.9364080000 0.9167630000 0.5765240000
0.9970700000 0.8699750000 0.4789730000
0.0000000000 0.9993290000 0.6913480000
0.0000000000 0.9993360000 0.6841580000
0.0899110000 0.9978910000 0.6934600000
0.9696350000 0.9992890000 0.7433130000
0.9993830000 0.9993830000 0.6412980000
0.0406020000 0.1142260000 0.7864370000
0.1263940000 0.1146560000 0.7783050000
0.6804970000 0.0011830000 0.9853330000
0.9994030000 0.0000000000 0.9827230000
0.9993490000 0.0011830000 0.9267580000
0.0343030000 0.1318540000 0.8428170000
0.1517100000 0.1294260000 0.8383840000
0.6596790000 0.0029570000 0.9920930000
0.9994830000 0.0000000000 0.9852270000
0.9994490000 0.0005920000 0.9398160000
0.0000000000 0.4968080000 0.9843400000
0.0104490000 0.4751010000 0.9716720000
0.4705070000 0.4155360000 0.8932190000
0.9921440000 0.2891450000 0.9618990000
0.9970900000 0.1557880000 0.9242840000
0.0000000000 0.9625530000 0.9330900000
0.0000000000 0.9601630000 0.9301790000
0.1810910000 0.9277260000 0.8936600000
0.9133630000 0.9138040000 0.9101940000
0.9985700000 0.8530050000 0.8498510000
0.0000000000 0.9995170000 0.9387270000
0.0000000000 0.9995100000 0.9344670000
0.1076380000 0.9995440000 0.9477280000
0.9270720000 0.9994030000 0.9894420000
0.9994430000 0.9994430000 0.9609000000
0.0510200000 0.1359770000 0.9451060000
0.1318350000 0.1377280000 0.9477830000
0.6220640000 0.0090690000 0.9989000000
0.9993290000 0.0000000000 0.9993900000
0.9993290000 0.0000000000 0.9993290000
0.0346970000 0.1356830000 0.9487110000
0.1362860000 0.1382340000 0.9504060000
0.5696330000 0.0161660000 0.9987650000
0.9992350000 0.0000000000 0.9993960000
0.9993290000 0.0000000000 0.9993290000
0.0027600000 0.3444120000 0.9915940000
0.0171520000 0.3310490000 0.9884520000
0.4040480000 0.2815200000 0.9821890000
0.9899770000 0.1341190000 0.9971770000
0.9988720000 0.0386870000 0.9988720000
0.0000000000 0.9337320000 0.9907740000
0.0000000000 0.9299290000 0.9912350000
0.0613010000 0.8824780000 0.9850870000
0.8694490000 0.8310650000 0.9969220000
0.9980460000 0.7401300000 0.9979320000
0.0007890000 0.9994360000 0.9946960000
0.0007890000 0.9994360000 0.9947500000
0.1117670000 0.9995170000 0.9950610000
0.8970870000 0.9993430000 0.9993430000
0.9995170000 0.9995170000 0.9995170000
