LUMIX SD Backup/BaseLUTs - Panasonic V-LogL.cube
TITLE "BaseLUTs - Panasonic V-LogL Conversion LUT by Gamut"
# Designed for converting V-Gamut / V-LogL to Rec709 Color Space. Version 1.3 - 06/23/2022 -  Copyright 2022 Gamut, LLC
# 
LUT_3D_SIZE 5
0.0000000000 0.0000000000 0.0000000000
0.1690232500 0.0007890000 0.0159685000
0.7918945000 0.0039425000 0.0960685000
1.0000000000 0.0005917500 0.1353890000
1.0000000000 0.0000000000 0.1353890000
0.0000000000 0.3304327500 0.0110397500
0.1778535000 0.1843425000 0.0029570000
0.7212495000 0.1196975000 0.0943280000
1.0000000000 0.0303600000 0.1297417500
1.0000000000 0.0045342500 0.1329330000
0.0102515000 0.9789755000 0.0102515000
0.0222770000 0.8666747500 0.0007885000
0.6568190000 0.6723855000 0.0496680000
0.9979037500 0.5340477500 0.1693547500
1.0000000000 0.4758100000 0.1708800000
0.0171517500 1.0000000000 0.0380457500
0.0354860000 1.0000000000 0.0199115000
0.7892622500 1.0000000000 0.2401772500
1.0000000000 1.0000000000 0.2617920000
1.0000000000 1.0000000000 0.2577070000
0.0189260000 1.0000000000 0.0628060000
0.1814180000 1.0000000000 0.0792882500
1.0000000000 1.0000000000 0.2744300000
1.0000000000 1.0000000000 0.2536960000
1.0000000000 1.0000000000 0.2536960000
0.0074917500 0.0090687500 0.0748717500
0.1707122500 0.0000000000 0.0418335000
0.8044277500 0.0082800000 0.1040835000
1.0000000000 0.0000000000 0.1356095000
1.0000000000 0.0000000000 0.1353890000
0.0000000000 0.2009980000 0.1435327500
0.1323342500 0.1295855000 0.1120702500
0.7313872500 0.0634382500 0.1043957500
1.0000000000 0.0029570000 0.1325570000
1.0000000000 0.0007890000 0.1351670000
0.0061115000 0.9230070000 0.1557647500
0.0153770000 0.8215750000 0.0530405000
0.6169987500 0.6255402500 0.1040252500
0.9967665000 0.5090510000 0.1668815000
1.0000000000 0.4885907500 0.1708272500
0.0207000000 1.0000000000 0.2168957500
0.0301630000 1.0000000000 0.1202660000
0.7523452500 1.0000000000 0.3285600000
1.0000000000 1.0000000000 0.2841687500
1.0000000000 1.0000000000 0.2557850000
0.0216857500 1.0000000000 0.2417895000
0.4609827500 1.0000000000 0.3757332500
1.0000000000 1.0000000000 0.4847305000
1.0000000000 1.0000000000 0.3556092500
1.0000000000 1.0000000000 0.3025305000
0.0177430000 0.0378515000 0.3880565000
0.1117520000 0.0279945000 0.3966480000
0.9015805000 0.0122230000 0.5055030000
1.0000000000 0.0096600000 0.2457417500
1.0000000000 0.0130115000 0.1759065000
0.0161657500 0.0922827500 0.5183827500
0.1192497500 0.0669762500 0.5132877500
0.7580032500 0.0090685000 0.4667065000
1.0000000000 0.0049285000 0.2760920000
1.0000000000 0.0155742500 0.1859490000
0.0000000000 0.7211200000 0.6056755000
0.0187287500 0.6493967500 0.5814480000
0.5149395000 0.5137625000 0.5107405000
0.9955927500 0.4012180000 0.3376167500
1.0000000000 0.3253430000 0.2086515000
0.0297685000 1.0000000000 0.6923727500
0.0635810000 1.0000000000 0.6878002500
0.7059385000 1.0000000000 0.7287970000
1.0000000000 1.0000000000 0.6126432500
1.0000000000 1.0000000000 0.4507017500
0.0350915000 1.0000000000 0.7660260000
0.8544497500 1.0000000000 0.9895245000
1.0000000000 1.0000000000 0.8630780000
1.0000000000 1.0000000000 0.7229837500
1.0000000000 1.0000000000 0.6198095000
0.0382462500 0.1101542500 0.7648242500
0.1174637500 0.1156045000 0.7840237500
0.8189322500 0.0000000000 0.9873627500
1.0000000000 0.0035487500 0.8877317500
1.0000000000 0.0159690000 0.7588212500
0.0364712500 0.1175662500 0.8066755000
0.1185677500 0.1215647500 0.8182785000
0.6722522500 0.0015772500 0.9874737500
0.9999932500 0.0000000000 0.9593707500
1.0000000000 0.0130112500 0.7912585000
0.0003945000 0.4492427500 0.9742732500
0.0370240000 0.3911532500 0.9363102500
0.4238275000 0.3043307500 0.8866047500
0.9996977500 0.1382047500 0.9700462500
1.0000000000 0.0728890000 0.8568207500
0.0335142500 1.0000000000 0.9786457500
0.0390255000 1.0000000000 0.9714580000
0.4798805000 1.0000000000 0.9758257500
0.9945610000 1.0000000000 0.9975197500
1.0000000000 0.9440515000 0.8795200000
0.0508380000 1.0000000000 1.0000000000
0.5737750000 1.0000000000 1.0000000000
0.9500752500 1.0000000000 1.0000000000
1.0000000000 1.0000000000 1.0000000000
1.0000000000 1.0000000000 0.9607795000
0.0510200000 0.1321050000 0.9123200000
0.1094707500 0.1341295000 0.9213645000
0.5979145000 0.0126170000 1.0000000000
0.9999730000 0.0000000000 0.9999730000
0.9999730000 0.0000000000 0.9999730000
0.0459962500 0.1330827500 0.9266975000
0.0963425000 0.1356822500 0.9383482500
0.5106885000 0.0270085000 1.0000000000
0.9999730000 0.0000000000 0.9999730000
0.9999730000 0.0000000000 0.9999730000
0.0169540000 0.2509025000 0.9822730000
0.0368627500 0.2193937500 0.9728015000
0.3417700000 0.1511020000 0.9884125000
0.9989455000 0.0130112500 1.0000000000
0.9999865000 0.0003945000 0.9999865000
0.0289802500 0.9905642500 1.0000000000
0.0220802500 0.9504352500 1.0000000000
0.1645585000 0.8446747500 1.0000000000
0.8746680000 0.7631505000 1.0000000000
1.0000000000 0.5896205000 1.0000000000
0.0378520000 1.0000000000 1.0000000000
0.1867380000 1.0000000000 1.0000000000
0.8223500000 1.0000000000 1.0000000000
0.9937892500 1.0000000000 1.0000000000
1.0000000000 1.0000000000 1.0000000000
