LUMIX SD Backup/BaseLUTs - Panasonic Cinelike-D.cube
TITLE "BaseLUTs - Panasonic Cinelike-D Conversion LUT by Gamut"
# Designed for Rec709 Color Space. Version 1.3 - 06/23/2022 -  Copyright 2022 Gamut, LLC
LUT_3D_SIZE 5
0.0000000000 0.0000000000 0.0000000000
0.2466630000 0.0203057500 0.0463535000
0.4724590000 0.0260230000 0.0802915000
0.6860290000 0.0283890000 0.1208287500
0.9574610000 0.0070970000 0.1293570000
0.0047310000 0.2746465000 0.0031540000
0.2689082500 0.2692917500 0.0137997500
0.4704167500 0.2575297500 0.0642220000
0.6672855000 0.2499152500 0.0955932500
0.9289627500 0.2144845000 0.1042572500
0.0000000000 0.5265980000 0.0000000000
0.2675910000 0.5322097500 0.0000000000
0.5109350000 0.5165060000 0.0421290000
0.7055687500 0.4918865000 0.1348640000
0.9822840000 0.4749050000 0.1407300000
0.0000000000 0.7547337500 0.0000000000
0.2076605000 0.7583365000 0.0000000000
0.4824560000 0.7712462500 0.0000000000
0.7300115000 0.7405665000 0.0549340000
0.9981735000 0.7202367500 0.1839420000
0.0000000000 0.9713390000 0.0000000000
0.1399625000 0.9712555000 0.0000000000
0.4339485000 0.9855885000 0.0000000000
0.6660752500 0.9878142500 0.0000000000
0.9763690000 0.9773100000 0.0549340000
0.0323320000 0.0000000000 0.2546530000
0.2078425000 0.0187287500 0.2040060000
0.4523695000 0.0461485000 0.2418350000
0.6660647500 0.0689307500 0.2663272500
0.9313180000 0.0638102500 0.2632382500
0.0147857500 0.2469402500 0.2456250000
0.2563917500 0.2567967500 0.2566880000
0.4662672500 0.2516795000 0.2588702500
0.6605432500 0.2519927500 0.2717390000
0.8999625000 0.2322732500 0.2648687500
0.0000000000 0.5069497500 0.2034572500
0.2391362500 0.5234412500 0.2394240000
0.5113152500 0.5180955000 0.2655317500
0.6984767500 0.4889175000 0.2924137500
0.9783517500 0.4716385000 0.2886032500
0.0000000000 0.7371062500 0.1846662500
0.1810170000 0.7454617500 0.1843232500
0.4735907500 0.7617230000 0.1869087500
0.7282485000 0.7405510000 0.2433575000
0.9983750000 0.7161542500 0.3201727500
0.0000000000 0.9613790000 0.1103802500
0.1124250000 0.9678170000 0.1140437500
0.4258575000 0.9891560000 0.1459030000
0.6720660000 0.9975140000 0.1410922500
0.9890677500 0.9903462500 0.2521390000
0.0586535000 0.0000000000 0.4732720000
0.2632842500 0.0185317500 0.4024887500
0.4119615000 0.0205030000 0.4066300000
0.6499442500 0.0023657500 0.4448422500
0.9083240000 0.0795390000 0.4211945000
0.0541220000 0.2006602500 0.4216305000
0.2373667500 0.2067277500 0.4236655000
0.4551050000 0.2204827500 0.4465492500
0.6376437500 0.2208452500 0.4366820000
0.8542457500 0.2372555000 0.4173442500
0.0094625000 0.4762900000 0.4724190000
0.2428777500 0.4896710000 0.4802570000
0.4857100000 0.4876545000 0.4867350000
0.6674322500 0.4667595000 0.4652672500
0.9568765000 0.4518990000 0.4565500000
0.0000000000 0.7159260000 0.4178610000
0.1693962500 0.7199725000 0.4153447500
0.4432777500 0.7317175000 0.4384925000
0.7065467500 0.7171085000 0.4687092500
0.9938505000 0.6984692500 0.4946782500
0.0000000000 0.9447875000 0.3150440000
0.0564427500 0.9452505000 0.3383800000
0.3790395000 0.9783050000 0.3877100000
0.6765892500 0.9995910000 0.4250437500
0.9980120000 0.9985900000 0.4658920000
0.1002047500 0.0000000000 0.6790652500
0.2951315000 0.0252340000 0.6042890000
0.4323260000 0.0000000000 0.5352852500
0.6472687500 0.0076887500 0.6400575000
0.9400632500 0.0000000000 0.6283382500
0.1047240000 0.1612615000 0.6524952500
0.2415250000 0.1598965000 0.5776940000
0.4678687500 0.1714360000 0.5948642500
0.6702192500 0.2051377500 0.6547990000
0.9389715000 0.1492135000 0.6311792500
0.0244457500 0.4620567500 0.6717650000
0.2409015000 0.4749960000 0.6882560000
0.4952127500 0.4758687500 0.7087407500
0.6964260000 0.4468930000 0.6812902500
0.9700337500 0.4201687500 0.6542285000
0.0000000000 0.7043010000 0.6947480000
0.2151745000 0.7026430000 0.6902742500
0.4556245000 0.7040707500 0.6876082500
0.6783315000 0.6808920000 0.6802145000
0.9734897500 0.6643617500 0.6698470000
0.0000000000 0.9316722500 0.5834957500
0.1328462500 0.9433322500 0.5813400000
0.3836787500 0.9756342500 0.5967010000
0.6618655000 0.9992890000 0.6596437500
1.0000000000 0.9991680000 0.6821190000
0.1388820000 0.0000000000 1.0000000000
0.3424837500 0.0000000000 0.9994632500
0.5567955000 0.0000000000 0.9777385000
0.7630865000 0.0000000000 0.9629677500
0.9790230000 0.0000000000 0.9734000000
0.1450675000 0.0988815000 1.0000000000
0.3078385000 0.1162865000 1.0000000000
0.5545280000 0.2059842500 0.9866472500
0.7576435000 0.1259680000 0.9668207500
0.9721407500 0.1717252500 0.9649112500
0.0962225000 0.4644670000 1.0000000000
0.2740242500 0.4691322500 1.0000000000
0.5067755000 0.4554265000 0.9990470000
0.7530005000 0.4004980000 0.9856227500
0.9725095000 0.4094090000 0.9654595000
0.0021687500 0.6919732500 0.9917912500
0.2148702500 0.6869715000 0.9898220000
0.4466625000 0.6856150000 0.9889585000
0.6949057500 0.6704980000 0.9894287500
0.9830540000 0.6518035000 0.9773925000
0.0000000000 0.9216180000 0.9186530000
0.1567787500 0.9337530000 0.9301750000
0.4136005000 0.9612160000 0.9562795000
0.6801515000 0.9981260000 0.9961737500
0.9949390000 0.9953170000 0.9958030000
