LUMIX SD Backup/BaseLUTs - Panasonic V-LogL.cube
TITLE "BaseLUTs - Panasonic V-LogL Conversion LUT by Gamut"
# Designed for converting V-Gamut / V-LogL to Rec709 Color Space. Version 1.3 - 06/23/2022 -  Copyright 2022 Gamut, LLC
# 
LUT_3D_SIZE 33
0.0000000000 0.0000000000 0.0000000000
0.0000000000 0.0000000000 0.0000000000
0.0000000000 0.0000000000 0.0000000000
0.0068013125 0.0000000000 0.0000000000
0.0239526250 0.0000000000 0.0014785000
0.0536992813 0.0000000000 0.0036965938
0.0858685625 0.0000000000 0.0068013125
0.1254617188 0.0006164062 0.0113114375
0.1690232500 0.0007890000 0.0159685000
0.2203449062 0.0007890000 0.0206265625
0.2850191250 0.0007890000 0.0260726250
0.3582737812 0.0000000000 0.0307296875
0.4382882500 0.0000000000 0.0366688750
0.5275121250 0.0004684687 0.0478691250
0.6147661875 0.0024640625 0.0644009375
0.7013505313 0.0047310000 0.0816530938
0.7918945000 0.0039425000 0.0960685000
0.8757225312 0.0016267812 0.1055371250
0.9396354375 0.0004438125 0.1125344375
0.9780775000 0.0000000000 0.1186290312
0.9965642500 0.0000000000 0.1244381250
0.9999814375 0.0000000000 0.1291704687
0.9999915625 0.0000000000 0.1324809375
0.9999611875 0.0002219062 0.1344540312
1.0000000000 0.0005917500 0.1353890000
1.0000000000 0.0000000000 0.1353890000
1.0000000000 0.0000000000 0.1353890000
1.0000000000 0.0000000000 0.1353890000
1.0000000000 0.0000000000 0.1353890000
1.0000000000 0.0000000000 0.1353890000
1.0000000000 0.0000000000 0.1353890000
1.0000000000 0.0000000000 0.1353890000
1.0000000000 0.0000000000 0.1353890000
0.0000000000 0.0000000000 0.0000000000
0.0000000000 0.0000000000 0.0000000000
0.0000000000 0.0000000000 0.0000000000
0.0068013125 0.0000000000 0.0000000000
0.0210942500 0.0000000000 0.0014785000
0.0505114688 0.0000000000 0.0030308750
0.0818021875 0.0000000000 0.0066780312
0.1212069375 0.0006164062 0.0105224375
0.1650353125 0.0007890000 0.0153767500
0.2156812812 0.0007890000 0.0204293125
0.2821580312 0.0007890000 0.0258507187
0.3582669688 0.0000000000 0.0307296875
0.4404479062 0.0000000000 0.0371613750
0.5325995937 0.0004684687 0.0485424375
0.6210481562 0.0028092500 0.0655112500
0.7077842187 0.0047310000 0.0825738125
0.7991147188 0.0035731250 0.0966579062
0.8832071563 0.0012322813 0.1060706875
0.9453657500 0.0004438125 0.1133774062
0.9811040625 0.0000000000 0.1194880937
0.9974545000 0.0002958750 0.1249496875
1.0000000000 0.0002712187 0.1294787500
0.9999915625 0.0000000000 0.1327728750
0.9999611875 0.0002219062 0.1344540312
1.0000000000 0.0005917500 0.1351762500
1.0000000000 0.0000000000 0.1353890000
1.0000000000 0.0000000000 0.1353890000
1.0000000000 0.0000000000 0.1353890000
1.0000000000 0.0000000000 0.1353890000
1.0000000000 0.0000000000 0.1353890000
1.0000000000 0.0000000000 0.1353890000
1.0000000000 0.0000000000 0.1353890000
1.0000000000 0.0000000000 0.1353890000
0.0000000000 0.0000000000 0.0000000000
0.0000000000 0.0000000000 0.0000000000
0.0000000000 0.0000000000 0.0000000000
0.0000000000 0.0000000000 0.0000000000
0.0103500000 0.0000000000 0.0000000000
0.0344997500 0.0000000000 0.0021688437
0.0663193750 0.0000000000 0.0044846250
0.1061500312 0.0000000000 0.0089947500
0.1542443750 0.0007890000 0.0143915000
0.2120318438 0.0007890000 0.0198375625
0.2864929375 0.0002465625 0.0258260625
0.3700762500 0.0000000000 0.0314693750
0.4604751875 0.0000000000 0.0391747500
0.5578480625 0.0012568750 0.0529394375
0.6477813125 0.0039918125 0.0713149375
0.7332630000 0.0050515312 0.0871369375
0.8216990625 0.0031545000 0.0991919375
0.9010764375 0.0012076250 0.1077160937
0.9565322500 0.0004438125 0.1145888750
0.9865238750 0.0000000000 0.1204522813
0.9988212500 0.0000000000 0.1255762500
0.9999839687 0.0002712187 0.1296628125
0.9999915625 0.0000000000 0.1324998125
0.9999611875 0.0002219062 0.1344540312
1.0000000000 0.0005917500 0.1351670000
1.0000000000 0.0000000000 0.1353890000
1.0000000000 0.0000000000 0.1353890000
1.0000000000 0.0000000000 0.1353890000
1.0000000000 0.0000000000 0.1353890000
1.0000000000 0.0000000000 0.1353890000
1.0000000000 0.0000000000 0.1353890000
1.0000000000 0.0000000000 0.1353890000
1.0000000000 0.0000000000 0.1353890000
0.0000000000 0.0000000000 0.0000000000
0.0000000000 0.0000000000 0.0000000000
0.0000000000 0.0000000000 0.0000000000
0.0000000000 0.0000000000 0.0000000000
0.0032279687 0.0000000000 0.0000000000
0.0272055625 0.0000000000 0.0014538750
0.0653218125 0.0000000000 0.0050763750
0.1101105625 0.0000000000 0.0097336563
0.1656801562 0.0005917500 0.0156975312
0.2315600000 0.0013553750 0.0219077813
0.3129757812 0.0007890000 0.0275756563
0.4002043750 0.0007150312 0.0335388437
0.4918108750 0.0004931250 0.0423773750
0.5853820625 0.0024394687 0.0582935313
0.6700297500 0.0055447500 0.0763323125
0.7494921562 0.0058158750 0.0904395937
0.8319444687 0.0031545000 0.1008000937
0.9071294375 0.0012076250 0.1082915313
0.9596576875 0.0000000000 0.1146328125
0.9879238437 0.0000000000 0.1201942500
0.9991275000 0.0002958750 0.1253085000
0.9999814375 0.0000000000 0.1292687187
0.9999915625 0.0000000000 0.1323875000
0.9999460000 0.0000000000 0.1341012812
1.0000000000 0.0005917500 0.1351670000
1.0000000000 0.0000000000 0.1353890000
1.0000000000 0.0000000000 0.1353890000
1.0000000000 0.0000000000 0.1353890000
1.0000000000 0.0000000000 0.1353890000
1.0000000000 0.0000000000 0.1353890000
1.0000000000 0.0000000000 0.1353890000
1.0000000000 0.0000000000 0.1353890000
1.0000000000 0.0000000000 0.1353890000
0.0000000000 0.0169545000 0.0056190000
0.0000000000 0.0155746250 0.0049286250
0.0007396875 0.0113356250 0.0034994375
0.0028830000 0.0071713437 0.0013798750
0.0085758750 0.0050271250 0.0013798750
0.0342536875 0.0058161250 0.0021442187
0.0740154375 0.0058161250 0.0058653750
0.1269945937 0.0064070000 0.0112128125
0.1896483750 0.0082801250 0.0172498750
0.2611072500 0.0098324688 0.0227699375
0.3406022500 0.0089700625 0.0277482500
0.4217716563 0.0068505937 0.0337114375
0.5053962500 0.0057175000 0.0432002500
0.5915174687 0.0070725938 0.0591672812
0.6702515000 0.0095120000 0.0758778750
0.7455363437 0.0094381250 0.0897018125
0.8245728750 0.0060127500 0.0997981250
0.8993471875 0.0022176563 0.1069485000
0.9544215625 0.0007890000 0.1133260625
0.9854590000 0.0000000000 0.1190486250
0.9984951250 0.0000000000 0.1242813750
0.9999907188 0.0000000000 0.1284843750
1.0000000000 0.0000000000 0.1319148125
0.9999654062 0.0000000000 0.1338964062
1.0000000000 0.0007890000 0.1351670000
1.0000000000 0.0000000000 0.1353890000
1.0000000000 0.0000000000 0.1353890000
1.0000000000 0.0000000000 0.1353890000
1.0000000000 0.0000000000 0.1353890000
1.0000000000 0.0000000000 0.1353890000
1.0000000000 0.0000000000 0.1353890000
1.0000000000 0.0000000000 0.1353890000
1.0000000000 0.0000000000 0.1353890000
0.0000000000 0.0739073125 0.0250868438
0.0000000000 0.0712320625 0.0241993750
0.0013305937 0.0664810000 0.0191969375
0.0043367500 0.0619883125 0.0106950313
0.0232876875 0.0547379375 0.0049036250
0.0495257500 0.0469169062 0.0023660000
0.0892426562 0.0423468750 0.0059885000
0.1395870312 0.0396160312 0.0112621250
0.1972970625 0.0383568125 0.0181372500
0.2634109375 0.0372835313 0.0228685625
0.3356815625 0.0338842812 0.0275263438
0.4122592188 0.0279204375 0.0328244688
0.4933791875 0.0230659687 0.0418207500
0.5779618750 0.0207986562 0.0567496875
0.6553196875 0.0210697188 0.0725851563
0.7290483437 0.0193446250 0.0865062500
0.8071565938 0.0147857187 0.0971570938
0.8840270938 0.0084031875 0.1048495937
0.9441444063 0.0043372500 0.1111296563
0.9799795937 0.0024643437 0.1171532812
0.9969851250 0.0011583750 0.1225339063
1.0000000000 0.0006657187 0.1271368438
1.0000000000 0.0005424375 0.1308514062
0.9999881875 0.0000000000 0.1333080000
1.0000000000 0.0007890000 0.1346677500
1.0000000000 0.0007890000 0.1351392500
1.0000000000 0.0005177813 0.1353890000
1.0000000000 0.0000000000 0.1353890000
1.0000000000 0.0000000000 0.1353890000
1.0000000000 0.0000000000 0.1353890000
1.0000000000 0.0000000000 0.1353890000
1.0000000000 0.0000000000 0.1353890000
1.0000000000 0.0000000000 0.1353890000
0.0000000000 0.1581912500 0.0422492500
0.0000000000 0.1530545625 0.0393792188
0.0008875000 0.1442845625 0.0288813125
0.0075162500 0.1360328750 0.0145637500
0.0229674375 0.1276776250 0.0018732500
0.0594943437 0.1133433750 0.0009367500
0.0993805625 0.0983141875 0.0023660000
0.1438489688 0.0853667500 0.0076394688
0.1894745625 0.0785334375 0.0161656250
0.2430009375 0.0748448750 0.0236327187
0.3064613125 0.0702770625 0.0290788750
0.3788442500 0.0633310937 0.0343770000
0.4593664375 0.0552872500 0.0419933125
0.5457120000 0.0492192188 0.0545582812
0.6256080625 0.0457926250 0.0691016250
0.7021849375 0.0418867187 0.0832975625
0.7831663750 0.0345493750 0.0944703750
0.8634338125 0.0245195000 0.1023644375
0.9287261250 0.0162146250 0.1086383750
0.9707345625 0.0107935938 0.1143105000
0.9931965625 0.0071955625 0.1199980000
1.0000000000 0.0045094687 0.1248006250
1.0000000000 0.0027105625 0.1286203125
1.0000000000 0.0022180625 0.1317636562
1.0000000000 0.0016760625 0.1334951250
1.0000000000 0.0007890000 0.1341384375
1.0000000000 0.0007890000 0.1346120000
1.0000000000 0.0007890000 0.1348533125
1.0000000000 0.0007890000 0.1349088125
1.0000000000 0.0007890000 0.1351485000
1.0000000000 0.0006410625 0.1351485000
1.0000000000 0.0006410625 0.1351577500
1.0000000000 0.0006410625 0.1353890000
0.0000000000 0.2435062500 0.0317619688
0.0000000000 0.2368234687 0.0289557500
0.0007396875 0.2247362187 0.0208234687
0.0027602500 0.2123926250 0.0066778125
0.0155739688 0.1966093437 0.0009861250
0.0449835938 0.1788392188 0.0001232812
0.0925656875 0.1593112500 0.0000246562
0.1404841562 0.1400300000 0.0028090312
0.1866752812 0.1256407187 0.0085754375
0.2325244063 0.1182023750 0.0176196250
0.2842024687 0.1129562188 0.0275265312
0.3461523125 0.1065997500 0.0363979687
0.4205011250 0.0989636563 0.0446298125
0.5058812500 0.0912281250 0.0552976563
0.5883053750 0.0856410625 0.0686173125
0.6681548750 0.0801311875 0.0817373125
0.7525528750 0.0708519687 0.0930748437
0.8363210937 0.0579572187 0.1008584063
0.9072347188 0.0443560000 0.1065948125
0.9568291250 0.0340565000 0.1118194375
0.9864700937 0.0266389062 0.1173567813
0.9988655625 0.0207742187 0.1222922812
1.0000000000 0.0155001875 0.1263027187
1.0000000000 0.0118040000 0.1292888437
1.0000000000 0.0086492500 0.1313845625
1.0000000000 0.0065059063 0.1325386875
1.0000000000 0.0045095312 0.1329048750
1.0000000000 0.0033021563 0.1332704062
1.0000000000 0.0026366563 0.1335415000
1.0000000000 0.0014046250 0.1338312813
1.0000000000 0.0013553750 0.1342503438
1.0000000000 0.0007890000 0.1343432187
1.0000000000 0.0007890000 0.1346305000
0.0000000000 0.3304327500 0.0110397500
0.0000000000 0.3234047812 0.0100791563
0.0000000000 0.3081264375 0.0064067500
0.0016264063 0.2900667500 0.0013556563
0.0074913750 0.2693343750 0.0001972500
0.0306311875 0.2471127500 0.0000000000
0.0727691250 0.2246348125 0.0000000000
0.1268353750 0.2033590625 0.0008136250
0.1778535000 0.1843425000 0.0029570000
0.2279882812 0.1716177812 0.0091425312
0.2794512500 0.1626106250 0.0197144375
0.3358536563 0.1553093125 0.0319371250
0.4005755000 0.1484272500 0.0449636250
0.4775283750 0.1410115625 0.0576962187
0.5562940625 0.1347316250 0.0705977500
0.6357536250 0.1287032813 0.0832523750
0.7212495000 0.1196975000 0.0943280000
0.8064122188 0.1064248437 0.1022369688
0.8813806875 0.0911318125 0.1071010000
0.9382688125 0.0775296250 0.1117083437
0.9760886250 0.0660440000 0.1165062500
0.9948862500 0.0555080938 0.1212065625
1.0000000000 0.0460555625 0.1249038125
1.0000000000 0.0376779063 0.1276967187
1.0000000000 0.0303600000 0.1297417500
1.0000000000 0.0247169375 0.1308052188
1.0000000000 0.0198623750 0.1311761875
1.0000000000 0.0155248437 0.1314705938
1.0000000000 0.0128143750 0.1317640000
1.0000000000 0.0095860312 0.1320575625
1.0000000000 0.0074420000 0.1324246250
1.0000000000 0.0055202500 0.1329424063
1.0000000000 0.0045342500 0.1329330000
0.0000000000 0.4171777187 0.0014541563
0.0000000000 0.4091270938 0.0014541563
0.0000000000 0.3915379688 0.0004928438
0.0007890000 0.3701804062 0.0002219063
0.0046819375 0.3478197500 0.0000000000
0.0176445313 0.3248245938 0.0000000000
0.0527195312 0.3010397812 0.0000000000
0.1049500625 0.2782362812 0.0000000000
0.1625392500 0.2578074375 0.0014046563
0.2191449688 0.2391934062 0.0045093750
0.2763039375 0.2252491250 0.0112619687
0.3363209375 0.2140879375 0.0233370000
0.3994356562 0.2045161250 0.0385167500
0.4684811562 0.1962038750 0.0557617813
0.5391699375 0.1891316875 0.0715125000
0.6132783750 0.1827879375 0.0857384375
0.6953355312 0.1749820938 0.0981135625
0.7791565000 0.1640044375 0.1064795625
0.8555969375 0.1503130000 0.1116194687
0.9177131563 0.1361390000 0.1154036875
0.9628804687 0.1223635937 0.1192655625
0.9884583125 0.1091691875 0.1232406562
0.9985556250 0.0964435000 0.1264971250
1.0000000000 0.0840782812 0.1287373125
1.0000000000 0.0724364063 0.1303165937
1.0000000000 0.0619607500 0.1309382188
1.0000000000 0.0524315937 0.1308624063
1.0000000000 0.0444080000 0.1308910000
1.0000000000 0.0380340937 0.1311102188
1.0000000000 0.0322577500 0.1311960000
1.0000000000 0.0259984375 0.1309767813
1.0000000000 0.0213163438 0.1313761875
1.0000000000 0.0184086250 0.1313667187
0.0000000000 0.5008305000 0.0000000000
0.0000000000 0.4911068438 0.0000000000
0.0000000000 0.4716763750 0.0000000000
0.0001725938 0.4502699375 0.0000000000
0.0024151250 0.4283563125 0.0000000000
0.0106704687 0.4057045938 0.0000000000
0.0326635000 0.3831078125 0.0000000000
0.0777480313 0.3612403750 0.0000000000
0.1373606250 0.3400491875 0.0000493125
0.2019265000 0.3194409062 0.0016262813
0.2660713750 0.3005557500 0.0060624375
0.3309828750 0.2845641875 0.0143176875
0.3989101875 0.2705516875 0.0279451250
0.4686998437 0.2584647187 0.0471680625
0.5355334375 0.2490157500 0.0668455000
0.6041355625 0.2418691250 0.0857187500
0.6807753750 0.2349590625 0.1017491875
0.7605195938 0.2265503125 0.1127308750
0.8353258750 0.2157809375 0.1191625625
0.8992398125 0.2029735313 0.1228066250
0.9494521250 0.1891384375 0.1261540000
0.9810168125 0.1749462500 0.1291265313
0.9952292500 0.1606994375 0.1316391875
0.9998257187 0.1464242500 0.1333357500
1.0000000000 0.1321259375 0.1341985625
1.0000000000 0.1180309062 0.1341890937
1.0000000000 0.1052129375 0.1338835625
1.0000000000 0.0935042500 0.1331553750
1.0000000000 0.0827606250 0.1321978750
1.0000000000 0.0729499063 0.1317926250
1.0000000000 0.0636420000 0.1314043125
1.0000000000 0.0552563750 0.1312995313
1.0000000000 0.0506459375 0.1309863125
0.0005177813 0.5864896875 0.0005177813
0.0000000000 0.5753725312 0.0000000000
0.0000000000 0.5556681250 0.0000000000
0.0005177813 0.5334537187 0.0000000000
0.0014785000 0.5113198125 0.0000000000
0.0062350000 0.4891145937 0.0000000000
0.0207003437 0.4673999375 0.0000000000
0.0521144375 0.4468280000 0.0000000000
0.1058773750 0.4262971875 0.0000000000
0.1745048437 0.4044550313 0.0007890000
0.2474389063 0.3829957188 0.0024152812
0.3179996875 0.3630116250 0.0076147813
0.3899923750 0.3448853438 0.0179155312
0.4648140937 0.3284026250 0.0350669063
0.5351604688 0.3153553125 0.0568672187
0.6039683750 0.3058590937 0.0801292188
0.6778120313 0.2985695938 0.1016705625
0.7532593750 0.2916614375 0.1173116875
0.8240873750 0.2829491875 0.1264320938
0.8867222813 0.2719550938 0.1314799375
0.9388345625 0.2592035938 0.1350943125
0.9743605312 0.2454645313 0.1378555000
0.9921993437 0.2313856563 0.1400312187
0.9990271562 0.2169091563 0.1414502187
1.0000000000 0.2018363750 0.1418521875
1.0000000000 0.1864353125 0.1412648438
1.0000000000 0.1716656875 0.1401472187
1.0000000000 0.1577932500 0.1387888125
1.0000000000 0.1445390313 0.1373189375
1.0000000000 0.1321319688 0.1361412812
1.0000000000 0.1200022188 0.1350227813
1.0000000000 0.1091920000 0.1339760937
1.0000000000 0.1024335937 0.1336773750
0.0000000000 0.6785941250 0.0000000000
0.0002712187 0.6671003125 0.0002712187
0.0002958750 0.6482534375 0.0002958750
0.0007890000 0.6264340312 0.0000000000
0.0014785000 0.6045646250 0.0000000000
0.0038689688 0.5832866875 0.0000000000
0.0132580625 0.5623305000 0.0000000000
0.0352963750 0.5417860000 0.0000000000
0.0774240000 0.5205340000 0.0000000000
0.1421536250 0.4973665625 0.0005670937
0.2191467500 0.4738278125 0.0013800625
0.2978282187 0.4507075000 0.0037210625
0.3750401250 0.4285460000 0.0104486250
0.4537663750 0.4080726562 0.0238048437
0.5295006875 0.3911085000 0.0438050000
0.6037052813 0.3777883438 0.0686972500
0.6800917500 0.3674616250 0.0955881250
0.7542150625 0.3590318125 0.1169716563
0.8215136250 0.3507200000 0.1302716250
0.8811534062 0.3409868437 0.1379527500
0.9324357500 0.3295736250 0.1430757500
0.9694812188 0.3170869375 0.1469111875
0.9898761250 0.3041966250 0.1496982500
0.9984325313 0.2907216875 0.1514555000
1.0000000000 0.2762471250 0.1519940000
1.0000000000 0.2612137812 0.1515205000
1.0000000000 0.2459848125 0.1502799375
1.0000000000 0.2311805313 0.1482767500
1.0000000000 0.2174212500 0.1465527500
1.0000000000 0.2040200625 0.1445943438
1.0000000000 0.1904966875 0.1428296875
1.0000000000 0.1776640000 0.1411109375
1.0000000000 0.1661636250 0.1396576250
0.0000000000 0.7712627500 0.0000000000
0.0000000000 0.7605904375 0.0000000000
0.0000000000 0.7441581250 0.0000000000
0.0000000000 0.7249241875 0.0000000000
0.0002219062 0.7054938750 0.0000000000
0.0024397188 0.6861634062 0.0000000000
0.0085755312 0.6667310000 0.0000000000
0.0241009062 0.6461993750 0.0000000000
0.0567981875 0.6236945000 0.0001232812
0.1117888750 0.5988430625 0.0007890000
0.1860773750 0.5732095937 0.0008628750
0.2693770313 0.5476799375 0.0024152500
0.3550675313 0.5222113125 0.0060870312
0.4396310000 0.4974510313 0.0148102187
0.5190839375 0.4758712500 0.0304344375
0.5979000937 0.4576003438 0.0536165000
0.6792537500 0.4418166562 0.0829886250
0.7558074375 0.4287806250 0.1096258750
0.8224109687 0.4177631562 0.1279511563
0.8799051875 0.4075252500 0.1390228438
0.9293714063 0.3967796250 0.1462923750
0.9661893750 0.3856088750 0.1517297500
0.9876659375 0.3741492813 0.1560130625
0.9975283437 0.3622071250 0.1588982500
1.0000000000 0.3491587500 0.1605690000
1.0000000000 0.3350169375 0.1610694375
1.0000000000 0.3201798750 0.1602773438
1.0000000000 0.3055434062 0.1588005000
1.0000000000 0.2918450312 0.1569220313
1.0000000000 0.2779047500 0.1551419375
1.0000000000 0.2623209375 0.1528071875
1.0000000000 0.2462085938 0.1505828750
1.0000000000 0.2284618125 0.1478010312
0.0000000000 0.8527725000 0.0000000000
0.0000000000 0.8432459062 0.0000000000
0.0000000000 0.8292498750 0.0000000000
0.0000000000 0.8127850000 0.0000000000
0.0000000000 0.7957237500 0.0000000000
0.0002219062 0.7783342500 0.0000000000
0.0042388125 0.7601654375 0.0000000000
0.0157712187 0.7404138437 0.0000000000
0.0414385000 0.7177839375 0.0000000000
0.0874922500 0.6926446563 0.0000000000
0.1548362500 0.6664245000 0.0000000000
0.2384930625 0.6399114375 0.0004190625
0.3309400625 0.6129215625 0.0029570625
0.4237536562 0.5855873750 0.0089209062
0.5081447500 0.5603290000 0.0199116875
0.5885505625 0.5375483750 0.0389907812
0.6719675000 0.5163593750 0.0667326250
0.7514627812 0.4978881250 0.0963287188
0.8198836875 0.4823684375 0.1193789375
0.8776808750 0.4690248437 0.1344188437
0.9267241250 0.4569166250 0.1442485000
0.9632854687 0.4457172187 0.1514867500
0.9852096250 0.4352771875 0.1568692500
0.9958660000 0.4246537812 0.1610173437
0.9998490625 0.4130562500 0.1641683125
1.0000000000 0.4002333750 0.1659066250
1.0000000000 0.3867410625 0.1665253750
1.0000000000 0.3734592813 0.1660390000
1.0000000000 0.3601608125 0.1650830000
1.0000000000 0.3444060000 0.1636363750
1.0000000000 0.3258395625 0.1615965000
1.0000000000 0.3090741250 0.1594240625
1.0000000000 0.2947538750 0.1572472500
0.0044109375 0.9233084688 0.0044109375
0.0040415625 0.9157580937 0.0040415625
0.0028339375 0.9040559062 0.0028339375
0.0020454062 0.8897116250 0.0020454062
0.0008377812 0.8743172188 0.0008377812
0.0008377812 0.8579112813 0.0004191562
0.0027105625 0.8399027187 0.0000000000
0.0105717188 0.8201757813 0.0000000000
0.0292020000 0.7981805937 0.0000000000
0.0667232813 0.7740404063 0.0000000000
0.1269450313 0.7488735625 0.0000000000
0.2076308125 0.7230943125 0.0000000000
0.3039266563 0.6961162500 0.0013554687
0.4054089687 0.6683907813 0.0058650000
0.4973659062 0.6421781563 0.0145394687
0.5801751563 0.6173178750 0.0293746562
0.6619895625 0.5928155312 0.0524229687
0.7406171250 0.5703287500 0.0812346250
0.8101079063 0.5508147500 0.1076455313
0.8695564063 0.5335160313 0.1274157500
0.9203945625 0.5178277500 0.1412047500
0.9587798125 0.5042356562 0.1505476250
0.9821650937 0.4927228125 0.1566187813
0.9938565625 0.4822576562 0.1608463750
0.9986430000 0.4716998125 0.1640392500
0.9999581250 0.4606531250 0.1665122500
1.0000000000 0.4492817188 0.1677752500
1.0000000000 0.4380729688 0.1681513750
1.0000000000 0.4254636250 0.1679817500
1.0000000000 0.4093947187 0.1677148437
1.0000000000 0.3921910313 0.1669055625
1.0000000000 0.3811421250 0.1657694375
1.0000000000 0.3776113437 0.1649479062
0.0102515000 0.9789755000 0.0102515000
0.0098570000 0.9740102812 0.0098570000
0.0087233125 0.9655788750 0.0087233125
0.0074915000 0.9541401563 0.0074915000
0.0060126250 0.9408602500 0.0060126250
0.0051260000 0.9256102187 0.0044602812
0.0051260000 0.9080965625 0.0029079375
0.0093886875 0.8884553125 0.0015775000
0.0222770000 0.8666747500 0.0007885000
0.0520045312 0.8433379375 0.0003945000
0.1044241875 0.8192028750 0.0003945000
0.1810037500 0.7946653125 0.0011830000
0.2787467500 0.7693560000 0.0041401250
0.3868360312 0.7435012813 0.0101531875
0.4870618750 0.7191103125 0.0188271875
0.5753912500 0.6960027813 0.0310255625
0.6568190000 0.6723855000 0.0496680000
0.7307167188 0.6492234375 0.0735410625
0.7966315000 0.6280018125 0.0992177500
0.8556792500 0.6084868125 0.1225575000
0.9086441250 0.5894160000 0.1414082500
0.9505815937 0.5718085312 0.1547369687
0.9775132500 0.5570283750 0.1625275625
0.9917414375 0.5447661250 0.1668399375
0.9979037500 0.5340477500 0.1693547500
0.9998525000 0.5239749062 0.1705760937
1.0000000000 0.5142278125 0.1710690625
1.0000000000 0.5042703438 0.1708500625
1.0000000000 0.4936516250 0.1705117500
1.0000000000 0.4820721562 0.1702862500
1.0000000000 0.4726891875 0.1703199375
1.0000000000 0.4711471250 0.1703173750
1.0000000000 0.4758100000 0.1708800000
0.0141940000 1.0000000000 0.0141940000
0.0141940000 1.0000000000 0.0141940000
0.0134547812 0.9988285937 0.0134547812
0.0125924063 0.9944373125 0.0125924063
0.0110893125 0.9863827188 0.0110893125
0.0099063437 0.9738544688 0.0099063437
0.0089945937 0.9586557813 0.0077132813
0.0108922813 0.9406814688 0.0060126562
0.0203057500 0.9199523438 0.0044603125
0.0449297188 0.8973832500 0.0031052188
0.0916433437 0.8741583125 0.0034745938
0.1640897813 0.8510860000 0.0056678125
0.2615081250 0.8278940313 0.0116557500
0.3737205937 0.8050271875 0.0207986875
0.4806618437 0.7841342500 0.0331390000
0.5756185312 0.7646924375 0.0472189375
0.6601087500 0.7450728438 0.0641269375
0.7307411875 0.7253649375 0.0827249375
0.7899566562 0.7062501250 0.1031893125
0.8439721250 0.6878511563 0.1253179062
0.8957640625 0.6688314375 0.1471897812
0.9401850625 0.6494167500 0.1652816875
0.9712936563 0.6319152500 0.1772664687
0.9895693437 0.6172776250 0.1841208437
0.9983532187 0.6046901875 0.1874113750
1.0000000000 0.5935819687 0.1883333437
1.0000000000 0.5840570625 0.1879980313
1.0000000000 0.5758915937 0.1868106562
1.0000000000 0.5689974062 0.1857256563
1.0000000000 0.5640739375 0.1854403750
1.0000000000 0.5627386875 0.1858762813
1.0000000000 0.5674175938 0.1878157813
1.0000000000 0.5744345625 0.1895004375
0.0173490000 1.0000000000 0.0173490000
0.0173490000 1.0000000000 0.0173490000
0.0157715000 1.0000000000 0.0157715000
0.0155743125 1.0000000000 0.0155743125
0.0141940000 1.0000000000 0.0141940000
0.0135533438 0.9988641250 0.0135533438
0.0125189375 0.9908536875 0.0118778750
0.0137509687 0.9757628750 0.0100540937
0.0216365000 0.9575983750 0.0079841875
0.0435246250 0.9371531562 0.0069989375
0.0871309375 0.9158497500 0.0078858750
0.1573677813 0.8949092188 0.0124690938
0.2544035625 0.8743768750 0.0216366250
0.3690469687 0.8546380937 0.0363300625
0.4807095000 0.8371536875 0.0542702500
0.5814080000 0.8213190313 0.0727695000
